ncols        166
nrows        71
xllcorner    -3.550000000010
yllcorner    39.250000000003
cellsize     0.100000000000
NODATA_value nan
nan nan nan nan nan nan nan nan nan nan nan nan nan nan nan nan nan nan nan nan nan nan nan nan nan nan nan nan nan nan nan nan nan nan nan nan nan nan nan nan nan nan nan nan nan nan nan nan nan nan nan nan nan nan nan nan nan nan nan nan nan nan nan nan nan nan nan nan nan nan nan nan nan nan nan nan nan nan nan nan nan nan nan nan nan nan nan nan nan nan nan nan nan nan nan nan nan nan nan nan nan nan nan nan nan nan nan nan nan nan nan nan nan nan nan nan nan nan nan nan nan nan nan nan nan nan nan nan nan nan nan nan nan nan nan nan nan nan 52.626499176025390625 58.627994537353515625 50.56755828857421875 48.88372802734375 nan nan nan nan nan nan nan nan nan nan nan nan nan nan nan nan nan nan nan nan nan nan nan nan 
nan nan nan nan nan nan nan nan nan nan nan nan nan nan nan nan nan nan nan nan nan nan nan nan nan nan nan nan nan nan nan nan nan nan nan nan nan nan nan nan nan nan nan nan nan nan nan nan nan nan nan nan nan nan nan nan nan nan nan nan nan nan nan nan nan nan nan nan nan nan nan nan nan nan nan nan nan nan nan nan nan nan nan nan nan nan nan nan nan nan nan nan nan nan nan nan nan nan nan nan nan nan nan nan nan nan nan nan nan nan nan nan nan nan nan nan nan nan nan nan nan nan nan nan nan nan nan nan nan nan nan nan nan nan nan nan nan 43.258876800537109375 45.610469818115234375 58.68070220947265625 50.920558929443359375 56.59423065185546875 nan nan nan nan nan nan nan nan nan nan nan nan nan nan nan nan nan nan nan nan nan nan nan nan 
nan nan nan nan nan nan nan nan nan nan nan nan nan nan nan nan nan nan nan nan nan nan nan nan nan nan nan nan nan nan nan nan nan nan nan nan nan nan nan nan nan nan nan nan nan nan nan nan nan nan nan nan nan nan nan nan nan nan nan nan nan nan nan nan nan nan nan nan nan nan nan nan nan nan nan nan nan nan nan nan nan nan nan nan nan nan nan nan nan nan nan nan nan nan nan nan nan nan nan nan nan nan nan nan nan nan nan nan nan nan nan nan nan nan nan nan nan nan nan nan nan nan nan nan nan nan nan nan nan nan nan 53.224945068359375 60.8141021728515625 60.33502960205078125 60.23500823974609375 62.2463531494140625 57.81317138671875 54.7708282470703125 51.544551849365234375 55.98966217041015625 54.402935028076171875 nan nan nan nan nan nan nan nan nan nan nan nan nan nan nan nan nan nan nan nan nan nan nan nan nan 
nan nan nan nan nan nan nan nan nan nan nan nan nan nan nan nan nan nan nan nan nan nan nan nan nan nan nan nan nan nan nan nan nan nan nan nan nan nan nan nan nan nan nan nan nan nan nan nan nan nan nan nan nan nan nan nan nan nan nan nan nan nan nan nan nan nan nan nan nan nan nan nan nan nan nan nan nan nan nan nan nan nan nan nan nan nan nan nan nan nan nan nan nan nan nan nan nan nan nan nan nan nan nan nan nan nan nan nan nan nan nan nan nan nan nan nan nan nan nan nan nan nan nan nan nan nan nan nan nan nan 54.966949462890625 53.53633880615234375 56.08301544189453125 54.5047149658203125 54.34418487548828125 55.15502166748046875 55.841121673583984375 53.0047760009765625 47.90940093994140625 55.6595458984375 56.852481842041015625 nan nan nan nan nan nan nan 33.813549041748046875 40.5011749267578125 35.216388702392578125 40.144927978515625 45.7191925048828125 nan nan nan nan nan nan nan nan nan nan nan nan nan 
nan nan nan nan nan nan nan nan nan nan nan nan nan nan nan nan nan nan nan nan nan nan nan nan nan nan nan nan nan nan nan nan nan nan nan nan nan nan nan nan nan nan nan nan nan nan nan nan nan nan nan nan nan nan nan nan nan nan nan nan nan nan nan nan nan nan nan nan nan nan nan nan nan nan nan nan nan nan nan nan nan nan nan nan nan nan nan nan nan nan nan nan nan nan nan nan nan nan nan nan nan nan nan nan nan nan nan nan nan nan nan nan nan nan nan nan nan nan nan nan nan nan nan nan nan nan nan nan nan nan 42.839443206787109375 48.1772003173828125 49.153011322021484375 50.161163330078125 49.682971954345703125 39.90413665771484375 48.91725921630859375 42.299427032470703125 43.26274871826171875 44.5264434814453125 47.685886383056640625 52.426471710205078125 nan nan nan nan nan 37.9976806640625 42.161609649658203125 37.876735687255859375 25.094396591186523438 32.834506988525390625 49.448024749755859375 43.785343170166015625 nan nan nan nan nan nan nan nan nan nan nan nan 
nan nan nan nan nan nan nan nan nan nan nan nan nan nan nan nan nan nan nan nan nan nan nan nan nan nan nan nan nan nan nan nan nan nan nan nan nan nan nan nan nan nan nan nan nan nan nan nan nan nan nan nan nan nan nan nan nan nan nan nan nan nan nan nan nan nan nan nan nan nan nan nan nan nan nan nan nan nan nan nan nan nan nan nan nan nan nan nan nan nan nan nan nan nan nan nan nan nan nan nan nan nan nan nan nan nan nan nan nan nan nan nan nan nan nan nan nan nan nan nan nan nan nan nan nan nan nan nan nan nan 39.90573883056640625 40.38640594482421875 41.99260711669921875 41.70476531982421875 37.273067474365234375 36.920658111572265625 33.704620361328125 43.35363006591796875 45.363697052001953125 51.45355224609375 47.05585479736328125 53.693325042724609375 51.759136199951171875 31.7694244384765625 45.904026031494140625 nan nan 54.095142364501953125 47.571384429931640625 34.71869659423828125 26.751829147338867188 27.826154708862304688 31.957212448120117188 14.45133209228515625 nan nan nan nan nan nan nan 0.86726248264312744141 0.72049492597579956055 0.75085294246673583984 0.56679534912109375 1.0003647804260253906 
nan nan nan nan nan nan nan nan nan nan nan nan nan nan nan nan nan nan nan nan nan nan nan nan nan nan nan nan nan nan nan nan nan nan nan nan nan nan nan nan nan nan nan nan nan nan nan nan nan nan nan nan nan nan nan nan nan nan nan nan nan nan nan nan nan nan nan nan nan nan nan nan nan nan nan nan nan nan nan nan nan nan nan nan nan nan nan nan nan nan nan nan nan nan nan nan nan nan nan nan nan nan nan nan nan nan nan nan nan nan nan nan nan nan nan nan nan nan nan nan nan nan nan nan nan nan 4.8518519401550292969 4.6178498268127441406 6.8203501701354980469 9.2363901138305664063 11.942043304443359375 5.2504315376281738281 8.9569520950317382813 18.3284454345703125 31.40314483642578125 35.570068359375 28.329395294189453125 47.251338958740234375 42.840305328369140625 37.153533935546875 45.008930206298828125 48.263641357421875 20.83759307861328125 37.758136749267578125 47.639263153076171875 37.1010894775390625 50.363109588623046875 42.772922515869140625 32.1833648681640625 7.4263606071472167969 4.140834808349609375 5.7207050323486328125 1.1951659917831420898 0.91967999935150146484 0.79088944196701049805 nan nan nan nan nan 0.68150669336318969727 0.54082953929901123047 0.57195442914962768555 0.44526451826095581055 0.40453109145164489746 0.52184337377548217773 
nan nan nan nan nan nan nan nan nan nan nan nan nan nan nan nan nan nan nan nan nan nan nan nan nan nan nan nan nan nan nan nan nan nan nan nan nan nan nan nan nan nan nan nan nan nan nan nan nan nan nan nan nan nan nan nan nan nan nan nan nan nan nan nan nan nan nan nan nan nan nan nan nan nan nan nan nan nan nan nan nan nan nan nan nan nan nan nan nan nan nan nan nan nan nan nan nan nan nan nan nan nan nan nan nan nan nan nan nan nan nan nan nan nan nan nan nan nan nan nan nan nan 3.9537286758422851563 1.9869110584259033203 1.965305328369140625 1.8328523635864257813 1.9273802042007446289 1.3662464618682861328 2.0732083320617675781 1.6327623128890991211 2.7566051483154296875 1.6671783924102783203 1.1028382778167724609 1.1757950782775878906 3.4935953617095947266 8.0848760604858398438 12.589566230773925781 23.885967254638671875 37.965972900390625 25.959112167358398438 20.679365158081054688 5.9708256721496582031 11.652020454406738281 22.67748260498046875 34.423248291015625 27.542743682861328125 28.730131149291992188 31.728481292724609375 22.48937225341796875 20.3364105224609375 4.1211404800415039063 0.80195850133895874023 0.80470979213714599609 0.98264080286026000977 0.68845468759536743164 0.6641514897346496582 0.6563695073127746582 0.7049541473388671875 0.88857471942901611328 0.56708121299743652344 0.44880917668342590332 0.56642913818359375 0.43447929620742797852 0.48243784904479980469 0.29803484678268432617 0.21097607910633087158 
nan nan nan nan nan nan nan nan nan nan nan nan nan nan nan nan nan nan nan nan nan nan nan nan nan nan nan nan nan nan nan nan nan nan nan nan nan nan nan nan nan nan nan nan nan nan nan nan nan nan nan nan nan nan nan nan nan nan nan nan nan nan nan nan nan nan nan nan nan nan nan nan nan nan nan nan nan nan nan nan nan nan nan nan nan nan nan nan nan nan nan nan nan nan nan nan nan nan nan nan nan nan nan nan nan nan nan nan nan nan nan nan nan nan nan nan nan nan nan nan nan nan 2.1755733489990234375 2.0935976505279541016 1.1034055948257446289 1.1968410015106201172 1.5222461223602294922 2.0873920917510986328 1.5105504989624023438 0.95729166269302368164 1.3129328489303588867 0.82045114040374755859 0.7707455754280090332 0.71408027410507202148 1.0662587881088256836 0.83639371395111083984 1.0371906757354736328 2.1946930885314941406 9.3058538436889648438 3.9066283702850341797 5.809398651123046875 0.6131642460823059082 1.5578352212905883789 7.2793226242065429688 7.4527044296264648438 19.008174896240234375 21.75917816162109375 21.247198104858398438 18.050462722778320313 7.2875041961669921875 15.155139923095703125 6.4426789283752441406 0.75802505016326904297 0.76843392848968505859 0.70861822366714477539 0.55135911703109741211 0.70081281661987304688 0.90462857484817504883 0.63951969146728515625 0.2686996757984161377 0.19864670932292938232 0.32622078061103820801 0.22594444453716278076 nan nan nan 
nan nan nan nan nan nan nan nan nan nan nan nan nan nan nan nan nan nan nan nan nan nan nan nan nan nan nan nan nan nan nan nan nan nan nan nan nan nan nan nan nan nan nan nan nan nan nan nan nan nan nan nan nan nan nan nan nan nan nan nan nan nan nan nan nan nan nan nan nan nan nan nan nan nan nan nan nan nan nan nan nan nan nan nan nan nan nan nan nan nan nan nan nan nan nan nan nan nan nan nan nan nan nan nan nan nan nan nan nan nan nan nan nan nan nan nan nan nan nan nan nan nan nan 1.7049483060836791992 1.5114843845367431641 0.84139835834503173828 0.95484060049057006836 1.2580629587173461914 1.1551855802536010742 0.91656821966171264648 1.0354516506195068359 0.76893305778503417969 0.87722009420394897461 0.67849171161651611328 0.97683429718017578125 0.56359428167343139648 0.72997826337814331055 0.7305545806884765625 0.84213483333587646484 1.374234318733215332 3.7148754596710205078 3.9155013561248779297 4.6534533500671386719 4.2935314178466796875 1.2170618772506713867 1.6805036067962646484 2.7587008476257324219 3.1469061374664306641 3.1232137680053710938 4.9608716964721679688 16.837926864624023438 4.8204779624938964844 5.9528608322143554688 1.2035889625549316406 1.0741984844207763672 0.71289616823196411133 0.62654709815979003906 0.46584028005599975586 0.38861745595932006836 0.2578086555004119873 nan nan nan nan nan nan 
nan nan nan nan nan nan nan nan nan nan nan nan nan nan nan nan nan nan nan nan nan nan nan nan nan nan nan nan nan nan nan nan nan nan nan nan nan nan nan nan nan nan nan nan nan nan nan nan nan nan nan nan nan nan nan nan nan nan nan nan nan nan nan nan nan nan nan nan nan nan nan nan nan nan nan nan nan nan nan nan nan nan nan nan nan nan nan nan nan nan nan nan nan nan nan nan nan nan nan nan nan nan nan nan nan nan nan nan nan nan nan nan nan nan nan nan nan nan nan nan 1.0421901941299438477 0.60599154233932495117 0.80919224023818969727 1.3363577127456665039 2.4790048599243164063 1.8078254461288452148 0.76959985494613647461 0.7906277775764465332 0.77426820993423461914 1.0307159423828125 1.0495553016662597656 1.0373177528381347656 1.4274860620498657227 0.74383914470672607422 0.87394976615905761719 1.081714630126953125 0.9912624359130859375 0.81555569171905517578 0.61703222990036010742 0.60331416130065917969 0.60531753301620483398 1.473185420036315918 2.2420961856842041016 0.61483049392700195313 0.54833209514617919922 0.83312338590621948242 0.71300387382507324219 0.7562274932861328125 0.83458244800567626953 0.61722511053085327148 0.59652364253997802734 2.7377541065216064453 21.014963150024414063 3.4736678600311279297 0.55140227079391479492 0.53306567668914794922 0.53386139869689941406 0.080654151737689971924 nan nan nan nan nan nan nan nan 
nan nan nan nan nan nan nan nan nan nan nan nan nan nan nan nan nan nan nan nan nan nan nan nan nan nan nan nan nan nan nan nan nan nan nan nan nan nan nan nan nan nan nan nan nan nan nan nan nan nan nan nan nan nan nan nan nan nan nan nan nan nan nan nan nan nan nan nan nan nan nan nan nan nan nan nan nan nan nan nan nan nan nan nan nan nan nan nan nan nan nan nan nan nan nan nan nan nan nan nan nan nan nan nan nan nan nan nan nan nan nan nan nan nan nan nan 2.9329955577850341797 3.7138829231262207031 3.3119893074035644531 0.89028966426849365234 0.79743236303329467773 0.85446476936340332031 0.9684149622917175293 1.4708501100540161133 1.3476811647415161133 1.982567906379699707 1.6790058612823486328 1.3247778415679931641 0.75066840648651123047 1.5995616912841796875 1.9319962263107299805 0.73200142383575439453 0.85344266891479492188 1.3164469003677368164 0.75362515449523925781 0.5170930027961730957 0.5908921360969543457 0.71327650547027587891 0.83925098180770874023 0.72474461793899536133 0.3762804865837097168 0.39322507381439208984 1.0216356515884399414 0.82704526185989379883 0.46825006604194641113 0.73894965648651123047 0.63682383298873901367 0.83083194494247436523 0.88777786493301391602 0.62140369415283203125 0.56193429231643676758 0.68061602115631103516 2.3511769771575927734 0.70256030559539794922 0.64213341474533081055 0.58968114852905273438 0.46732047200202941895 0.39172536134719848633 0.33573299646377563477 nan nan nan nan nan nan nan 
nan nan nan nan nan nan nan nan nan nan nan nan nan nan nan nan nan nan nan nan nan nan nan nan nan nan nan nan nan nan nan nan nan nan nan nan nan nan nan nan nan nan nan nan nan nan nan nan nan nan nan nan nan nan nan nan nan nan nan nan nan nan nan nan nan nan nan nan nan nan nan nan nan nan nan nan nan nan nan nan nan nan nan nan nan nan nan nan nan nan nan nan nan nan nan nan nan nan nan nan nan nan nan nan nan nan nan nan nan nan nan nan nan nan nan nan 16.124536514282226563 16.768201828002929688 12.931488990783691406 11.436141014099121094 1.5450025796890258789 1.9323124885559082031 0.91278558969497680664 1.0048429965972900391 1.2967690229415893555 1.3159633874893188477 1.332375645637512207 0.959346771240234375 4.1195807456970214844 1.9603097438812255859 1.5386010408401489258 1.0772901773452758789 1.2622478008270263672 1.3203384876251220703 1.1606355905532836914 0.97972053289413452148 0.54522722959518432617 0.39421314001083374023 0.39806154370307922363 0.65001618862152099609 0.68482255935668945313 0.62329375743865966797 0.55872595310211181641 0.88640010356903076172 1.0890526771545410156 0.81810057163238525391 1.1277873516082763672 0.52790647745132446289 0.55280691385269165039 0.67954695224761962891 0.77789634466171264648 0.61343860626220703125 0.60279220342636108398 0.7267971038818359375 0.59892308712005615234 0.6230399012565612793 0.49230405688285827637 0.504261016845703125 0.58935409784317016602 0.017705369740724563599 nan nan nan nan nan nan 
nan nan nan nan nan nan nan nan nan nan nan nan nan nan nan nan nan nan nan nan nan nan nan nan nan nan nan nan nan nan nan nan nan nan nan nan nan nan nan nan nan nan nan nan nan nan nan nan nan nan nan nan nan nan nan nan nan nan nan nan nan nan nan nan nan nan nan nan nan nan nan nan nan nan nan nan nan nan nan nan nan nan nan nan nan nan nan nan nan nan nan nan nan nan nan nan nan nan nan nan nan nan nan nan nan nan nan nan nan nan nan nan nan nan nan nan nan 11.200778007507324219 12.303098678588867188 11.069549560546875 7.1628441810607910156 6.64629364013671875 4.6916904449462890625 0.94046056270599365234 0.95745581388473510742 0.98563432693481445313 7.6421766281127929688 15.086599349975585938 14.210323333740234375 8.8504400253295898438 2.9008953571319580078 1.1470410823822021484 0.96909165382385253906 0.81209641695022583008 0.53340858221054077148 0.45546886324882507324 0.62861859798431396484 0.7617282867431640625 0.72953104972839355469 0.92775464057922363281 0.46766793727874755859 0.751811981201171875 1.6800867319107055664 0.75133752822875976563 0.67772030830383300781 0.68812268972396850586 0.78241044282913208008 0.75235778093338012695 0.88257199525833129883 0.77429485321044921875 0.66120481491088867188 0.52582556009292602539 0.52479118108749389648 0.68879413604736328125 0.56674355268478393555 0.58149540424346923828 0.64947867393493652344 0.72002047300338745117 0.40931838750839233398 0.37889373302459716797 0.16380700469017028809 nan nan nan nan nan 
nan nan nan nan nan nan nan nan nan nan nan nan nan nan nan nan nan nan nan nan nan nan nan nan nan nan nan nan nan nan nan nan nan nan nan nan nan nan nan nan nan nan nan nan nan nan nan nan nan nan nan nan nan nan nan nan nan nan nan nan nan nan nan nan nan nan nan nan nan nan nan nan nan nan nan nan nan nan nan nan nan nan nan nan nan nan nan nan nan nan nan nan nan nan nan nan nan nan nan nan nan nan nan nan nan nan nan nan nan nan nan nan nan nan nan nan nan nan nan 4.2142252922058105469 1.2374488115310668945 1.1611948013305664063 1.2517637014389038086 0.8659432530403137207 5.7560677528381347656 10.449238777160644531 22.695680618286132813 20.311809539794921875 18.865884780883789063 20.773326873779296875 18.240285873413085938 12.037206649780273438 5.9210195541381835938 4.8406577110290527344 3.2262213230133056641 1.5308512449264526367 0.62796998023986816406 0.64249145984649658203 0.60567569732666015625 0.58443129062652587891 1.1425107717514038086 1.0433862209320068359 0.65268617868423461914 0.57668489217758178711 0.58102327585220336914 0.73208910226821899414 0.57798379659652709961 0.41457447409629821777 0.39466691017150878906 0.82061851024627685547 0.7332007288932800293 0.92584711313247680664 0.57210701704025268555 0.33824807405471801758 0.32767429947853088379 0.25959163904190063477 0.3729203641414642334 0.66499161720275878906 0.70096892118453979492 0.30923256278038024902 0.19625583291053771973 nan nan nan nan nan 
nan nan nan nan nan nan nan nan nan nan nan nan nan nan nan nan nan nan nan nan nan nan nan nan nan nan nan nan nan nan nan nan nan nan nan nan nan nan nan nan nan nan nan nan nan nan nan nan nan nan nan nan nan nan nan nan nan nan nan nan nan nan nan nan nan nan nan nan nan nan nan nan nan nan nan nan nan nan nan nan nan nan nan nan nan nan nan nan nan nan nan nan nan nan nan nan nan nan nan nan nan nan nan nan nan nan nan nan nan nan nan nan nan nan nan nan nan nan nan 10.145843505859375 5.8540258407592773438 1.6558943986892700195 1.4556518793106079102 1.5609635114669799805 12.923762321472167969 22.02277374267578125 22.578470230102539063 23.96921539306640625 28.136678695678710938 24.939960479736328125 24.46215057373046875 21.819456100463867188 18.90525054931640625 21.089006423950195313 18.908618927001953125 15.972337722778320313 7.3806085586547851563 1.2751932144165039063 1.1037994623184204102 0.83743196725845336914 0.62829059362411499023 0.64173662662506103516 0.56121236085891723633 0.65448462963104248047 0.66037654876708984375 0.90334451198577880859 0.64980429410934448242 0.52650946378707885742 0.62073594331741333008 0.70042115449905395508 0.46913450956344604492 0.70715248584747314453 0.57981985807418823242 0.43603268265724182129 0.4831523895263671875 0.42773967981338500977 0.42999938130378723145 0.47496515512466430664 0.33717638254165649414 0.13018700480461120605 nan nan nan nan nan nan 
nan nan nan nan nan nan nan nan nan nan nan nan nan nan nan nan nan nan nan nan nan nan nan nan nan nan nan nan nan nan nan nan nan nan nan nan nan nan nan nan nan nan nan nan nan nan nan nan nan nan nan nan nan nan nan nan nan nan nan nan nan nan nan nan nan nan nan nan nan nan nan nan nan nan nan nan nan nan nan nan nan nan nan nan nan nan nan nan nan nan nan nan nan nan nan nan nan nan nan nan nan nan nan nan nan nan nan nan nan nan nan nan nan nan nan nan nan nan nan 17.398708343505859375 12.250351905822753906 10.32234954833984375 9.2598257064819335938 13.33843231201171875 20.385402679443359375 30.650526046752929688 30.391111373901367188 40.681308746337890625 35.727840423583984375 33.258209228515625 20.88529205322265625 25.863491058349609375 20.71179962158203125 23.44800567626953125 22.59918975830078125 20.68973541259765625 13.943112373352050781 10.904995918273925781 3.2226314544677734375 1.7286145687103271484 1.6246999502182006836 1.3836997747421264648 0.70982211828231811523 0.78992801904678344727 0.81148582696914672852 0.77536064386367797852 0.56853067874908447266 0.56966322660446166992 0.8009617924690246582 0.50691455602645874023 0.6336078643798828125 0.62162452936172485352 0.47751748561859130859 0.41091668605804443359 0.36378887295722961426 0.28584384918212890625 0.37839156389236450195 0.50794684886932373047 0.0072065331041812896729 nan nan nan nan nan nan nan 
nan nan nan nan nan nan nan nan nan nan nan nan nan nan nan nan nan nan nan nan nan nan nan nan nan nan nan nan nan nan nan nan nan nan nan nan nan nan nan nan nan nan nan nan nan nan nan nan nan nan nan nan nan nan nan nan nan nan nan nan nan nan nan nan nan nan nan nan nan nan nan nan nan nan nan nan nan nan nan nan nan nan nan nan nan nan nan nan nan nan nan nan nan nan nan nan nan nan nan nan nan nan nan nan nan nan nan nan nan nan nan nan nan nan nan nan nan nan 24.331766128540039063 22.053453445434570313 22.471012115478515625 20.665348052978515625 25.019582748413085938 31.797567367553710938 28.980623245239257813 36.25330352783203125 43.469310760498046875 42.7754058837890625 35.187732696533203125 39.306247711181640625 27.1285858154296875 28.988634109497070313 23.204603195190429688 26.014066696166992188 23.81420135498046875 23.077028274536132813 27.03038787841796875 22.580080032348632813 16.446096420288085938 15.700587272644042969 17.418348312377929688 12.615489959716796875 7.0588049888610839844 1.6262744665145874023 1.1298089027404785156 1.1181794404983520508 0.57369917631149291992 0.71028840541839599609 0.72454571723937988281 0.7697232365608215332 0.62969487905502319336 0.59342747926712036133 0.70051097869873046875 0.60794693231582641602 0.53581196069717407227 0.42629870772361755371 0.21055702865123748779 0.25775039196014404297 0.29550388455390930176 nan nan nan nan nan nan nan 
nan nan nan nan nan nan nan nan nan nan nan nan nan nan nan nan nan nan nan nan nan nan nan nan nan nan nan nan nan nan nan nan nan nan nan nan nan nan nan nan nan nan nan nan nan nan nan nan nan nan nan nan nan nan nan nan nan nan nan nan nan nan nan nan nan nan nan nan nan nan nan nan nan nan nan nan nan nan nan nan nan nan nan nan nan nan nan nan nan nan nan nan nan nan nan nan nan nan nan nan nan nan nan nan nan nan nan nan nan nan nan nan nan nan nan nan nan nan 20.577009201049804688 17.775358200073242188 23.28449249267578125 26.941236495971679688 35.290924072265625 33.000301361083984375 30.20021820068359375 34.792888641357421875 41.84366607666015625 36.173404693603515625 33.94280242919921875 30.605562210083007813 32.121173858642578125 27.678859710693359375 18.486341476440429688 26.088407516479492188 29.658794403076171875 25.224170684814453125 27.714122772216796875 21.830739974975585938 24.246799468994140625 23.27445220947265625 20.594091415405273438 21.20508575439453125 17.702983856201171875 16.818065643310546875 12.093854904174804688 5.9840788841247558594 8.5077085494995117188 8.6616907119750976563 7.234554290771484375 2.530025482177734375 0.79078894853591918945 0.4909743964672088623 0.3823661506175994873 0.48918733000755310059 0.43792283535003662109 0.42222547531127929688 0.47958219051361083984 0.73027509450912475586 0.38455936312675476074 nan nan nan nan nan nan nan 
nan nan nan nan nan nan nan nan nan nan nan nan nan nan nan nan nan nan nan nan nan nan nan nan nan nan nan nan nan nan nan nan nan nan nan nan nan nan nan nan nan nan nan nan nan nan nan nan nan nan nan nan nan nan nan nan nan nan nan nan nan nan nan nan nan nan nan nan nan nan nan nan nan nan nan nan nan nan nan nan nan nan nan nan nan nan nan nan nan nan nan nan nan nan nan nan nan nan nan nan nan nan nan nan nan nan nan nan nan nan nan nan nan nan nan nan nan nan nan nan nan 26.450021743774414063 15.928453445434570313 6.5705690383911132813 9.93011474609375 20.85602569580078125 33.701999664306640625 39.88362884521484375 40.25742340087890625 41.636631011962890625 32.1569061279296875 30.196794509887695313 31.223865509033203125 35.892242431640625 27.4901123046875 42.2111053466796875 31.340665817260742188 28.208566665649414063 26.401968002319335938 23.712116241455078125 22.148860931396484375 22.511598587036132813 21.924852371215820313 17.656896591186523438 21.489025115966796875 18.501253128051757813 18.307987213134765625 24.6619720458984375 18.694799423217773438 19.882131576538085938 13.406408309936523438 5.3771977424621582031 1.256605982780456543 0.62001514434814453125 0.60605472326278686523 0.50604045391082763672 0.4675426781177520752 0.68837374448776245117 0.50587165355682373047 nan nan nan nan nan nan nan 
nan nan nan nan nan nan nan nan nan nan nan nan nan nan nan nan nan nan nan nan nan nan nan nan nan nan nan nan nan nan nan nan nan nan nan nan nan nan nan nan nan nan nan nan nan nan nan nan nan nan nan nan nan nan nan nan nan nan nan nan nan nan nan nan nan nan nan nan nan nan nan nan nan nan nan nan nan nan nan nan nan nan nan nan nan nan nan nan nan nan nan nan nan nan nan nan nan nan nan nan nan nan nan nan nan nan nan nan nan nan nan nan nan nan nan nan nan nan nan nan nan nan nan nan nan nan 0.076806806027889251709 9.9213571548461914063 8.1546392440795898438 23.992931365966796875 34.30741119384765625 29.693952560424804688 31.8569793701171875 36.34973907470703125 27.788257598876953125 25.525735855102539063 42.1068267822265625 41.19744873046875 35.202289581298828125 34.727802276611328125 25.994832992553710938 24.47278594970703125 23.882785797119140625 21.851533889770507813 22.090913772583007813 23.901214599609375 25.76822662353515625 26.296670913696289063 23.88448333740234375 23.482540130615234375 21.615814208984375 19.07988739013671875 13.656060218811035156 6.6887269020080566406 0.93864190578460693359 0.44503521919250488281 0.46659412980079650879 0.38519588112831115723 0.77891528606414794922 0.042409572750329971313 nan nan nan nan nan nan 
nan nan nan nan nan nan nan nan nan nan nan nan nan nan nan nan nan nan nan nan nan nan nan nan nan nan nan nan nan nan nan nan nan nan nan nan nan nan nan nan nan nan nan nan nan nan nan nan nan nan nan nan nan nan nan nan nan nan nan nan nan nan nan nan nan nan nan nan nan nan nan nan nan nan nan nan nan nan nan nan nan nan nan nan nan nan nan nan nan nan nan nan nan nan nan nan nan nan nan nan nan nan nan nan nan nan nan nan nan nan nan nan nan nan nan nan nan nan nan nan nan nan nan nan nan nan nan nan nan 0.63214451074600219727 9.3630323410034179688 nan nan 31.065149307250976563 24.093282699584960938 20.341016769409179688 27.920862197875976563 34.0966033935546875 30.609579086303710938 37.126613616943359375 34.169254302978515625 31.539760589599609375 35.4976043701171875 33.78809356689453125 21.530284881591796875 20.577800750732421875 21.831640243530273438 22.086462020874023438 24.019483566284179688 22.66277313232421875 30.310123443603515625 29.662118911743164063 27.52978515625 20.76241302490234375 15.340142250061035156 4.6084346771240234375 nan 1.1012597084045410156 0.46473842859268188477 0.46610799431800842285 nan nan nan nan nan nan 
nan nan nan nan nan nan nan nan nan nan nan nan nan nan nan nan nan nan nan nan nan nan nan nan nan nan nan nan nan nan nan nan nan nan nan nan nan nan nan nan nan nan nan nan nan nan nan nan nan nan nan nan nan nan nan nan nan nan nan nan nan nan nan nan nan nan nan nan nan nan nan nan nan nan nan nan nan nan nan nan nan nan nan nan nan nan nan nan nan nan nan nan nan nan nan nan nan nan nan nan nan nan nan nan nan nan nan nan nan nan nan nan nan nan nan nan nan nan nan nan nan nan nan nan nan nan nan nan nan nan nan nan nan nan nan 15.882274627685546875 41.576602935791015625 60.24112701416015625 nan nan nan 45.59728240966796875 43.254802703857421875 37.9563446044921875 45.5843048095703125 37.36272430419921875 32.627895355224609375 28.062932968139648438 24.427762985229492188 nan nan 32.9041900634765625 29.125761032104492188 28.093969345092773438 nan nan nan nan nan nan nan nan nan nan nan nan 
nan nan nan nan nan nan nan nan nan nan nan nan nan nan nan nan nan nan nan nan nan nan nan nan nan nan nan nan nan nan nan nan nan nan nan nan nan nan nan nan nan nan nan nan nan nan nan nan nan nan nan nan nan nan nan nan nan nan nan nan nan nan nan nan nan nan nan nan nan nan nan nan nan nan nan nan nan nan nan nan nan nan nan nan nan nan nan nan nan nan nan nan nan nan nan nan nan nan nan nan nan nan nan nan nan nan nan nan nan nan nan nan nan nan nan nan nan nan nan nan nan nan nan nan nan nan nan nan nan nan nan nan nan nan nan nan nan nan nan nan nan nan nan nan nan nan nan nan nan nan nan nan nan nan nan nan nan nan nan nan nan nan nan nan nan nan 
nan nan nan nan nan nan nan nan nan nan nan nan nan nan nan nan nan nan nan nan nan nan nan nan nan nan nan nan nan nan nan nan nan nan nan nan nan nan nan nan nan nan nan nan nan nan nan nan nan nan nan nan nan nan nan nan nan nan nan nan nan nan nan nan nan nan nan nan nan nan nan nan nan nan nan nan nan nan nan nan nan nan nan nan nan nan nan nan nan nan nan nan nan nan nan nan nan nan nan nan nan nan nan nan nan nan nan nan nan nan nan nan nan nan nan nan nan nan nan nan nan nan nan nan nan nan nan nan nan nan nan nan nan nan nan nan nan nan nan nan nan nan nan nan nan nan nan nan nan nan nan nan nan nan nan nan nan nan nan nan nan nan nan nan nan nan 
nan nan nan nan nan nan nan nan nan nan nan nan nan nan nan nan nan nan nan nan nan nan nan nan nan nan nan nan nan nan nan nan nan nan nan nan nan nan nan nan nan nan nan nan nan nan nan nan nan nan nan nan nan nan nan nan nan nan nan nan nan nan nan nan nan nan nan nan nan nan nan nan nan nan nan nan nan nan nan nan nan nan nan nan nan nan nan nan nan nan nan nan nan nan nan nan nan nan nan nan nan nan nan nan nan nan nan nan nan nan nan nan nan nan nan nan nan nan nan nan nan nan nan nan nan nan nan nan nan nan nan nan nan nan nan nan nan nan nan nan nan nan nan nan nan nan nan nan nan nan nan nan nan nan nan nan nan nan nan nan nan nan nan nan nan nan 
nan nan nan nan nan nan nan nan nan nan nan nan nan nan nan nan nan nan nan nan nan nan nan nan nan nan nan nan nan nan nan nan nan nan nan nan nan nan nan nan nan nan nan nan nan nan nan nan nan nan nan nan nan nan nan nan nan nan nan nan nan nan nan nan nan nan nan nan nan nan nan nan nan nan nan nan nan nan nan nan nan nan nan nan nan nan nan nan nan nan nan nan nan nan nan nan nan nan nan nan nan nan nan nan nan nan nan nan nan nan nan nan nan nan nan nan nan nan nan nan nan nan nan nan nan nan nan nan nan nan nan nan nan nan nan nan nan nan nan nan nan nan nan nan nan nan nan nan nan nan nan nan nan nan nan nan nan nan nan nan nan nan nan nan nan nan 
nan nan nan nan nan nan nan nan nan nan nan nan nan nan nan nan nan nan nan nan nan nan nan nan nan nan nan nan nan nan nan nan nan nan nan nan nan nan nan nan nan nan nan nan nan nan nan nan nan nan nan nan nan nan nan nan nan nan nan nan nan nan nan nan nan nan nan nan nan nan nan nan nan nan nan nan nan nan nan nan nan nan nan nan nan nan nan nan nan nan nan nan nan nan nan nan nan nan nan nan nan nan nan nan nan nan nan nan nan nan nan nan nan nan nan nan nan nan nan nan nan nan nan nan nan nan nan nan nan nan nan nan nan nan nan nan nan nan nan nan nan nan nan nan nan nan nan nan nan nan nan nan nan nan nan nan nan nan nan nan nan nan nan nan nan nan 
nan nan nan nan nan nan nan nan nan nan nan nan nan nan nan nan nan nan nan nan nan nan nan nan nan nan nan nan nan nan nan nan nan nan nan nan nan nan nan nan nan nan nan nan nan nan nan nan nan nan nan nan nan nan nan nan nan nan nan nan nan nan nan nan nan nan nan nan nan nan nan nan nan nan nan nan nan nan nan nan nan nan nan nan nan nan nan nan nan nan nan nan nan nan nan nan nan nan nan nan nan nan nan nan nan nan nan nan nan nan nan nan nan nan nan nan nan nan nan nan nan nan nan nan nan nan nan nan nan nan nan nan nan nan nan nan nan nan nan nan nan nan nan nan nan nan nan nan nan nan nan nan nan nan nan nan nan nan nan nan nan nan nan nan nan nan 
nan nan nan nan nan nan nan nan nan nan nan nan nan nan nan nan nan nan nan nan nan nan nan nan nan nan nan nan nan nan nan nan nan nan nan nan nan nan nan nan nan nan nan nan nan nan nan nan nan nan nan nan nan nan nan nan nan nan nan nan nan nan nan nan nan nan nan nan nan nan nan nan nan nan nan nan nan nan nan nan nan nan nan nan nan nan nan nan nan nan nan nan nan nan nan nan nan nan nan nan nan nan nan nan nan nan nan nan nan nan nan nan nan nan nan nan nan nan nan nan nan nan nan nan nan nan nan nan nan nan nan nan nan nan nan nan nan nan nan nan nan nan nan nan nan nan nan nan nan nan nan nan nan nan nan nan nan nan nan nan nan nan nan nan nan nan 
nan nan nan nan nan nan nan nan nan nan nan nan nan nan nan nan nan 26.479295730590820313 27.634984970092773438 22.82366180419921875 21.249563217163085938 28.15732574462890625 nan nan nan nan nan nan nan nan nan nan nan nan nan nan nan nan nan nan nan nan nan nan nan nan nan nan nan nan nan nan nan nan nan nan nan nan nan nan nan nan nan nan nan nan nan nan nan nan nan nan nan nan nan nan nan nan nan nan nan nan nan nan nan nan nan nan nan nan nan nan nan nan nan nan nan nan nan nan nan nan nan nan nan nan nan nan nan nan nan nan nan nan nan nan nan nan nan nan nan nan nan nan nan nan nan nan nan nan nan nan nan nan nan nan nan nan nan nan nan nan nan nan nan nan nan nan nan nan nan nan nan nan nan nan nan nan nan nan nan nan nan nan nan nan 
nan nan nan nan nan nan nan nan nan nan nan nan nan nan nan nan 36.67205810546875 36.947296142578125 36.0023193359375 33.682506561279296875 27.7102813720703125 41.899692535400390625 nan nan nan nan nan nan nan nan nan nan nan nan nan nan nan nan nan nan nan nan nan nan nan nan nan nan nan nan nan nan nan nan nan nan nan nan nan nan nan nan nan nan nan nan nan nan nan nan nan nan nan nan nan nan nan nan nan nan nan nan nan nan nan nan nan nan nan nan nan nan nan nan nan nan nan nan nan nan nan nan nan nan nan nan nan nan nan nan nan nan nan nan nan nan nan nan nan nan nan nan nan nan nan nan nan nan nan nan nan nan nan nan nan nan nan nan nan nan nan nan nan nan nan nan nan nan nan nan nan nan nan nan nan nan nan nan nan nan nan nan nan nan nan nan 
nan nan nan nan nan nan nan nan nan nan nan nan nan nan nan 35.637401580810546875 34.512302398681640625 38.358219146728515625 32.821598052978515625 34.26757049560546875 31.548875808715820313 36.411334991455078125 40.044284820556640625 nan nan nan nan nan nan nan nan nan nan nan nan nan nan nan nan nan nan nan nan nan nan nan nan nan nan nan nan nan nan nan nan nan nan nan nan nan nan nan nan nan nan nan nan nan nan nan nan nan nan nan nan nan nan nan nan nan nan nan nan nan nan nan nan nan nan nan nan nan nan nan nan nan nan nan nan nan nan nan nan nan nan nan nan nan nan nan nan nan nan nan nan nan nan nan nan nan nan nan nan nan nan nan nan nan nan nan nan nan nan nan nan nan nan nan nan nan nan nan nan nan nan nan nan nan nan nan nan nan nan nan nan nan nan nan nan nan nan nan nan nan nan nan 
nan nan nan nan nan nan nan nan nan nan nan nan nan nan 33.697292327880859375 28.421863555908203125 19.212011337280273438 22.468263626098632813 16.486330032348632813 25.458827972412109375 33.3360443115234375 28.531429290771484375 27.754261016845703125 31.208196640014648438 32.430149078369140625 40.7562408447265625 45.056262969970703125 40.15863800048828125 41.909847259521484375 nan nan nan nan nan nan nan nan nan nan nan nan nan nan nan nan nan nan nan nan nan nan nan nan nan nan nan nan nan nan nan nan nan nan nan nan nan nan nan nan nan nan nan nan nan nan nan nan nan nan nan nan nan nan nan nan nan nan nan nan nan nan nan nan nan nan nan nan nan nan nan nan nan nan nan nan nan nan nan nan nan nan nan nan nan nan nan nan nan nan nan nan nan nan nan nan nan nan nan nan nan nan nan nan nan nan nan nan nan nan nan nan nan nan nan nan nan nan nan nan nan nan nan nan nan nan nan nan nan nan nan nan nan nan nan nan nan 
nan nan nan nan nan nan nan nan nan nan nan nan 23.013950347900390625 23.598123550415039063 18.86456298828125 24.01512908935546875 22.524248123168945313 23.912593841552734375 19.45339202880859375 25.128635406494140625 24.905881881713867188 25.813869476318359375 30.709421157836914063 21.265783309936523438 26.874876022338867188 29.981664657592773438 40.5021820068359375 37.62871551513671875 46.030384063720703125 51.3087921142578125 nan nan nan nan nan nan nan nan nan nan nan nan nan nan nan nan nan nan nan nan nan nan nan nan nan nan nan nan nan nan nan nan nan nan nan nan nan nan nan nan nan nan nan nan nan nan nan nan nan nan nan nan nan nan nan nan nan nan nan nan nan nan nan nan nan nan nan nan nan nan nan nan nan nan nan nan nan nan nan nan nan nan nan nan nan nan nan nan nan nan nan nan nan nan nan nan nan nan nan nan nan nan nan nan nan nan nan nan nan nan nan nan nan nan nan nan nan nan nan nan nan nan nan nan nan nan nan nan nan nan nan nan nan nan nan nan 
nan nan nan nan nan nan nan nan nan nan nan nan 15.501178741455078125 11.505948066711425781 15.968741416931152344 19.400638580322265625 19.803264617919921875 16.574850082397460938 6.3277769088745117188 10.127039909362792969 17.928768157958984375 18.30722808837890625 24.7884063720703125 26.859342575073242188 29.818918228149414063 33.494724273681640625 38.90691375732421875 43.856540679931640625 47.51985931396484375 47.19409942626953125 46.437450408935546875 39.54378509521484375 52.0382080078125 49.689449310302734375 58.27652740478515625 nan nan nan nan nan nan nan nan nan nan nan nan nan nan nan nan nan nan nan nan nan nan nan nan nan nan nan nan nan nan nan nan nan nan nan nan nan nan nan nan nan nan nan nan nan nan nan nan nan nan nan nan nan nan nan nan nan nan nan nan nan nan nan nan nan nan nan nan nan nan nan nan nan nan nan nan nan nan nan nan nan nan nan nan nan nan nan nan nan nan nan nan nan nan nan nan nan nan nan nan nan nan nan nan nan nan nan nan nan nan nan nan nan nan nan nan nan nan nan nan nan nan nan nan nan nan nan nan nan nan nan 
nan nan nan nan nan nan nan nan nan nan nan 18.7527008056640625 19.659387588500976563 16.189624786376953125 16.877817153930664063 11.8544921875 17.587827682495117188 14.940399169921875 13.794271469116210938 17.8217620849609375 19.260721206665039063 20.282886505126953125 9.5814981460571289063 23.601016998291015625 23.644781112670898438 29.321483612060546875 28.757009506225585938 34.60381317138671875 34.509609222412109375 36.5415191650390625 46.65712738037109375 43.26859283447265625 44.98867034912109375 51.71741485595703125 55.507617950439453125 53.0672454833984375 57.920597076416015625 59.0680084228515625 55.64743804931640625 59.808025360107421875 54.731029510498046875 57.03623199462890625 51.8979644775390625 nan nan nan nan nan nan nan nan nan nan nan nan nan nan nan nan nan nan nan nan nan nan nan nan nan nan nan nan nan nan nan nan nan nan nan nan nan nan nan nan nan nan nan nan nan nan nan nan nan nan nan nan nan nan nan nan nan nan nan nan nan nan nan nan nan nan nan nan nan nan nan nan nan nan nan nan nan nan nan nan nan nan nan nan nan nan nan nan nan nan nan nan nan nan nan nan nan nan nan nan nan nan nan nan nan nan nan nan nan nan nan nan nan nan nan nan nan nan nan nan nan nan nan 
nan nan nan nan 13.561681747436523438 11.282623291015625 10.743268013000488281 15.873880386352539063 17.090068817138671875 nan nan 20.744089126586914063 18.985567092895507813 10.050816535949707031 12.294000625610351563 9.6872758865356445313 7.5303792953491210938 6.2272334098815917969 9.93128204345703125 14.176085472106933594 19.999647140502929688 16.687536239624023438 13.890873908996582031 19.048425674438476563 19.280187606811523438 18.657262802124023438 12.779225349426269531 15.754840850830078125 22.755456924438476563 23.699249267578125 25.30461883544921875 31.635961532592773438 34.2537384033203125 43.5997772216796875 46.158245086669921875 40.6599578857421875 53.363162994384765625 52.656948089599609375 50.0218048095703125 48.12957763671875 48.89282989501953125 47.933074951171875 51.534618377685546875 nan nan nan nan nan nan nan nan nan nan nan nan nan nan nan nan nan nan nan nan nan nan nan nan nan nan nan nan nan nan nan nan nan nan nan nan nan nan nan nan nan nan nan nan nan nan nan nan nan nan nan nan nan nan nan nan nan nan nan nan nan nan nan nan nan nan nan nan nan nan nan nan nan nan nan nan nan nan nan nan nan nan nan nan nan nan nan nan nan nan nan nan nan nan nan nan nan nan nan nan nan nan nan nan nan nan nan nan nan nan nan nan nan nan nan nan nan nan nan nan nan nan nan 
nan nan nan nan 9.350215911865234375 5.7612614631652832031 2.562358856201171875 6.156848907470703125 7.6083989143371582031 9.0259027481079101563 9.4238529205322265625 6.8120794296264648438 7.4377055168151855469 7.2578692436218261719 6.3199200630187988281 5.66413116455078125 7.3852300643920898438 5.9978394508361816406 5.6897454261779785156 8.8050184249877929688 18.934770584106445313 16.841005325317382813 15.034138679504394531 14.843137741088867188 18.473417282104492188 21.689846038818359375 23.341291427612304688 17.238065719604492188 25.446584701538085938 23.069164276123046875 24.673137664794921875 15.107710838317871094 26.935522079467773438 36.04083251953125 40.781757354736328125 36.91013336181640625 35.70738983154296875 45.2960205078125 52.756072998046875 47.776065826416015625 34.355503082275390625 36.00528717041015625 42.7962646484375 nan nan nan nan nan nan nan nan nan nan nan nan nan nan nan nan nan nan nan nan nan nan nan nan nan nan nan nan nan nan nan nan nan nan nan nan nan nan nan nan nan nan nan nan nan nan nan nan nan nan nan nan nan nan nan nan nan nan nan nan nan nan nan nan nan nan nan nan nan nan nan nan nan nan nan nan nan nan nan nan nan nan nan nan nan nan nan nan nan nan nan nan nan nan nan nan nan nan nan nan nan nan nan nan nan nan nan nan nan nan nan nan nan nan nan nan nan nan nan nan nan nan nan 
nan nan nan nan 16.361537933349609375 16.234035491943359375 11.654850959777832031 6.5790262222290039063 7.9515466690063476563 11.915371894836425781 6.9887342453002929688 7.4499225616455078125 7.1499719619750976563 6.3625812530517578125 6.9838500022888183594 5.6728067398071289063 6.363948822021484375 7.1740441322326660156 4.3333959579467773438 3.6321694850921630859 8.96541595458984375 5.9912042617797851563 8.2142505645751953125 19.057952880859375 20.065792083740234375 23.115070343017578125 24.839262008666992188 29.388856887817382813 25.560358047485351563 26.559228897094726563 21.408962249755859375 16.9197540283203125 19.747896194458007813 21.518095016479492188 24.6255950927734375 26.331754684448242188 18.069498062133789063 20.94918060302734375 22.763517379760742188 36.985492706298828125 37.46453094482421875 34.70670318603515625 32.001220703125 nan nan nan nan nan nan nan nan nan nan nan nan nan nan nan nan nan nan nan nan nan nan nan nan nan nan nan nan nan nan nan nan nan nan nan nan nan nan nan nan nan nan nan nan nan nan nan nan nan nan nan nan nan nan nan nan nan nan nan nan nan nan nan nan nan nan nan nan nan nan nan nan nan nan nan nan nan nan nan nan nan nan nan nan nan nan nan nan nan nan nan nan nan nan nan nan nan nan nan nan nan nan nan nan nan nan nan nan nan nan nan nan nan nan nan nan nan nan nan nan nan nan nan 
nan nan nan nan 32.414196014404296875 35.33246612548828125 35.7226104736328125 25.594095230102539063 26.389501571655273438 28.534360885620117188 24.22396087646484375 28.084747314453125 22.719432830810546875 15.009810447692871094 6.7533297538757324219 4.6946191787719726563 3.9879391193389892578 4.7981867790222167969 3.9720349311828613281 4.4693303108215332031 4.7362036705017089844 4.5144038200378417969 4.2811784744262695313 8.7872333526611328125 12.499027252197265625 15.864632606506347656 19.602228164672851563 20.606952667236328125 16.119714736938476563 16.514673233032226563 29.446763992309570313 33.298633575439453125 35.33249664306640625 29.692691802978515625 31.406423568725585938 31.8787689208984375 16.034030914306640625 22.31998443603515625 23.341180801391601563 28.90234375 26.576068878173828125 28.429033279418945313 26.39520263671875 31.694047927856445313 nan nan nan nan nan nan nan nan nan nan nan nan nan nan nan nan nan nan nan nan nan nan nan nan nan nan nan nan nan nan nan nan nan nan nan nan nan nan nan nan nan nan nan nan nan nan nan nan nan nan nan nan nan nan nan nan nan nan nan nan nan nan nan nan nan nan nan nan nan nan nan nan nan nan nan nan nan nan nan nan nan nan nan nan nan nan nan nan nan nan nan nan nan nan nan nan nan nan nan nan nan nan nan nan nan nan nan nan nan nan nan nan nan nan nan nan nan nan nan nan nan nan 
nan nan nan nan 37.135135650634765625 45.398532867431640625 46.166469573974609375 43.47196197509765625 25.790586471557617188 24.924917221069335938 24.1013031005859375 26.187297821044921875 24.822969436645507813 25.713756561279296875 14.717650413513183594 12.784613609313964844 5.1278262138366699219 2.0247118473052978516 2.6601521968841552734 6.065155029296875 3.7819695472717285156 4.4582500457763671875 2.4574847221374511719 1.9535251855850219727 6.0695924758911132813 13.768472671508789063 14.873952865600585938 12.99387359619140625 8.9685888290405273438 3.1708216667175292969 4.2068691253662109375 9.7267827987670898438 16.049077987670898438 12.989534378051757813 18.935924530029296875 23.452785491943359375 18.375799179077148438 20.339084625244140625 20.188001632690429688 14.773958206176757813 17.086071014404296875 16.985120773315429688 21.860687255859375 nan nan nan nan nan nan nan nan nan nan nan nan nan nan nan nan nan nan nan nan nan nan nan nan nan nan nan nan nan nan nan nan nan nan nan nan nan nan nan nan nan nan nan nan nan nan nan nan nan nan nan nan nan nan nan nan nan nan nan nan nan nan nan nan nan nan nan nan nan nan nan nan nan nan nan nan nan nan nan nan nan nan nan nan nan nan nan nan nan nan nan nan nan nan nan nan nan nan nan nan nan nan nan nan nan nan nan nan nan nan nan nan nan nan nan nan nan nan nan nan nan nan nan 
nan nan nan nan 20.28713226318359375 33.334056854248046875 44.17081451416015625 33.3897857666015625 28.52867889404296875 21.085109710693359375 25.617551803588867188 22.749950408935546875 27.2082977294921875 25.502170562744140625 21.501909255981445313 14.822862625122070313 9.9367914199829101563 2.7937381267547607422 3.3816881179809570313 4.7855296134948730469 9.167926788330078125 10.184772491455078125 7.8489532470703125 1.6763830184936523438 3.4923295974731445313 3.3598892688751220703 4.4402308464050292969 4.5591664314270019531 4.0567073822021484375 5.2588167190551757813 5.0758938789367675781 2.10509490966796875 4.9949779510498046875 5.3785805702209472656 7.8874912261962890625 9.9824161529541015625 9.3352537155151367188 10.867310523986816406 21.231176376342773438 15.150999069213867188 13.358493804931640625 20.509418487548828125 27.28195953369140625 nan nan nan nan nan nan nan nan nan nan nan nan nan nan nan nan nan nan nan nan nan nan nan nan nan nan nan nan nan nan nan nan nan nan nan nan nan nan nan nan nan nan nan nan nan nan nan nan nan nan nan nan nan nan nan nan nan nan nan nan nan nan nan nan nan nan nan nan nan nan nan nan nan nan nan nan nan nan nan nan nan nan nan nan nan nan nan nan nan nan nan nan nan nan nan nan nan nan nan nan nan nan nan nan nan nan nan nan nan nan nan nan nan nan nan nan nan nan nan nan nan nan nan 
nan nan nan nan nan 18.803508758544921875 24.960004806518554688 23.352052688598632813 27.720907211303710938 22.93643951416015625 17.181516647338867188 19.147237777709960938 16.462856292724609375 20.568582534790039063 25.105375289916992188 19.47920989990234375 14.169178009033203125 9.172611236572265625 3.303012847900390625 3.2867307662963867188 2.6856205463409423828 7.6346483230590820313 7.2812929153442382813 2.7429385185241699219 4.5183796882629394531 13.845191001892089844 14.5337066650390625 4.8088126182556152344 3.7669758796691894531 4.1218461990356445313 3.1692500114440917969 2.6784422397613525391 5.2525043487548828125 4.3673062324523925781 4.6568770408630371094 5.4471158981323242188 5.5735902786254882813 5.9720468521118164063 12.064046859741210938 13.733745574951171875 11.336155891418457031 23.794879913330078125 22.170886993408203125 nan nan nan nan nan nan nan nan nan nan nan nan nan nan nan nan nan nan nan nan nan nan nan nan nan nan nan nan nan nan nan nan nan nan nan nan nan nan nan nan nan nan nan nan nan nan nan nan nan nan nan nan nan nan nan nan nan nan nan nan nan nan nan nan nan nan nan nan nan nan nan nan nan nan nan nan nan nan nan nan nan nan nan nan nan nan nan nan nan nan nan nan nan nan nan nan nan nan nan nan nan nan nan nan nan nan nan nan nan nan nan nan nan nan nan nan nan nan nan nan nan nan nan 
nan nan nan nan 13.478447914123535156 13.845876693725585938 12.8660736083984375 14.405767440795898438 14.258311271667480469 12.709241867065429688 10.329652786254882813 6.9132604598999023438 9.7776584625244140625 16.059385299682617188 16.83940887451171875 14.070006370544433594 13.073332786560058594 12.024058341979980469 7.484832763671875 9.4842920303344726563 4.976375579833984375 2.2688703536987304688 1.6562153100967407227 4.0620388984680175781 10.919594764709472656 11.860482215881347656 8.0045032501220703125 4.5925960540771484375 3.6469569206237792969 8.474620819091796875 5.1813974380493164063 3.3505280017852783203 3.6496520042419433594 4.1602888107299804688 5.6128497123718261719 5.7566466331481933594 2.7340867519378662109 5.0053396224975585938 6.3374943733215332031 8.2304840087890625 12.363725662231445313 21.657337188720703125 nan nan nan nan nan nan nan nan nan nan nan nan nan nan nan nan nan nan nan nan nan nan nan nan nan nan nan nan nan nan nan nan nan nan nan nan nan nan nan nan nan nan nan nan nan nan nan nan nan nan nan nan nan nan nan nan nan nan nan nan nan nan nan nan nan nan nan nan nan nan nan nan nan nan nan nan nan nan nan nan nan nan nan nan nan nan nan nan nan nan nan nan nan nan nan nan nan nan nan nan nan nan nan nan nan nan nan nan nan nan nan nan nan nan nan nan nan nan nan nan nan nan nan nan 
nan 6.0969214439392089844 8.9112453460693359375 10.848939895629882813 12.357675552368164063 11.805449485778808594 9.689563751220703125 7.1677231788635253906 7.5426168441772460938 9.0090160369873046875 5.8496727943420410156 5.4991817474365234375 7.3983068466186523438 10.204706192016601563 10.051806449890136719 9.8827009201049804688 20.080209732055664063 26.810701370239257813 12.461530685424804688 9.69210052490234375 4.8785429000854492188 3.8112494945526123047 3.0985360145568847656 2.4410049915313720703 7.3093395233154296875 8.029117584228515625 4.9596242904663085938 3.2121322154998779297 4.9583234786987304688 6.6883935928344726563 10.920645713806152344 3.7869622707366943359 2.7400505542755126953 2.9513897895812988281 4.94577789306640625 4.717716217041015625 2.9278941154479980469 5.2640705108642578125 3.3325481414794921875 2.3720266819000244141 3.8554880619049072266 5.7632660865783691406 nan nan nan nan nan nan nan nan nan nan nan nan nan nan nan nan nan nan nan nan nan nan nan nan nan nan nan nan nan nan nan nan nan nan nan nan nan nan nan nan nan nan nan nan nan nan nan nan nan nan nan nan nan nan nan nan nan nan nan nan nan nan nan nan nan nan nan nan nan nan nan nan nan nan nan nan nan nan nan nan nan nan nan nan nan nan nan nan nan nan nan nan nan nan nan nan nan nan nan nan nan nan nan nan nan nan nan nan nan nan nan nan nan nan nan nan nan nan nan nan nan nan nan nan 
5.1995997428894042969 6.3433394432067871094 5.3853497505187988281 4.9829392433166503906 7.2514157295227050781 9.4795932769775390625 8.5471944808959960938 6.3522019386291503906 6.9220452308654785156 6.0550365447998046875 8.360904693603515625 4.6692519187927246094 3.1935007572174072266 5.3088078498840332031 4.2207040786743164063 6.5398726463317871094 10.866605758666992188 26.915384292602539063 27.860933303833007813 15.458782196044921875 12.020544052124023438 3.8144941329956054688 5.1161875724792480469 3.7715024948120117188 1.697150111198425293 2.6123557090759277344 4.2581334114074707031 1.9825953245162963867 5.6371550559997558594 5.1406707763671875 8.8625841140747070313 11.66986846923828125 6.2328104972839355469 6.1616244316101074219 7.0868592262268066406 5.9690995216369628906 6.2922420501708984375 3.5906491279602050781 3.0008296966552734375 3.2574281692504882813 nan nan nan nan nan nan nan nan nan nan nan nan nan nan nan nan nan nan nan nan nan nan nan nan nan nan nan nan nan nan nan nan nan nan nan nan nan nan nan nan nan nan nan nan nan nan nan nan nan nan nan nan nan nan nan nan nan nan nan nan nan nan nan nan nan nan nan nan nan nan nan nan nan nan nan nan nan nan nan nan nan nan nan nan nan nan nan nan nan nan nan nan nan nan nan nan nan nan nan nan nan nan nan nan nan nan nan nan nan nan nan nan nan nan nan nan nan nan nan nan nan nan nan nan nan nan 
7.3624491691589355469 9.55362701416015625 6.8032898902893066406 5.0493059158325195313 6.794403076171875 7.7116193771362304688 5.9155764579772949219 4.25185394287109375 4.0062785148620605469 4.79126739501953125 6.3178715705871582031 3.7597174644470214844 3.489955902099609375 4.4610137939453125 7.0559945106506347656 9.992534637451171875 12.000338554382324219 18.032354354858398438 17.643720626831054688 13.022347450256347656 13.608012199401855469 6.6887865066528320313 4.167964935302734375 5.4614729881286621094 6.7746376991271972656 6.3357281684875488281 5.9552717208862304688 3.3415131568908691406 4.4499726295471191406 6.7814669609069824219 4.4359416961669921875 4.5650229454040527344 6.7025904655456542969 5.1482229232788085938 4.9162082672119140625 6.7550554275512695313 4.5692758560180664063 6.6309232711791992188 6.7535586357116699219 4.6430568695068359375 nan nan nan nan nan nan nan nan nan nan nan nan nan nan nan nan nan nan nan nan nan nan nan nan nan nan nan nan nan nan nan nan nan nan nan nan nan nan nan nan nan nan nan nan nan nan nan nan nan nan nan nan nan nan nan nan nan nan nan nan nan nan nan nan nan nan nan nan nan nan nan nan nan nan nan nan nan nan nan nan nan nan nan nan nan nan nan nan nan nan nan nan nan nan nan nan nan nan nan nan nan nan nan nan nan nan nan nan nan nan nan nan nan nan nan nan nan nan nan nan nan nan nan nan nan nan 
5.9586586952209472656 7.5164279937744140625 8.667125701904296875 8.1253442764282226563 6.6348485946655273438 6.4070525169372558594 5.5976247787475585938 6.2927012443542480469 4.6171116828918457031 4.5735936164855957031 4.4077215194702148438 6.5037140846252441406 7.1856985092163085938 7.9534249305725097656 10.858850479125976563 10.177117347717285156 15.024748802185058594 11.728665351867675781 22.583017349243164063 21.357860565185546875 16.000514984130859375 7.3277544975280761719 1.9879915714263916016 4.014095306396484375 7.274242401123046875 10.511369705200195313 9.5781183242797851563 8.1943960189819335938 6.9183173179626464844 3.3811006546020507813 3.2004907131195068359 4.6143388748168945313 4.1824030876159667969 2.8282976150512695313 3.4701147079467773438 6.6899838447570800781 4.0745463371276855469 3.4816241264343261719 9.5591630935668945313 6.18175506591796875 nan nan nan nan nan nan nan nan nan nan nan nan nan nan nan nan nan nan nan nan nan nan nan nan nan nan nan nan nan nan nan nan nan nan nan nan nan nan nan nan nan nan nan nan nan nan nan nan nan nan nan nan nan nan nan nan nan nan nan nan nan nan nan nan nan nan nan nan nan nan nan nan nan nan nan nan nan nan nan nan nan nan nan nan nan nan nan nan nan nan nan nan nan nan nan nan nan nan nan nan nan nan nan nan nan nan nan nan nan nan nan nan nan nan nan nan nan nan nan nan nan nan nan nan nan nan 
nan 4.0588693618774414063 8.4799280166625976563 6.9742021560668945313 11.270200729370117188 9.862213134765625 8.6395473480224609375 9.1620044708251953125 9.7690153121948242188 8.0569915771484375 4.2804322242736816406 4.5948061943054199219 8.3340015411376953125 5.7119002342224121094 7.5530099868774414063 11.433382987976074219 12.582594871520996094 9.6961259841918945313 12.012539863586425781 20.553106307983398438 21.651235580444335938 22.427423477172851563 7.6619248390197753906 2.8391001224517822266 7.022891998291015625 9.1884288787841796875 10.043271064758300781 5.5336084365844726563 5.3606982231140136719 3.6174731254577636719 3.5511145591735839844 5.873394012451171875 4.7350821495056152344 3.4237918853759765625 3.2672147750854492188 6.1762561798095703125 13.355012893676757813 13.800591468811035156 15.087005615234375 10.181737899780273438 nan nan nan nan nan nan nan nan nan nan nan nan nan nan nan nan nan nan nan nan nan nan nan nan nan nan nan nan nan nan nan nan nan nan nan nan nan nan nan nan nan nan nan nan nan nan nan nan nan nan nan nan nan nan nan nan nan nan nan nan nan nan nan nan nan nan nan nan nan nan nan nan nan nan nan nan nan nan nan nan nan nan nan nan nan nan nan nan nan nan nan nan nan nan nan nan nan nan nan nan nan nan nan nan nan nan nan nan nan nan nan nan nan nan nan nan nan nan nan nan nan nan nan nan nan nan 
nan nan 15.24350738525390625 11.196321487426757813 11.965423583984375 11.544733047485351563 7.8076915740966796875 7.0733470916748046875 4.5927534103393554688 5.2187800407409667969 6.09513092041015625 8.5014095306396484375 7.3793478012084960938 6.9738073348999023438 6.6780667304992675781 5.9352502822875976563 13.297983169555664063 16.252061843872070313 9.3259229660034179688 10.73737335205078125 12.474059104919433594 21.324693679809570313 17.747606277465820313 7.2442040443420410156 11.051371574401855469 7.5331578254699707031 7.4912085533142089844 6.06218719482421875 3.3861131668090820313 3.1318309307098388672 4.6865611076354980469 6.9342284202575683594 8.9168939590454101563 7.4222002029418945313 6.189971923828125 6.3964571952819824219 7.404376983642578125 10.02654266357421875 14.439222335815429688 18.828683853149414063 nan nan nan nan nan nan nan nan nan nan nan nan nan nan nan nan nan nan nan nan nan nan nan nan nan nan nan nan nan nan nan nan nan nan nan nan nan nan nan nan nan nan nan nan nan nan nan nan nan nan nan nan nan nan nan nan nan nan nan nan nan nan nan nan nan nan nan nan nan nan nan nan nan nan nan nan nan nan nan nan nan nan nan nan nan nan nan nan nan nan nan nan nan nan nan nan nan nan nan nan nan nan nan nan nan nan nan nan nan nan nan nan nan nan nan nan nan nan nan nan nan nan nan nan nan nan 
23.120306015014648438 33.53289794921875 22.655914306640625 20.077478408813476563 17.688587188720703125 17.135038375854492188 11.93001556396484375 12.100687026977539063 10.720591545104980469 7.9959816932678222656 7.6833319664001464844 15.516177177429199219 14.749516487121582031 8.6870403289794921875 8.2454328536987304688 7.9397559165954589844 12.056438446044921875 14.901865005493164063 14.870677947998046875 13.670229911804199219 13.637707710266113281 4.7061038017272949219 7.502330780029296875 18.227441787719726563 15.492877006530761719 7.7189249992370605469 5.4412541389465332031 6.1790232658386230469 5.4776735305786132813 2.4589400291442871094 3.7057907581329345703 5.5804657936096191406 5.3195490837097167969 6.5371356010437011719 5.9879574775695800781 6.8325371742248535156 7.7529854774475097656 9.40555572509765625 15.050803184509277344 18.81598663330078125 nan nan nan nan nan nan nan nan nan nan nan nan nan nan nan nan nan nan nan nan nan nan nan nan nan nan nan nan nan nan nan nan nan nan nan nan nan nan nan nan nan nan nan nan nan nan nan nan nan nan nan nan nan nan nan nan nan nan nan nan nan nan nan nan nan nan nan nan nan nan nan nan nan nan nan nan nan nan nan nan nan nan nan nan nan nan nan nan nan nan nan nan nan nan nan nan nan nan nan nan nan nan nan nan nan nan nan nan nan nan nan nan nan nan nan nan nan nan nan nan nan nan nan nan nan nan 
27.104585647583007813 28.280130386352539063 21.882596969604492188 24.000240325927734375 14.138401031494140625 14.081708908081054688 14.350111007690429688 13.134396553039550781 10.960268974304199219 10.409390449523925781 9.048168182373046875 9.9746551513671875 7.1084995269775390625 7.9991879463195800781 11.020588874816894531 16.12122344970703125 12.527672767639160156 11.39227294921875 11.394515037536621094 11.228443145751953125 15.26764678955078125 10.383676528930664063 4.5814900398254394531 11.470734596252441406 15.786956787109375 6.7964153289794921875 7.6525578498840332031 7.3542618751525878906 10.405402183532714844 12.943891525268554688 10.418165206909179688 4.6685681343078613281 3.4661946296691894531 6.7480607032775878906 10.7336578369140625 11.75519561767578125 10.578194618225097656 11.212943077087402344 9.83028411865234375 nan nan nan nan nan nan nan nan nan nan nan nan nan nan nan nan nan nan nan nan nan nan nan nan nan nan nan nan nan nan nan nan nan nan nan nan nan nan nan nan nan nan nan nan nan nan nan nan nan nan nan nan nan nan nan nan nan nan nan nan nan nan nan nan nan nan nan nan nan nan nan nan nan nan nan nan nan nan nan nan nan nan nan nan nan nan nan nan nan nan nan nan nan nan nan nan nan nan nan nan nan nan nan nan nan nan nan nan nan nan nan nan nan nan nan nan nan nan nan nan nan nan nan nan nan nan nan 
nan 33.05091094970703125 20.359466552734375 18.750499725341796875 14.976396560668945313 10.779431343078613281 9.8180084228515625 13.502332687377929688 12.417334556579589844 6.6325287818908691406 6.6720018386840820313 8.4549474716186523438 13.097132682800292969 9.7352275848388671875 11.559247970581054688 10.702574729919433594 6.3566503524780273438 5.4608402252197265625 8.3801012039184570313 2.6443076133728027344 6.7488079071044921875 10.423779487609863281 10.6641845703125 8.8645381927490234375 15.343275070190429688 14.013804435729980469 11.561191558837890625 9.0193548202514648438 12.917317390441894531 14.0031280517578125 12.169286727905273438 6.4130434989929199219 4.5342321395874023438 4.0489649772644042969 9.8342885971069335938 9.0939922332763671875 10.719326019287109375 10.383512496948242188 14.622006416320800781 nan nan nan nan nan nan nan nan nan nan nan nan nan nan nan nan nan nan nan nan nan nan nan nan nan nan nan nan nan nan nan nan nan nan nan nan nan nan nan nan nan nan nan nan nan nan nan nan nan nan nan nan nan nan nan nan nan nan nan nan nan nan nan nan nan nan nan nan nan nan nan nan nan nan nan nan nan nan nan nan nan nan nan nan nan nan nan nan nan nan nan nan nan nan nan nan nan nan nan nan nan nan nan nan nan nan nan nan nan nan nan nan nan nan nan nan nan nan nan nan nan nan nan nan nan nan nan 
19.164354324340820313 15.765690803527832031 11.048465728759765625 11.257807731628417969 10.568108558654785156 9.6788682937622070313 12.347015380859375 8.08941650390625 5.0558543205261230469 8.7892246246337890625 9.7284364700317382813 7.7253818511962890625 17.361175537109375 15.080273628234863281 11.609285354614257813 12.204187393188476563 9.98828887939453125 6.5778784751892089844 4.4260935783386230469 3.7596406936645507813 2.5883986949920654297 7.3838286399841308594 4.7324271202087402344 10.543864250183105469 10.975820541381835938 10.715427398681640625 14.383687019348144531 16.82364654541015625 16.534765243530273438 13.095554351806640625 9.53995513916015625 12.22228240966796875 12.204446792602539063 14.644262313842773438 13.268336296081542969 14.144693374633789063 14.09456634521484375 9.6911287307739257813 24.514652252197265625 nan nan nan nan nan nan nan nan nan nan nan nan nan nan nan nan nan nan nan nan nan nan nan nan nan nan nan nan nan nan nan nan nan nan nan nan nan nan nan nan nan nan nan nan nan nan nan nan nan nan nan nan nan nan nan nan nan nan nan nan nan nan nan nan nan nan nan nan nan nan nan nan nan nan nan nan nan nan nan nan nan nan nan nan nan nan nan nan nan nan nan nan nan nan nan nan nan nan nan nan nan nan nan nan nan nan nan nan nan nan nan nan nan nan nan nan nan nan nan nan nan nan nan nan nan nan nan 
7.4279928207397460938 5.8826556205749511719 6.1436400413513183594 6.0858712196350097656 6.5127444267272949219 8.7274179458618164063 5.0475230216979980469 10.865443229675292969 9.0975675582885742188 11.533425331115722656 11.111310005187988281 15.1153411865234375 22.76721954345703125 21.291149139404296875 21.918399810791015625 15.650823593139648438 10.723787307739257813 7.3298621177673339844 8.488620758056640625 9.1476488113403320313 5.2583603858947753906 3.1271851062774658203 4.7038822174072265625 10.415667533874511719 10.065006256103515625 13.453736305236816406 17.028955459594726563 21.220180511474609375 18.33130645751953125 16.790430068969726563 17.318719863891601563 18.528917312622070313 17.766265869140625 14.979679107666015625 17.667705535888671875 15.965185165405273438 24.98354339599609375 31.889385223388671875 34.946277618408203125 nan nan nan nan nan nan nan nan nan nan nan nan nan nan nan nan nan nan nan nan nan nan nan nan nan nan nan nan nan nan nan nan nan nan nan nan nan nan nan nan nan nan nan nan nan nan nan nan nan nan nan nan nan nan nan nan nan nan nan nan nan nan nan nan nan nan nan nan nan nan nan nan nan nan nan nan nan nan nan nan nan nan nan nan nan nan nan nan nan nan nan nan nan nan nan nan nan nan nan nan nan nan nan nan nan nan nan nan nan nan nan nan nan nan nan nan nan nan nan nan nan nan nan nan nan nan nan 
3.213855743408203125 6.2570052146911621094 5.5939607620239257813 4.9375514984130859375 11.5093841552734375 8.6722097396850585938 12.908358573913574219 8.9586591720581054688 15.002748489379882813 12.49889373779296875 13.976836204528808594 19.228258132934570313 8.7826509475708007813 5.1253991127014160156 12.040241241455078125 18.971057891845703125 13.891463279724121094 9.8103885650634765625 11.734761238098144531 8.7326269149780273438 11.960402488708496094 5.2851424217224121094 7.1399316787719726563 8.9263153076171875 4.360408782958984375 5.9025015830993652344 9.785175323486328125 11.615255355834960938 21.886926651000976563 29.301609039306640625 21.949495315551757813 23.904546737670898438 17.63388824462890625 18.418802261352539063 21.506532669067382813 24.933528900146484375 25.999370574951171875 32.058788299560546875 31.905719757080078125 nan nan nan nan nan nan nan nan nan nan nan nan nan nan nan nan nan nan nan nan nan nan nan nan nan nan nan nan nan nan nan nan nan nan nan nan nan nan nan nan nan nan nan nan nan nan nan nan nan nan nan nan nan nan nan nan nan nan nan nan nan nan nan nan nan nan nan nan nan nan nan nan nan nan nan nan nan nan nan nan nan nan nan nan nan nan nan nan nan nan nan nan nan nan nan nan nan nan nan nan nan nan nan nan nan nan nan nan nan nan nan nan nan nan nan nan nan nan nan nan nan nan nan nan nan nan nan 
nan 5.9346022605895996094 4.0908308029174804688 6.0228605270385742188 8.7578496932983398438 16.471820831298828125 11.113453865051269531 7.0062832832336425781 15.357371330261230469 18.232400894165039063 12.828159332275390625 11.926798820495605469 16.208812713623046875 13.741657257080078125 13.523977279663085938 19.335153579711914063 19.0825958251953125 15.424704551696777344 16.20172882080078125 8.9195384979248046875 7.7309656143188476563 10.399788856506347656 2.1564607620239257813 10.411965370178222656 5.0224013328552246094 6.4439425468444824219 12.63173675537109375 10.169964790344238281 16.629026412963867188 18.861570358276367188 22.7994842529296875 22.1291351318359375 20.576366424560546875 19.677021026611328125 14.454847335815429688 22.005779266357421875 31.94835662841796875 22.828975677490234375 4.1318521499633789063 3.9853980541229248047 18.187740325927734375 nan nan nan nan nan nan nan nan nan nan nan nan nan nan nan nan nan nan nan nan nan nan nan nan nan nan nan nan nan nan nan nan nan nan nan nan nan nan nan nan nan nan nan nan nan nan nan nan nan nan nan nan nan nan nan nan nan nan nan nan nan nan nan nan nan nan nan nan nan nan nan nan nan nan nan nan nan nan nan nan nan nan nan nan nan nan nan nan nan nan nan nan nan nan nan nan nan nan nan nan nan nan nan nan nan nan nan nan nan nan nan nan nan nan nan nan nan nan nan nan nan nan nan nan nan 
nan nan 7.7436509132385253906 4.7947134971618652344 11.858503341674804688 13.98838043212890625 10.075262069702148438 17.097703933715820313 11.890161514282226563 9.9893960952758789063 8.5892925262451171875 12.851193428039550781 18.339315414428710938 22.6248016357421875 16.338092803955078125 15.516209602355957031 21.26828765869140625 14.910400390625 15.072833061218261719 16.967245101928710938 13.394199371337890625 8.3060827255249023438 3.3658506870269775391 5.3792233467102050781 7.9614930152893066406 11.277544975280761719 11.968442916870117188 8.2505617141723632813 14.122552871704101563 14.2341461181640625 17.3067169189453125 21.430652618408203125 20.611192703247070313 19.8758697509765625 17.066873550415039063 23.45395660400390625 18.786346435546875 8.0506315231323242188 10.333603858947753906 2.9103481769561767578 0.96200501918792724609 nan nan nan nan nan nan nan nan nan nan nan nan nan nan nan nan nan nan nan nan nan nan nan nan nan nan nan nan nan nan nan nan nan nan nan nan nan nan nan nan nan nan nan nan nan nan nan nan nan nan nan nan nan nan nan nan nan nan nan nan nan nan nan nan nan nan nan nan nan nan nan nan nan nan nan nan nan nan nan nan nan nan nan nan nan nan nan nan nan nan nan nan nan nan nan nan nan nan nan nan nan nan nan nan nan nan nan nan nan nan nan nan nan nan nan nan nan nan nan nan nan nan nan nan nan 
nan nan nan 6.7655644416809082031 11.532382965087890625 6.2899503707885742188 15.777960777282714844 19.808719635009765625 5.3870348930358886719 10.575860023498535156 7.8006806373596191406 8.7910470962524414063 12.107600212097167969 13.252858161926269531 20.187374114990234375 22.726247787475585938 21.605434417724609375 19.337741851806640625 14.342203140258789063 18.277669906616210938 17.550844192504882813 16.818389892578125 8.6822233200073242188 5.4250149726867675781 10.605327606201171875 12.930613517761230469 15.483118057250976563 14.812949180603027344 18.529468536376953125 16.924993515014648438 13.556704521179199219 19.53903961181640625 21.634981155395507813 22.476957321166992188 21.403650283813476563 16.834703445434570313 12.063052177429199219 14.996979713439941406 14.956701278686523438 4.8723745346069335938 0.015372735448181629181 nan nan nan nan nan nan nan nan nan nan nan nan nan nan nan nan nan nan nan nan nan nan nan nan nan nan nan nan nan nan nan nan nan nan nan nan nan nan nan nan nan nan nan nan nan nan nan nan nan nan nan nan nan nan nan nan nan nan nan nan nan nan nan nan nan nan nan nan nan nan nan nan nan nan nan nan nan nan nan nan nan nan nan nan nan nan nan nan nan nan nan nan nan nan nan nan nan nan nan nan nan nan nan nan nan nan nan nan nan nan nan nan nan nan nan nan nan nan nan nan nan nan nan nan nan 
nan nan nan 11.245812416076660156 5.98120880126953125 7.2343950271606445313 9.2075519561767578125 15.000943183898925781 6.8598942756652832031 9.4167966842651367188 9.9259481430053710938 8.5012979507446289063 8.7236108779907226563 10.850354194641113281 16.031925201416015625 15.59537506103515625 12.825509071350097656 25.073154449462890625 19.1352081298828125 15.421078681945800781 14.217001914978027344 14.211160659790039063 12.002346992492675781 11.708105087280273438 9.5759859085083007813 11.974268913269042969 11.971120834350585938 15.064347267150878906 18.61688995361328125 23.979444503784179688 22.026979446411132813 20.652013778686523438 18.849630355834960938 30.105255126953125 18.968450546264648438 21.40843963623046875 13.594594955444335938 11.811420440673828125 17.212066650390625 1.8395361900329589844 nan nan nan nan nan nan nan nan nan nan nan nan nan nan nan nan nan nan nan nan nan nan nan nan nan nan nan nan nan nan nan nan nan nan nan nan nan nan nan nan nan nan nan nan nan nan nan nan nan nan nan nan nan nan nan nan nan nan nan nan nan nan nan nan nan nan nan nan nan nan nan nan nan nan nan nan nan nan nan nan nan nan nan nan nan nan nan nan nan nan nan nan nan nan nan nan nan nan nan nan nan nan nan nan nan nan nan nan nan nan nan nan nan nan nan nan nan nan nan nan nan nan nan nan nan nan 
nan nan nan nan 6.1659846305847167969 7.7239832878112792969 10.129965782165527344 9.4814891815185546875 8.9875812530517578125 11.116099357604980469 10.132334709167480469 10.103219985961914063 9.69959259033203125 12.327062606811523438 13.2017059326171875 16.435428619384765625 15.914152145385742188 21.130105972290039063 20.183801651000976563 22.451871871948242188 17.779937744140625 20.781284332275390625 16.498834609985351563 19.748384475708007813 17.53487396240234375 17.138967514038085938 7.7715406417846679688 7.2786302566528320313 14.260066032409667969 18.98805999755859375 18.362030029296875 31.197093963623046875 30.054615020751953125 17.124835968017578125 9.6491031646728515625 6.7104892730712890625 11.086822509765625 4.1285824775695800781 0.27191469073295593262 nan nan nan nan nan nan nan nan nan nan nan nan nan nan nan nan nan nan nan nan nan nan nan nan nan nan nan nan nan nan nan nan nan nan nan nan nan nan nan nan nan nan nan nan nan nan nan nan nan nan nan nan nan nan nan nan nan nan nan nan nan nan nan nan nan nan nan nan nan nan nan nan nan nan nan nan nan nan nan nan nan nan nan nan nan nan nan nan nan nan nan nan nan nan nan nan nan nan nan nan nan nan nan nan nan nan nan nan nan nan nan nan nan nan nan nan nan nan nan nan nan nan nan nan nan nan nan 
nan nan nan 6.4600319862365722656 4.5334253311157226563 7.6582279205322265625 10.096581459045410156 7.3882470130920410156 9.0386142730712890625 11.162786483764648438 12.686547279357910156 16.584930419921875 11.976053237915039063 7.7816286087036132813 16.438137054443359375 12.012510299682617188 8.89191436767578125 18.073390960693359375 16.569993972778320313 19.158100128173828125 21.103199005126953125 19.212202072143554688 18.219434738159179688 17.568691253662109375 22.961277008056640625 20.903806686401367188 18.029483795166015625 10.197852134704589844 10.974829673767089844 22.367441177368164063 22.9326019287109375 26.611318588256835938 24.603969573974609375 16.834180831909179688 17.58684539794921875 17.926397323608398438 15.900514602661132813 0.0675048828125 nan nan nan nan nan nan nan nan nan nan nan nan nan nan nan nan nan nan nan nan nan nan nan nan nan nan nan nan nan nan nan nan nan nan nan nan nan nan nan nan nan nan nan nan nan nan nan nan nan nan nan nan nan nan nan nan nan nan nan nan nan nan nan nan nan nan nan nan nan nan nan nan nan nan nan nan nan nan nan nan nan nan nan nan nan nan nan nan nan nan nan nan nan nan nan nan nan nan nan nan nan nan nan nan nan nan nan nan nan nan nan nan nan nan nan nan nan nan nan nan nan nan nan nan nan nan nan nan 
nan nan nan 5.2566599845886230469 4.4000921249389648438 4.5370917320251464844 5.5671067237854003906 5.9313268661499023438 4.0177001953125 7.1617875099182128906 10.436339378356933594 10.098048210144042969 10.992616653442382813 8.4832210540771484375 6.8418836593627929688 9.3896970748901367188 9.3282232284545898438 10.79229736328125 16.181819915771484375 16.667144775390625 12.355277061462402344 15.012715339660644531 15.124917984008789063 23.084255218505859375 25.949176788330078125 21.067232131958007813 21.218286514282226563 14.293446540832519531 8.4466152191162109375 22.753688812255859375 24.502132415771484375 29.897907257080078125 18.236860275268554688 7.6367626190185546875 7.8013682365417480469 3.9949021339416503906 0.054229166358709335327 nan nan nan nan nan nan nan nan nan nan nan nan nan nan nan nan nan nan nan nan nan nan nan nan nan nan nan nan nan nan nan nan nan nan nan nan nan nan nan nan nan nan nan nan nan nan nan nan nan nan nan nan nan nan nan nan nan nan nan nan nan nan nan nan nan nan nan nan nan nan nan nan nan nan nan nan nan nan nan nan nan nan nan nan nan nan nan nan nan nan nan nan nan nan nan nan nan nan nan nan nan nan nan nan nan nan nan nan nan nan nan nan nan nan nan nan nan nan nan nan nan nan nan nan nan nan nan nan nan 
nan nan nan nan 2.2734045982360839844 2.999248504638671875 3.4696760177612304688 6.5554380416870117188 3.7612118721008300781 6.2058405876159667969 7.0535831451416015625 7.423793792724609375 8.9437437057495117188 10.690274238586425781 8.8153562545776367188 7.1555457115173339844 7.7453007698059082031 7.2621059417724609375 15.092489242553710938 19.3242950439453125 10.382657051086425781 8.448246002197265625 9.6770954132080078125 23.675806045532226563 nan 13.402602195739746094 17.37245941162109375 24.746759414672851563 20.903472900390625 13.015364646911621094 14.794442176818847656 32.259593963623046875 31.516702651977539063 11.665255546569824219 0.93035328388214111328 0.19758135080337524414 nan nan nan nan nan nan nan nan nan nan nan nan nan nan nan nan nan nan nan nan nan nan nan nan nan nan nan nan nan nan nan nan nan nan nan nan nan nan nan nan nan nan nan nan nan nan nan nan nan nan nan nan nan nan nan nan nan nan nan nan nan nan nan nan nan nan nan nan nan nan nan nan nan nan nan nan nan nan nan nan nan nan nan nan nan nan nan nan nan nan nan nan nan nan nan nan nan nan nan nan nan nan nan nan nan nan nan nan nan nan nan nan nan nan nan nan nan nan nan nan nan nan nan nan nan nan nan nan nan nan 
nan nan nan nan 1.5804494619369506836 2.1077871322631835938 4.3810553550720214844 5.4415259361267089844 5.0724706649780273438 4.0455632209777832031 5.2909607887268066406 5.6644024848937988281 7.576385498046875 6.8395843505859375 8.9044332504272460938 6.8546352386474609375 8.8658266067504882813 12.156170845031738281 11.820271492004394531 19.065385818481445313 17.345617294311523438 12.623799324035644531 15.383787155151367188 18.26190185546875 nan nan nan nan 15.054010391235351563 19.387304306030273438 17.22232818603515625 14.425827980041503906 19.283624649047851563 6.4717860221862792969 0.12785190343856811523 nan nan nan nan nan nan nan nan nan nan nan nan nan nan nan nan nan nan nan nan nan nan nan nan nan nan nan nan nan nan nan nan nan nan nan nan nan nan nan nan nan nan nan nan nan nan nan nan nan nan nan nan nan nan nan nan nan nan nan nan nan nan nan nan nan nan nan nan nan nan nan nan nan nan nan nan nan nan nan nan nan nan nan nan nan nan nan nan nan nan nan nan nan nan nan nan nan nan nan nan nan nan nan nan nan nan nan nan nan nan nan nan nan nan nan nan nan nan nan nan nan nan nan nan nan nan nan nan nan nan nan 
nan nan nan nan nan 2.0524697303771972656 3.2411108016967773438 4.102573394775390625 6.3058800697326660156 6.3456330299377441406 4.7892627716064453125 4.8140635490417480469 4.2881221771240234375 5.4392552375793457031 7.6331810951232910156 5.2856602668762207031 5.0585637092590332031 7.3369512557983398438 11.331851005554199219 16.660945892333984375 13.5531005859375 12.363835334777832031 8.08220672607421875 nan nan nan nan nan nan nan nan nan 10.546425819396972656 0.56688618659973144531 nan nan nan nan nan nan nan nan nan nan nan nan nan nan nan nan nan nan nan nan nan nan nan nan nan nan nan nan nan nan nan nan nan nan nan nan nan nan nan nan nan nan nan nan nan nan nan nan nan nan nan nan nan nan nan nan nan nan nan nan nan nan nan nan nan nan nan nan nan nan nan nan nan nan nan nan nan nan nan nan nan nan nan nan nan nan nan nan nan nan nan nan nan nan nan nan nan nan nan nan nan nan nan nan nan nan nan nan nan nan nan nan nan nan nan nan nan nan nan nan nan nan nan nan nan nan nan nan nan nan nan nan 
nan nan nan nan nan nan 3.4996373653411865234 3.8456304073333740234 4.4227771759033203125 5.5972971916198730469 5.3257436752319335938 4.4861626625061035156 3.6527869701385498047 4.2342505455017089844 5.2528271675109863281 4.3425655364990234375 3.5418903827667236328 5.1179432868957519531 3.9464969635009765625 12.684647560119628906 12.316555976867675781 5.1559343338012695313 nan nan nan nan nan nan nan nan nan nan nan nan nan nan nan nan nan nan nan nan nan nan nan nan nan nan nan nan nan nan nan nan nan nan nan nan nan nan nan nan nan nan nan nan nan nan nan nan nan nan nan nan nan nan nan nan nan nan nan nan nan nan nan nan nan nan nan nan nan nan nan nan nan nan nan nan nan nan nan nan nan nan nan nan nan nan nan nan nan nan nan nan nan nan nan nan nan nan nan nan nan nan nan nan nan nan nan nan nan nan nan nan nan nan nan nan nan nan nan nan nan nan nan nan nan nan nan nan nan nan nan nan nan nan nan nan nan nan nan nan nan nan nan nan 
nan nan nan nan nan nan 2.8251070976257324219 2.4227387905120849609 3.1558420658111572266 4.2613821029663085938 3.3265054225921630859 2.9353356361389160156 3.6522493362426757813 2.9357969760894775391 6.63393402099609375 3.2340259552001953125 2.8896248340606689453 3.6410436630249023438 3.3229961395263671875 6.6331796646118164063 14.958574295043945313 nan nan nan nan nan nan nan nan nan nan nan nan nan nan nan nan nan nan nan nan nan nan nan nan nan nan nan nan nan nan nan nan nan nan nan nan nan nan nan nan nan nan nan nan nan nan nan nan nan nan nan nan nan nan nan nan nan nan nan nan nan nan nan nan nan nan nan nan nan nan nan nan nan nan nan nan nan nan nan nan nan nan nan nan nan nan nan nan nan nan nan nan nan nan nan nan nan nan nan nan nan nan nan nan nan nan nan nan nan nan nan nan nan nan nan nan nan nan nan nan nan nan nan nan nan nan nan nan nan nan nan nan nan nan nan nan nan nan nan nan nan nan nan nan nan 
nan nan nan nan nan nan 1.2586921453475952148 1.1474809646606445313 0.90845328569412231445 1.1958752870559692383 1.0896930694580078125 1.4743013381958007813 3.3487432003021240234 3.7732470035552978516 3.6166257858276367188 2.0137274265289306641 2.2323412895202636719 2.5250196456909179688 2.3807809352874755859 4.9408941268920898438 11.958662033081054688 nan nan nan nan nan nan nan nan nan nan nan nan nan nan nan nan nan nan nan nan nan nan nan nan nan nan nan nan nan nan nan nan nan nan nan nan nan nan nan nan nan nan nan nan nan nan nan nan nan nan nan nan nan nan nan nan nan nan nan nan nan nan nan nan nan nan nan nan nan nan nan nan nan nan nan nan nan nan nan nan nan nan nan nan nan nan nan nan nan nan nan nan nan nan nan nan nan nan nan nan nan nan nan nan nan nan nan nan nan nan nan nan nan nan nan nan nan nan nan nan nan nan nan nan nan nan nan nan nan nan nan nan nan nan nan nan nan nan nan nan nan nan nan nan nan 
nan nan nan nan nan nan nan 0.72440516948699951172 1.103474736213684082 1.488081812858581543 0.72165215015411376953 0.70987951755523681641 0.97765511274337768555 1.2714631557464599609 2.8194935321807861328 1.9037176370620727539 2.1583752632141113281 1.8290749788284301758 2.3838405609130859375 nan nan nan nan nan nan nan nan nan nan nan nan nan nan nan nan nan nan nan nan nan nan nan nan nan nan nan nan nan nan nan nan nan nan nan nan nan nan nan nan nan nan nan nan nan nan nan nan nan nan nan nan nan nan nan nan nan nan nan nan nan nan nan nan nan nan nan nan nan nan nan nan nan nan nan nan nan nan nan nan nan nan nan nan nan nan nan nan nan nan nan nan nan nan nan nan nan nan nan nan nan nan nan nan nan nan nan nan nan nan nan nan nan nan nan nan nan nan nan nan nan nan nan nan nan nan nan nan nan nan nan nan nan nan nan nan nan nan nan nan nan nan nan nan nan nan nan 
