ncols        43
nrows        40
xllcorner    -3.550000000000
yllcorner    39.250000000000
cellsize     0.100000000000
NODATA_value -9999
-9999.0 -9999 -9999 -9999 -9999 -9999 -9999 -9999 -9999 -9999 -9999 -9999 -9999 -9999 -9999 -9999 360.7371826171875 559.76910400390625 342.67327880859375 443.738861083984375 465.959503173828125 593.88446044921875 -9999 -9999 -9999 -9999 -9999 -9999 -9999 -9999 -9999 -9999 -9999 -9999 -9999 -9999 -9999 -9999 -9999 -9999 -9999 -9999 -9999 
-9999 -9999 -9999 -9999 -9999 -9999 -9999 -9999 -9999 -9999 -9999 -9999 -9999 -9999 -9999 489.909271240234375 699.49700927734375 692.08819580078125 521.1544189453125 544.63397216796875 613.31817626953125 619.77740478515625 706.9442138671875 -9999 -9999 -9999 -9999 -9999 -9999 -9999 -9999 -9999 -9999 -9999 -9999 -9999 -9999 -9999 -9999 -9999 -9999 -9999 -9999 
-9999 -9999 -9999 -9999 -9999 -9999 -9999 -9999 -9999 -9999 -9999 -9999 -9999 -9999 738.84918212890625 832.2586669921875 730.11688232421875 700.57391357421875 655.89306640625 842.2843017578125 890.190185546875 943.41552734375 1023.6982421875 1036.517333984375 1141.30908203125 1176.3294677734375 987.61834716796875 1178.1978759765625 1249.285400390625 -9999 -9999 -9999 -9999 -9999 -9999 -9999 -9999 -9999 -9999 -9999 -9999 -9999 -9999 
-9999 -9999 -9999 -9999 -9999 -9999 -9999 -9999 -9999 -9999 -9999 -9999 802.2352294921875 720.44549560546875 722.3135986328125 760.9324951171875 757.94708251953125 577.49212646484375 614.7794189453125 629.84735107421875 711.3326416015625 848.18701171875 938.04034423828125 1066.0516357421875 972.59088134765625 1152.14599609375 1181.465576171875 1567.837646484375 1705.4100341796875 1263.8829345703125 -9999 -9999 -9999 -9999 -9999 -9999 -9999 -9999 -9999 -9999 -9999 -9999 -9999 
-9999 -9999 -9999 -9999 -9999 -9999 -9999 -9999 -9999 -9999 -9999 -9999 945.9957275390625 873.678466796875 911.7191162109375 951.75946044921875 813.34307861328125 563.337890625 449.44537353515625 491.0478515625 620.75311279296875 601.60821533203125 728.69580078125 847.465087890625 840.14605712890625 935.12225341796875 1126.078857421875 1389.78125 1597.138671875 1831.469482421875 1854.74462890625 1939.916748046875 2182.84033203125 2341.39697265625 2323.8115234375 -9999 -9999 -9999 -9999 -9999 -9999 -9999 -9999 
-9999 -9999 -9999 -9999 -9999 -9999 -9999 -9999 -9999 -9999 -9999 738.147216796875 763.1630859375 734.83660888671875 625.24652099609375 536.29351806640625 548.72528076171875 483.63067626953125 597.91021728515625 690.4884033203125 712.190673828125 697.35113525390625 500.45574951171875 694.59375 890.63323974609375 814.264404296875 859.8509521484375 976.33843994140625 1064.8123779296875 1419.4849853515625 1694.91357421875 1942.63330078125 1553.74609375 2118.017333984375 2015.541259765625 2260.45751953125 2131.26123046875 1976.2337646484375 2225.3271484375 2292.0048828125 2369.692138671875 1985.2080078125 1812.2529296875 
-9999 -9999 -9999 -9999 750.18695068359375 608.4310302734375 558.356689453125 595.53057861328125 773.5703125 -9999 -9999 730.85546875 675.4906005859375 531.3726806640625 561.30462646484375 478.990264892578125 423.2977294921875 381.159637451171875 534.3427734375 631.55169677734375 759.6181640625 631.05670166015625 506.741119384765625 613.69635009765625 692.65936279296875 705.9027099609375 633.66204833984375 728.64385986328125 844.7545166015625 937.6962890625 1046.469482421875 1234.5296630859375 1172.280517578125 1526.160888671875 1385.381591796875 1669.2554931640625 1640.7303466796875 1361.708740234375 1713.76220703125 2105.86279296875 1753.810791015625 2240.191650390625 2324.25146484375 
-9999 -9999 -9999 -9999 710.6727294921875 602.59991455078125 569.26446533203125 549.8934326171875 478.362213134765625 478.749603271484375 452.228302001953125 435.78704833984375 434.924713134765625 430.516021728515625 439.716339111328125 387.25518798828125 393.572845458984375 353.6856689453125 421.82427978515625 485.015045166015625 630.733154296875 495.3616943359375 605.584228515625 629.33514404296875 708.82061767578125 837.5185546875 913.8389892578125 798.04290771484375 933.21044921875 942.854736328125 1044.2972412109375 857.7596435546875 1109.4422607421875 1316.1121826171875 1181.1240234375 1099.494384765625 887.082275390625 1154.5296630859375 1877.2137451171875 1495.222412109375 1375.736572265625 1732.2679443359375 1474.007568359375 
-9999 -9999 -9999 -9999 955.71142578125 848.9136962890625 788.8643798828125 589.79632568359375 590.10858154296875 701.55499267578125 527.63214111328125 501.0919189453125 462.74090576171875 404.57794189453125 378.910369873046875 362.10638427734375 385.0838623046875 351.976470947265625 360.23284912109375 352.4415283203125 434.233551025390625 403.65673828125 506.0155029296875 718.0775146484375 820.34307861328125 932.28131103515625 950.982421875 824.65545654296875 751.1903076171875 796.4642333984375 834.7718505859375 867.38641357421875 996.1783447265625 1098.80517578125 1277.7803955078125 1030.3427734375 686.7672119140625 684.57452392578125 879.91461181640625 980.84765625 1387.435791015625 1390.16796875 1223.2691650390625 
-9999 -9999 -9999 -9999 1301.8907470703125 1186.535888671875 1166.6405029296875 838.066162109375 1017.10986328125 1089.7265625 943.35833740234375 959.239013671875 833.8475341796875 812.7027587890625 504.618194580078125 362.066192626953125 329.364105224609375 327.2589111328125 316.089752197265625 363.618255615234375 404.19091796875 393.0814208984375 432.227294921875 535.4237060546875 619.545166015625 685.7706298828125 727.3824462890625 653.5595703125 680.97369384765625 866.58526611328125 1078.3056640625 1118.8121337890625 1191.5560302734375 1326.921875 1079.02294921875 1088.2635498046875 752.98046875 605.70703125 838.6732177734375 847.82769775390625 993.4278564453125 1099.9332275390625 956.25482177734375 
-9999 -9999 -9999 -9999 1551.3465576171875 1498.3250732421875 1310.9400634765625 1181.4168701171875 1222.8955078125 1130.1162109375 1079.6512451171875 1203.572509765625 993.6187744140625 895.82177734375 709.55535888671875 585.706787109375 413.753570556640625 297.515411376953125 289.435577392578125 336.24224853515625 302.029754638671875 366.216278076171875 378.315399169921875 404.12664794921875 426.2430419921875 512.72979736328125 568.471435546875 539.58282470703125 491.9378662109375 497.43548583984375 549.62939453125 605.181640625 720.37158203125 685.59600830078125 698.374755859375 807.77935791015625 759.8990478515625 606.4130859375 670.96051025390625 639.0667724609375 780.19134521484375 909.93505859375 750.11395263671875 
-9999 -9999 -9999 -9999 1396.8853759765625 1308.0501708984375 1378.3673095703125 1524.6961669921875 1384.3487548828125 1356.9658203125 1461.6512451171875 1313.108154296875 1206.53466796875 1111.248046875 864.8673095703125 735.92828369140625 545.6396484375 383.1265869140625 341.857086181640625 291.9598388671875 363.577606201171875 448.501007080078125 393.696746826171875 314.307037353515625 356.730621337890625 397.05853271484375 436.29046630859375 403.281402587890625 413.979949951171875 464.58917236328125 462.3612060546875 430.887237548828125 515.307373046875 505.273834228515625 501.123443603515625 505.69268798828125 487.77874755859375 432.54803466796875 688.54400634765625 727.2943115234375 742.829833984375 813.07952880859375 803.89727783203125 
-9999 -9999 -9999 -9999 -9999 1376.364013671875 1655.7066650390625 1594.09619140625 1698.7369384765625 1569.6197509765625 1422.0303955078125 1370.61962890625 1329.87451171875 1206.6031494140625 1051.911865234375 727.58453369140625 617.87078857421875 579.8035888671875 379.446044921875 321.027923583984375 268.4686279296875 316.80718994140625 358.511016845703125 297.594818115234375 406.38775634765625 563.3460693359375 559.81549072265625 369.966766357421875 391.8631591796875 407.764404296875 394.7821044921875 368.126129150390625 433.098876953125 438.142120361328125 423.54718017578125 403.19805908203125 372.263336181640625 347.64508056640625 545.75433349609375 671.23321533203125 728.89874267578125 646.12847900390625 793.8135986328125 
-9999 -9999 -9999 -9999 1182.0552978515625 1235.7750244140625 1238.4482421875 1242.91455078125 1221.525634765625 1163.2982177734375 1153.587158203125 1137.9044189453125 1223.67333984375 1189.1402587890625 998.4415283203125 987.14764404296875 842.038818359375 681.7177734375 540.61956787109375 531.66455078125 353.44256591796875 271.714508056640625 247.016754150390625 295.524078369140625 471.055938720703125 562.50543212890625 497.499755859375 336.321014404296875 370.60589599609375 495.617431640625 427.6429443359375 347.2572021484375 328.18182373046875 350.89227294921875 370.6068115234375 418.08966064453125 275.594451904296875 299.781768798828125 372.375457763671875 465.73089599609375 507.089752197265625 517.213134765625 -9999 
-9999 961.45233154296875 1007.49200439453125 1085.4227294921875 1095.193115234375 1137.0748291015625 1171.8603515625 1156.6014404296875 1160.990478515625 1137.1986083984375 1053.801513671875 1063.7957763671875 1129.8834228515625 1148.077392578125 1127.595703125 1070.6712646484375 1266.5604248046875 1252.944580078125 755.2940673828125 603.25927734375 453.2098388671875 372.776031494140625 289.868743896484375 239.8161468505859375 286.717864990234375 390.100250244140625 360.357818603515625 278.7958984375 362.980987548828125 461.09954833984375 551.46630859375 416.677886962890625 333.564605712890625 285.793365478515625 332.125091552734375 300.93170166015625 234.8228302001953125 299.43206787109375 262.160888671875 247.0330352783203125 292.876861572265625 319.9088134765625 -9999 
886.6328125 918.706298828125 949.86126708984375 974.98040771484375 1011.8316650390625 1044.40771484375 1043.5140380859375 1079.1251220703125 1134.1497802734375 1098.6820068359375 1075.3194580078125 1025.8763427734375 1023.1636962890625 1046.7979736328125 1048.6614990234375 1141.3756103515625 1234.2587890625 1325.0941162109375 1075.444580078125 830.16790771484375 628.96978759765625 439.29876708984375 362.120697021484375 297.9837646484375 255.7308502197265625 227.104034423828125 248.299835205078125 230.20159912109375 369.11553955078125 459.902069091796875 516.32489013671875 561.697509765625 475.519927978515625 335.383331298828125 310.35601806640625 267.450958251953125 211.9626922607421875 226.46136474609375 201.8542938232421875 228.95770263671875 -9999 -9999 -9999 
937.90997314453125 916.898193359375 899.9495849609375 913.186767578125 952.61383056640625 971.46270751953125 994.31195068359375 986.07928466796875 994.5784912109375 1043.065185546875 1062.088134765625 998.17108154296875 1004.9730224609375 1032.5184326171875 1052.7156982421875 1069.720458984375 1097.6927490234375 978.2252197265625 859.2254638671875 671.34088134765625 665.73077392578125 475.611053466796875 345.049530029296875 427.698455810546875 487.834381103515625 353.77001953125 295.107666015625 218.5424957275390625 216.96173095703125 290.574554443359375 313.523468017578125 384.342559814453125 484.38787841796875 448.858062744140625 393.40869140625 411.595550537109375 292.961334228515625 237.3333740234375 177.377349853515625 231.9300537109375 -9999 -9999 -9999 
986.83648681640625 1018.12481689453125 979.64923095703125 965.9537353515625 932.04302978515625 931.64044189453125 935.78875732421875 952.50677490234375 958.63421630859375 973.3848876953125 976.0755615234375 1065.3037109375 1092.865234375 987.9110107421875 1009.89154052734375 999.0654296875 949.75860595703125 898.7589111328125 992.22698974609375 696.44970703125 519.1990966796875 415.324981689453125 376.847137451171875 475.239715576171875 496.6337890625 473.468170166015625 526.47039794921875 394.744293212890625 294.346771240234375 203.5230255126953125 197.8295745849609375 280.449554443359375 334.55194091796875 369.557098388671875 330.654998779296875 301.821319580078125 291.16265869140625 288.514129638671875 243.3977203369140625 145.5907440185546875 -9999 -9999 -9999 
-9999 1010.088134765625 1074.8878173828125 1132.484130859375 1123.900634765625 1154.4132080078125 1080.39599609375 1037.77685546875 1081.77587890625 1041.765625 1012.2745361328125 1019.33148193359375 995.83990478515625 859.44744873046875 914.1925048828125 893.94073486328125 891.96588134765625 723.2037353515625 708.7255859375 665.263427734375 795.567626953125 679.51788330078125 569.65679931640625 532.5328369140625 564.88580322265625 626.7039794921875 611.65484619140625 457.97491455078125 356.745452880859375 245.1888427734375 197.9544525146484375 233.1630706787109375 334.558074951171875 343.80279541015625 345.937652587890625 328.768585205078125 234.52459716796875 249.861572265625 231.7361602783203125 224.5082244873046875 -9999 -9999 -9999 
-9999 -9999 1296.6214599609375 1320.9715576171875 1297.541259765625 1283.0960693359375 1169.70654296875 1127.2191162109375 1107.9334716796875 1115.358154296875 1104.5736083984375 1064.5909423828125 915.21575927734375 825.96435546875 785.23724365234375 745.04840087890625 759.6114501953125 722.5655517578125 660.57733154296875 680.47906494140625 809.04229736328125 930.646728515625 861.4720458984375 707.66424560546875 728.1759033203125 724.1287841796875 658.5064697265625 497.060089111328125 390.71490478515625 314.46014404296875 260.694305419921875 199.4800262451171875 197.6146697998046875 200.7415771484375 189.6006317138671875 156.1864013671875 169.151763916015625 280.02587890625 271.261505126953125 294.14501953125 -9999 -9999 -9999 
1531.33203125 1605.6390380859375 1511.014404296875 1396.3209228515625 1432.033935546875 1223.0079345703125 1122.909912109375 1060.18115234375 1024.1890869140625 1163.53271484375 1146.914794921875 1082.423828125 980.4825439453125 924.11737060546875 947.2987060546875 962.4827880859375 891.73211669921875 821.3896484375 912.56072998046875 835.9049072265625 836.9427490234375 913.1614990234375 926.52655029296875 942.416748046875 907.85345458984375 790.552490234375 689.254150390625 616.39703369140625 530.5509033203125 392.360443115234375 305.498077392578125 269.839630126953125 261.5760498046875 236.296417236328125 214.294647216796875 192.9731597900390625 264.21087646484375 231.2187042236328125 239.2833404541015625 273.158905029296875 -9999 -9999 -9999 
1467.8133544921875 1318.6856689453125 1308.8458251953125 1246.237060546875 1200.1976318359375 1090.1361083984375 1040.2943115234375 1001.37823486328125 1035.032958984375 1106.069580078125 1155.816650390625 1155.642822265625 1204.115478515625 1262.368896484375 1222.6884765625 1124.4793701171875 1110.053955078125 1040.601806640625 1041.52587890625 1079.6019287109375 999.49053955078125 871.44805908203125 974.52825927734375 1061.9373779296875 1034.1458740234375 906.34210205078125 799.37298583984375 760.63250732421875 817.66986083984375 600.61248779296875 446.267852783203125 441.24639892578125 373.310089111328125 350.340484619140625 341.636627197265625 316.829254150390625 357.321197509765625 309.00897216796875 374.411956787109375 -9999 -9999 -9999 -9999 
-9999 1307.58349609375 1031.461669921875 1056.60888671875 1039.677978515625 928.1907958984375 914.4571533203125 942.4364013671875 1026.587158203125 1114.6480712890625 1135.9332275390625 1134.9862060546875 1202.08984375 1256.3465576171875 1232.830322265625 1220.69775390625 1197.998779296875 1141.6539306640625 1100.5179443359375 1042.94677734375 1058.1424560546875 998.3782958984375 965.42724609375 1115.464111328125 1277.9024658203125 1132.2479248046875 934.6375732421875 829.29632568359375 675.46014404296875 610.03857421875 700.7115478515625 627.78302001953125 516.8150634765625 392.648773193359375 426.57171630859375 515.38018798828125 453.581878662109375 460.542572021484375 439.785736083984375 -9999 -9999 -9999 -9999 
928.71337890625 872.0482177734375 905.4813232421875 887.938720703125 826.29193115234375 859.23175048828125 951.61859130859375 1023.4852294921875 1053.1103515625 1079.68994140625 1096.1331787109375 1151.311767578125 1083.03125 1146.3392333984375 1229.5965576171875 1233.5689697265625 1180.9755859375 1164.2686767578125 1132.80224609375 1122.3255615234375 1044.6639404296875 1034.698974609375 933.5775146484375 1059.138916015625 1169.1812744140625 1146.033935546875 1093.5948486328125 988.4228515625 840.116455078125 810.57196044921875 844.2969970703125 724.622802734375 627.35235595703125 523.82940673828125 628.46685791015625 675.7000732421875 542.85406494140625 564.8619384765625 611.2099609375 -9999 -9999 -9999 -9999 
729.3984375 867.891357421875 871.560302734375 790.99005126953125 749.129638671875 893.31866455078125 998.13824462890625 1005.4215087890625 942.4659423828125 1010.03375244140625 1100.800048828125 1066.468505859375 1065.2498779296875 1131.5594482421875 1132.7916259765625 1158.2530517578125 1177.8883056640625 1166.2200927734375 1238.458740234375 1239.0577392578125 1097.8876953125 990.63525390625 1006.35467529296875 1240.3580322265625 1239.902587890625 1250.9290771484375 1180.5523681640625 1122.693603515625 1168.3946533203125 1119.449462890625 1035.2982177734375 941.72119140625 696.0103759765625 656.6893310546875 724.05291748046875 748.23431396484375 780.346923828125 866.64849853515625 1008.7071533203125 -9999 -9999 -9999 -9999 
675.43048095703125 794.0299072265625 799.63543701171875 710.1343994140625 834.31231689453125 953.85015869140625 942.74969482421875 1026.4971923828125 885.522216796875 826.1568603515625 892.649169921875 1016.49798583984375 1228.708984375 1301.2059326171875 1313.5516357421875 1266.92138671875 1302.484130859375 1333.102783203125 1360.859619140625 1329.931640625 1225.1055908203125 1031.8360595703125 1071.690185546875 1305.0538330078125 1234.832275390625 1237.435546875 1312.78662109375 1298.3321533203125 1225.3353271484375 1215.83984375 1113.26953125 938.74371337890625 855.119384765625 799.521728515625 964.89923095703125 985.23492431640625 1083.7901611328125 901.91107177734375 656.4942626953125 -9999 -9999 -9999 -9999 
-9999 706.96575927734375 707.84234619140625 705.0888671875 890.28717041015625 847.39385986328125 953.69061279296875 1007.67437744140625 822.81463623046875 973.781494140625 1058.324951171875 1079.5369873046875 1122.3837890625 1203.76220703125 1308.6102294921875 1387.0836181640625 1407.0184326171875 1483.9271240234375 1560.4158935546875 1414.255126953125 1401.1090087890625 1181.420654296875 1003.9339599609375 1194.2156982421875 1189.2259521484375 1125.1263427734375 1351.14501953125 1315.6275634765625 1356.17431640625 1355.429443359375 1439.6025390625 1227.720703125 989.32037353515625 901.48944091796875 953.51251220703125 980.89691162109375 854.20367431640625 553.475830078125 288.35614013671875 184.1135711669921875 214.3858795166015625 -9999 -9999 
-9999 -9999 684.21417236328125 862.61590576171875 827.2073974609375 850.8167724609375 939.15728759765625 850.00933837890625 816.174072265625 876.202880859375 821.44891357421875 866.88067626953125 949.4686279296875 1084.626708984375 1271.814453125 1415.371826171875 1549.516845703125 1555.6890869140625 1652.728515625 1580.3060302734375 1409.211181640625 1236.6884765625 1030.37451171875 1116.7628173828125 1170.9722900390625 1127.69775390625 1472.74169921875 1403.3787841796875 1469.8892822265625 1602.5650634765625 1530.4014892578125 1437.7513427734375 1196.3974609375 1075.3931884765625 1075.728759765625 852.86651611328125 606.2958984375 369.709442138671875 243.107696533203125 90.12949371337890625 15.701405525207519531 -9999 -9999 
-9999 -9999 -9999 832.906982421875 789.66656494140625 864.5052490234375 784.351806640625 760.34588623046875 728.47271728515625 865.55596923828125 788.511962890625 844.51556396484375 907.90521240234375 1023.32830810546875 1169.3455810546875 1355.3759765625 1500.8931884765625 1602.74267578125 1625.0341796875 1473.1168212890625 1321.913330078125 1274.274658203125 1100.587158203125 1026.4801025390625 1023.50274658203125 1224.4893798828125 1429.1700439453125 1449.1556396484375 1599.481689453125 1789.7984619140625 1693.4783935546875 1441.4794921875 1217.8656005859375 957.75927734375 884.97479248046875 658.76904296875 424.376251220703125 396.457122802734375 228.3080291748046875 45.90048980712890625 0.036257643252611160278 -9999 -9999 
-9999 -9999 -9999 748.3935546875 790.02825927734375 729.1336669921875 703.3939208984375 835.56463623046875 748.99786376953125 831.34521484375 913.71875 917.1434326171875 978.643310546875 1029.286376953125 1140.4835205078125 1404.593505859375 1489.0047607421875 1454.5819091796875 1633.979248046875 1541.792724609375 1444.7471923828125 1374.740478515625 1239.629638671875 1046.7052001953125 955.18707275390625 1223.2374267578125 1201.037353515625 1158.319580078125 1406.0745849609375 1539.3359375 1442.4559326171875 1367.144287109375 1138.2647705078125 794.15228271484375 624.9281005859375 657.57861328125 313.05078125 210.815399169921875 189.562255859375 10.305173873901367188 -9999 -9999 -9999 
-9999 -9999 -9999 -9999 671.5810546875 644.08837890625 812.65814208984375 901.9078369140625 829.26055908203125 938.9122314453125 900.18133544921875 921.48992919921875 992.17974853515625 1099.609375 1070.265625 1316.0855712890625 1359.1458740234375 1466.1986083984375 1492.430419921875 1461.925048828125 1434.1448974609375 1317.6470947265625 1139.900390625 984.677001953125 1116.5201416015625 1362.501708984375 1102.3968505859375 953.20562744140625 1023.3802490234375 1091.8575439453125 1112.033447265625 1014.0198974609375 975.76641845703125 562.41656494140625 342.461151123046875 356.217987060546875 280.125762939453125 41.16277313232421875 1.6038047075271606445 -9999 -9999 -9999 -9999 
-9999 -9999 -9999 616.95440673828125 628.857666015625 711.34686279296875 824.06939697265625 912.0718994140625 922.8978271484375 985.4083251953125 984.68804931640625 1049.2354736328125 1054.2113037109375 971.58148193359375 1077.5355224609375 1262.17578125 1316.7501220703125 1288.043701171875 1312.3594970703125 1258.1856689453125 1320.3167724609375 1267.3612060546875 914.71209716796875 1011.51837158203125 1439.959716796875 1704.5078125 1297.5267333984375 1007.73138427734375 915.2086181640625 818.5411376953125 737.1307373046875 695.77923583984375 628.46697998046875 370.42626953125 323.931396484375 329.1737060546875 144.860748291015625 0.24152515828609466553 -9999 -9999 -9999 -9999 -9999 
-9999 -9999 -9999 717.794677734375 776.06158447265625 778.3106689453125 839.81915283203125 899.78326416015625 872.02911376953125 902.72296142578125 983.87457275390625 1012.0723876953125 985.4136962890625 959.65118408203125 993.4364013671875 1128.5552978515625 1107.0958251953125 1092.4111328125 1151.1275634765625 1168.2811279296875 1217.536376953125 1194.3592529296875 984.318115234375 1036.636962890625 1241.1552734375 1374.0511474609375 1407.6710205078125 1245.237548828125 1001.3818359375 892.84820556640625 775.60888671875 612.769775390625 318.8232421875 156.848175048828125 126.08473968505859375 32.3056793212890625 0.26128315925598144531 -9999 -9999 -9999 -9999 -9999 -9999 
-9999 -9999 -9999 -9999 772.17462158203125 774.0777587890625 833.80426025390625 859.499267578125 847.22955322265625 886.96148681640625 920.1156005859375 943.12664794921875 902.989990234375 993.5855712890625 1082.047119140625 1101.1590576171875 1054.4935302734375 1049.22607421875 1014.767822265625 1198.1513671875 1180.4346923828125 1049.55810546875 1036.06689453125 935.0701904296875 -9999 1031.498291015625 1240.4114990234375 1288.8450927734375 902.7801513671875 638.74884033203125 502.1153564453125 634.325439453125 471.844573974609375 153.916839599609375 23.4190521240234375 1.8819000720977783203 -9999 -9999 -9999 -9999 -9999 -9999 -9999 
-9999 -9999 -9999 -9999 725.10260009765625 758.6959228515625 802.96514892578125 871.09259033203125 870.0845947265625 826.9764404296875 886.6729736328125 894.9892578125 865.3155517578125 922.91632080078125 993.36834716796875 1071.31640625 1014.97882080078125 1019.5478515625 978.54443359375 1002.6248779296875 996.9354248046875 994.63604736328125 1043.82421875 891.2030029296875 -9999 -9999 -9999 -9999 815.08782958984375 695.1815185546875 506.689239501953125 309.6796875 282.5673828125 62.462947845458984375 0.66178452968597412109 -9999 -9999 -9999 -9999 -9999 -9999 -9999 -9999 
-9999 -9999 -9999 -9999 -9999 735.005126953125 783.986572265625 818.46832275390625 855.01239013671875 820.91900634765625 882.22344970703125 898.00341796875 827.8590087890625 843.856201171875 961.72003173828125 994.24395751953125 1002.29486083984375 979.784423828125 934.44171142578125 821.448486328125 889.35821533203125 1010.742919921875 934.4361572265625 -9999 -9999 -9999 -9999 -9999 -9999 -9999 -9999 -9999 115.40631103515625 4.4998250007629394531 -9999 -9999 -9999 -9999 -9999 -9999 -9999 -9999 -9999 
-9999 -9999 -9999 -9999 -9999 -9999 806.07012939453125 768.682373046875 788.0418701171875 818.34613037109375 837.57427978515625 857.4906005859375 824.0865478515625 837.34619140625 843.2254638671875 873.057861328125 896.8017578125 936.80816650390625 933.34393310546875 825.27496337890625 815.57293701171875 890.02685546875 -9999 -9999 -9999 -9999 -9999 -9999 -9999 -9999 -9999 -9999 -9999 -9999 -9999 -9999 -9999 -9999 -9999 -9999 -9999 -9999 -9999 
-9999 -9999 -9999 -9999 -9999 -9999 712.92529296875 718.23779296875 740.2413330078125 760.920166015625 789.9212646484375 773.70196533203125 800.18896484375 871.76873779296875 810.53631591796875 809.6610107421875 817.77703857421875 818.94903564453125 823.59185791015625 766.28271484375 717.1248779296875 -9999 -9999 -9999 -9999 -9999 -9999 -9999 -9999 -9999 -9999 -9999 -9999 -9999 -9999 -9999 -9999 -9999 -9999 -9999 -9999 -9999 -9999 
-9999 -9999 -9999 -9999 -9999 -9999 670.52490234375 678.78948974609375 688.591064453125 704.9754638671875 709.303955078125 726.04730224609375 770.3917236328125 774.235107421875 744.27490234375 775.91455078125 782.430419921875 767.56719970703125 759.0380859375 716.50933837890625 592.33013916015625 -9999 -9999 -9999 -9999 -9999 -9999 -9999 -9999 -9999 -9999 -9999 -9999 -9999 -9999 -9999 -9999 -9999 -9999 -9999 -9999 -9999 -9999 
-9999 -9999 -9999 -9999 -9999 -9999 -9999 675.23553466796875 689.1248779296875 706.690185546875 707.98876953125 716.90106201171875 726.6253662109375 735.3692626953125 726.69537353515625 736.75543212890625 728.3218994140625 722.91265869140625 720.10296630859375 -9999 -9999 -9999 -9999 -9999 -9999 -9999 -9999 -9999 -9999 -9999 -9999 -9999 -9999 -9999 -9999 -9999 -9999 -9999 -9999 -9999 -9999 -9999 -9999 
