ncols        43
nrows        40
xllcorner    -3.550000000000
yllcorner    39.250000000000
cellsize     0.100000000000
NODATA_value -9999
-9999 -9999 -9999 -9999 -9999 -9999 -9999 -9999 -9999 -9999 -9999 -9999 -9999 -9999 -9999 -9999 1217 1217 1217 1217 1217 -9999 -9999 -9999 -9999 -9999 -9999 -9999 -9999 -9999 -9999 -9999 -9999 -9999 -9999 -9999 -9999 -9999 -9999 -9999 -9999 -9999 -9999 
-9999 -9999 -9999 -9999 -9999 -9999 -9999 -9999 -9999 -9999 -9999 -9999 -9999 -9999 -9999 -9999 1217 1217 1217 1217 1217 -9999 -9999 -9999 -9999 -9999 -9999 -9999 -9999 -9999 -9999 -9999 -9999 -9999 -9999 -9999 -9999 -9999 -9999 -9999 -9999 -9999 -9999 
-9999 -9999 -9999 -9999 -9999 -9999 -9999 -9999 -9999 -9999 -9999 -9999 -9999 -9999 -9999 1217 1217 1217 1217 1217 1217 1217 1217 1217 1217 1217 -9999 -9999 -9999 -9999 -9999 -9999 -9999 -9999 -9999 -9999 -9999 -9999 -9999 -9999 -9999 -9999 -9999 
-9999 -9999 -9999 -9999 -9999 -9999 -9999 -9999 -9999 -9999 -9999 -9999 -9999 1217 1217 1217 1217 1217 1217 1217 1217 1217 1217 1217 1217 1217 1217 1217 -9999 -9999 -9999 -9999 -9999 -9999 -9999 -9999 -9999 -9999 -9999 -9999 -9999 -9999 -9999 
-9999 -9999 -9999 -9999 -9999 -9999 -9999 -9999 -9999 -9999 -9999 -9999 -9999 1217 1217 1217 1217 1217 1217 1217 1217 1217 1217 1217 1217 1217 1217 1219 1219 1219 1219 1219 1219 -9999 -9999 -9999 -9999 -9999 -9999 -9999 -9999 -9999 -9999 
-9999 -9999 -9999 -9999 -9999 -9999 -9999 -9999 -9999 -9999 -9999 -9999 1217 1217 1217 1217 1217 1217 1217 1217 1217 1217 1217 1217 1217 1217 1285 1219 1219 1219 1219 1219 1219 1219 1219 1219 -9999 -9999 -9999 -9999 -9999 -9999 -9999 
-9999 -9999 -9999 -9999 -9999 1218 1218 1218 -9999 -9999 -9999 1217 1217 1217 1217 1217 1217 1217 1217 1217 1217 1217 1217 1217 1285 1285 1285 1219 1219 1219 1219 1219 1219 1219 1219 1219 1219 1219 1219 1219 1219 1219 1219 
-9999 -9999 -9999 -9999 -9999 1218 1218 1218 1218 -9999 -9999 1217 1217 1217 1217 1217 1217 1217 1217 1217 1217 1217 1217 1285 1217 1285 1285 1219 1219 1219 1219 1219 1219 1219 1219 1219 1219 1219 1219 1219 1219 1219 1219 
-9999 -9999 -9999 -9999 -9999 1218 1218 1218 1218 1218 1218 1218 1218 1218 1217 1217 1217 1217 1217 1217 1217 1217 1285 1285 1285 1285 1285 1219 1219 1219 1219 1219 1219 1219 1219 1219 1219 1219 1219 1219 1219 1219 1219 
-9999 -9999 -9999 -9999 1218 1218 1218 1218 1218 1218 1218 1218 1218 1218 1218 1218 1218 1217 1217 1217 1217 1217 1285 1285 1285 1285 1285 1219 1219 1219 1219 1219 1219 1219 1219 1219 1219 1219 1219 1219 1219 1219 1219 
-9999 -9999 -9999 -9999 1218 1218 1218 1218 1218 1218 1218 1218 1218 1218 1218 1218 1218 1218 1217 1217 1217 1217 1285 1285 1285 1285 1285 1285 1219 1219 1219 1219 1219 1219 1219 1219 1219 1219 1219 1219 1219 1219 1219 
-9999 -9999 -9999 -9999 -9999 1218 1218 1218 1218 1218 1293 1293 1293 1218 1218 1218 1218 1217 1217 1217 1217 1217 1285 1285 1285 1285 1285 1219 1219 1219 1219 1219 1219 1219 1219 1219 1219 1219 1219 1219 1219 1219 -9999 
-9999 -9999 -9999 -9999 -9999 -9999 1293 1293 1293 1293 1293 1293 1293 1293 1293 1218 1218 1217 1217 1217 1217 1217 1285 1285 1285 1285 1285 1219 1219 1219 1219 1219 1219 1219 1219 1219 1219 1219 1219 1219 1219 1219 -9999 
-9999 -9999 -9999 -9999 -9999 1293 1293 1293 1293 1293 1293 1293 1293 1293 1293 1293 1293 1285 1285 1285 1285 1285 1285 1285 1285 1285 1285 1285 1285 1219 1219 1219 1219 1219 1219 1219 1219 1219 1219 1219 1219 -9999 -9999 
-9999 -9999 1293 1293 1293 1293 1293 1293 1293 1293 1293 1293 1293 1293 1293 1293 1293 1285 1285 1285 1285 1285 1285 1285 1285 1285 1285 1285 1285 1285 1219 1219 1219 1219 1219 1219 1219 1219 1219 1219 -9999 -9999 -9999 
-9999 1293 1293 1293 1293 1293 1293 1293 1293 1293 1293 1293 1293 1293 1293 1293 1293 1293 1285 1285 1285 1285 1285 1285 1285 1285 1285 1285 1285 1285 1285 1219 1219 1219 1219 1219 1219 1219 1219 -9999 -9999 -9999 -9999 
1293 1293 1293 1293 1293 1293 1293 1293 1293 1293 1293 1293 1293 1293 1293 1293 1285 1285 1285 1285 1285 1285 1285 1285 1285 1285 1285 1285 1285 1285 1285 1285 1285 1219 1219 1219 1219 1219 1219 1219 -9999 -9999 -9999 
-9999 1293 1293 1293 1293 1293 1293 1293 1293 1293 1293 1293 1293 1293 1293 1293 1285 1285 1285 1285 1285 1285 1285 1285 1285 1285 1285 1285 1285 1285 1285 1285 1285 1285 1219 1219 1219 1219 1219 -9999 -9999 -9999 -9999 
-9999 -9999 1293 1293 1293 1293 1293 1293 1293 1293 1293 1293 1293 1293 1285 1285 1285 1285 1285 1285 1285 1285 1285 1285 1285 1285 1285 1285 1285 1285 1285 1285 1285 1285 1285 1219 1219 1219 1285 -9999 -9999 -9999 -9999 
-9999 -9999 -9999 1299 1293 1293 1293 1293 1293 1293 1293 1293 1293 1293 1285 1285 1285 1285 1285 1285 1285 1285 1285 1285 1285 1285 1285 1285 1285 1285 1220 1285 1285 1285 1285 1285 1285 1285 1285 -9999 -9999 -9999 -9999 
-9999 1299 1299 1299 1299 1299 1299 1299 1299 1293 1293 1293 1293 1293 1285 1285 1285 1285 1285 1285 1285 1285 1285 1285 1285 1285 1285 1285 1285 1220 1220 1220 1220 1285 1285 1285 1285 1285 1285 -9999 -9999 -9999 -9999 
-9999 1299 1299 1299 1299 1299 1299 1299 1299 1299 1299 1293 1293 1299 1299 1299 1299 1285 1285 1285 1285 1285 1285 1220 1220 1220 1220 1220 1220 1220 1220 1220 1220 1220 1220 1285 1285 1285 -9999 -9999 -9999 -9999 -9999 
-9999 1299 1299 1299 1299 1299 1299 1299 1299 1299 1299 1299 1299 1299 1299 1299 1299 1299 1299 1285 1285 1220 1220 1220 1220 1220 1220 1220 1220 1220 1220 1220 1220 1220 1220 1220 1220 1220 -9999 -9999 -9999 -9999 -9999 
-9999 1299 1299 1299 1299 1299 1299 1299 1299 1299 1299 1299 1299 1299 1299 1299 1299 1299 1299 1220 1220 1220 1220 1220 1220 1220 1220 1220 1220 1220 1220 1220 1220 1220 1220 1220 1220 1220 -9999 -9999 -9999 -9999 -9999 
-9999 1299 1299 1299 1299 1299 1299 1299 1299 1299 1299 1299 1299 1299 1299 1299 1299 1299 1299 1299 1220 1220 1220 1220 1220 1220 1220 1220 1220 1220 1220 1220 1220 1220 1220 1220 1220 1220 -9999 -9999 -9999 -9999 -9999 
-9999 1299 1299 1299 1299 1299 1299 1299 1299 1299 1299 1299 1299 1299 1299 1299 1299 1299 1299 1299 1220 1220 1220 1220 1220 1220 1220 1220 1220 1220 1220 1220 1220 1347 1347 1347 1347 1347 -9999 -9999 -9999 -9999 -9999 
-9999 -9999 1299 1299 1299 1299 1299 1299 1299 1299 1299 1299 1298 1298 1298 1299 1299 1299 1299 1299 1220 1220 1220 1220 1220 1220 1220 1220 1220 1220 1220 1220 1347 1347 1347 1347 1347 1347 1347 -9999 -9999 -9999 -9999 
-9999 -9999 -9999 1299 1299 1299 1299 1299 1299 1299 1299 1298 1298 1298 1298 1298 1298 1299 1220 1220 1220 1220 1220 1220 1220 1220 1220 1220 1220 1220 1220 1220 1347 1347 1347 1347 1347 1347 1347 1347 -9999 -9999 -9999 
-9999 -9999 -9999 -9999 1299 1299 1299 1299 1298 1298 1298 1298 1298 1298 1298 1298 1298 1220 1220 1220 1220 1220 1220 1220 1220 1220 1220 1220 1220 1220 1220 1220 1347 1347 1347 1347 1347 1347 1347 1347 -9999 -9999 -9999 
-9999 -9999 -9999 -9999 1299 1299 1299 1298 1298 1298 1298 1298 1298 1298 1298 1298 1298 1298 1298 1220 1220 1220 1220 1220 1220 1220 1220 1220 1220 1220 1220 1347 1347 1347 1347 1347 1347 1347 1347 -9999 -9999 -9999 -9999 
-9999 -9999 -9999 -9999 -9999 1299 1299 1298 1298 1298 1298 1298 1298 1298 1298 1298 1298 1298 1298 1298 1220 1220 1220 1220 1220 1220 1220 1220 1220 1220 1347 1347 1347 1347 1347 1347 1347 1347 -9999 -9999 -9999 -9999 -9999 
-9999 -9999 -9999 -9999 1298 1298 1298 1298 1298 1298 1298 1298 1298 1298 1298 1298 1298 1298 1298 1298 1298 -9999 -9999 -9999 1220 1220 1220 1220 1220 1347 1347 1347 1347 1347 1347 1347 1347 -9999 -9999 -9999 -9999 -9999 -9999 
-9999 -9999 -9999 -9999 1298 1298 1298 1298 1298 1298 1298 1298 1298 1298 1298 1298 1298 1298 1298 1298 1298 1298 1298 1298 1220 1220 1220 1220 1347 1347 1347 1347 1347 1347 1347 1347 -9999 -9999 -9999 -9999 -9999 -9999 -9999 
-9999 -9999 -9999 -9999 1298 1298 1298 1298 1298 1298 1298 1298 1298 1298 1298 1298 1298 1298 1298 1298 1298 1298 1298 1298 -9999 -9999 1220 1347 1347 1347 1347 1347 1347 1347 1347 -9999 -9999 -9999 -9999 -9999 -9999 -9999 -9999 
-9999 -9999 -9999 -9999 -9999 1298 1298 1298 1298 1298 1298 1298 1298 1298 1298 1298 1298 1298 1298 1298 1298 1298 1298 -9999 -9999 -9999 -9999 -9999 -9999 1347 1347 1347 1347 1347 -9999 -9999 -9999 -9999 -9999 -9999 -9999 -9999 -9999 
-9999 -9999 -9999 -9999 -9999 -9999 1298 1298 1298 1298 1298 1298 1298 1298 1298 1298 1298 1298 1298 1298 1298 1298 -9999 -9999 -9999 -9999 -9999 -9999 -9999 -9999 -9999 -9999 -9999 -9999 -9999 -9999 -9999 -9999 -9999 -9999 -9999 -9999 -9999 
-9999 -9999 -9999 -9999 -9999 -9999 1298 1298 1298 1298 1298 1298 1298 1298 1298 1298 1298 1298 1298 1298 1298 -9999 -9999 -9999 -9999 -9999 -9999 -9999 -9999 -9999 -9999 -9999 -9999 -9999 -9999 -9999 -9999 -9999 -9999 -9999 -9999 -9999 -9999 
-9999 -9999 -9999 -9999 -9999 -9999 1298 1298 1298 1298 1298 1298 1298 1298 1298 1298 1298 1298 1298 1298 -9999 -9999 -9999 -9999 -9999 -9999 -9999 -9999 -9999 -9999 -9999 -9999 -9999 -9999 -9999 -9999 -9999 -9999 -9999 -9999 -9999 -9999 -9999 
-9999 -9999 -9999 -9999 -9999 -9999 -9999 1298 1298 1298 1298 1298 1298 1298 1298 1298 1298 1298 1298 1298 -9999 -9999 -9999 -9999 -9999 -9999 -9999 -9999 -9999 -9999 -9999 -9999 -9999 -9999 -9999 -9999 -9999 -9999 -9999 -9999 -9999 -9999 -9999 
-9999 -9999 -9999 -9999 -9999 -9999 -9999 -9999 -9999 -9999 -9999 1298 1298 1298 1298 -9999 -9999 1298 -9999 -9999 -9999 -9999 -9999 -9999 -9999 -9999 -9999 -9999 -9999 -9999 -9999 -9999 -9999 -9999 -9999 -9999 -9999 -9999 -9999 -9999 -9999 -9999 -9999 
