ncols        43
nrows        40
xllcorner    -3.550000000010
yllcorner    39.250000000003
cellsize     0.100000000000
NODATA_value nan
nan nan nan nan nan nan nan nan nan nan nan nan nan nan nan nan 36.67205810546875 36.947296142578125 36.0023193359375 33.682506561279296875 27.7102813720703125 41.899692535400390625 nan nan nan nan nan nan nan nan nan nan nan nan nan nan nan nan nan nan nan nan nan 
nan nan nan nan nan nan nan nan nan nan nan nan nan nan nan 35.637401580810546875 34.512302398681640625 38.358219146728515625 32.821598052978515625 34.26757049560546875 31.548875808715820313 36.411334991455078125 40.044284820556640625 nan nan nan nan nan nan nan nan nan nan nan nan nan nan nan nan nan nan nan nan 
nan nan nan nan nan nan nan nan nan nan nan nan nan nan 33.697292327880859375 28.421863555908203125 19.212011337280273438 22.468263626098632813 16.486330032348632813 25.458827972412109375 33.3360443115234375 28.531429290771484375 27.754261016845703125 31.208196640014648438 32.430149078369140625 40.7562408447265625 45.056262969970703125 40.15863800048828125 41.909847259521484375 nan nan nan nan nan nan nan nan nan nan nan nan nan nan 
nan nan nan nan nan nan nan nan nan nan nan nan 23.013950347900390625 23.598123550415039063 18.86456298828125 24.01512908935546875 22.524248123168945313 23.912593841552734375 19.45339202880859375 25.128635406494140625 24.905881881713867188 25.813869476318359375 30.709421157836914063 21.265783309936523438 26.874876022338867188 29.981664657592773438 40.5021820068359375 37.62871551513671875 46.030384063720703125 51.3087921142578125 nan nan nan nan nan nan nan nan nan nan nan nan nan 
nan nan nan nan nan nan nan nan nan nan nan nan 15.501178741455078125 11.505948066711425781 15.968741416931152344 19.400638580322265625 19.803264617919921875 16.574850082397460938 6.3277769088745117188 10.127039909362792969 17.928768157958984375 18.30722808837890625 24.7884063720703125 26.859342575073242188 29.818918228149414063 33.494724273681640625 38.90691375732421875 43.856540679931640625 47.51985931396484375 47.19409942626953125 46.437450408935546875 39.54378509521484375 52.0382080078125 49.689449310302734375 58.27652740478515625 nan nan nan nan nan nan nan nan 
nan nan nan nan nan nan nan nan nan nan nan 18.7527008056640625 19.659387588500976563 16.189624786376953125 16.877817153930664063 11.8544921875 17.587827682495117188 14.940399169921875 13.794271469116210938 17.8217620849609375 19.260721206665039063 20.282886505126953125 9.5814981460571289063 23.601016998291015625 23.644781112670898438 29.321483612060546875 28.757009506225585938 34.60381317138671875 34.509609222412109375 36.5415191650390625 46.65712738037109375 43.26859283447265625 44.98867034912109375 51.71741485595703125 55.507617950439453125 53.0672454833984375 57.920597076416015625 59.0680084228515625 55.64743804931640625 59.808025360107421875 54.731029510498046875 57.03623199462890625 51.8979644775390625 
nan nan nan nan 13.561681747436523438 11.282623291015625 10.743268013000488281 15.873880386352539063 17.090068817138671875 nan nan 20.744089126586914063 18.985567092895507813 10.050816535949707031 12.294000625610351563 9.6872758865356445313 7.5303792953491210938 6.2272334098815917969 9.93128204345703125 14.176085472106933594 19.999647140502929688 16.687536239624023438 13.890873908996582031 19.048425674438476563 19.280187606811523438 18.657262802124023438 12.779225349426269531 15.754840850830078125 22.755456924438476563 23.699249267578125 25.30461883544921875 31.635961532592773438 34.2537384033203125 43.5997772216796875 46.158245086669921875 40.6599578857421875 53.363162994384765625 52.656948089599609375 50.0218048095703125 48.12957763671875 48.89282989501953125 47.933074951171875 51.534618377685546875 
nan nan nan nan 9.350215911865234375 5.7612614631652832031 2.562358856201171875 6.156848907470703125 7.6083989143371582031 9.0259027481079101563 9.4238529205322265625 6.8120794296264648438 7.4377055168151855469 7.2578692436218261719 6.3199200630187988281 5.66413116455078125 7.3852300643920898438 5.9978394508361816406 5.6897454261779785156 8.8050184249877929688 18.934770584106445313 16.841005325317382813 15.034138679504394531 14.843137741088867188 18.473417282104492188 21.689846038818359375 23.341291427612304688 17.238065719604492188 25.446584701538085938 23.069164276123046875 24.673137664794921875 15.107710838317871094 26.935522079467773438 36.04083251953125 40.781757354736328125 36.91013336181640625 35.70738983154296875 45.2960205078125 52.756072998046875 47.776065826416015625 34.355503082275390625 36.00528717041015625 42.7962646484375 
nan nan nan nan 16.361537933349609375 16.234035491943359375 11.654850959777832031 6.5790262222290039063 7.9515466690063476563 11.915371894836425781 6.9887342453002929688 7.4499225616455078125 7.1499719619750976563 6.3625812530517578125 6.9838500022888183594 5.6728067398071289063 6.363948822021484375 7.1740441322326660156 4.3333959579467773438 3.6321694850921630859 8.96541595458984375 5.9912042617797851563 8.2142505645751953125 19.057952880859375 20.065792083740234375 23.115070343017578125 24.839262008666992188 29.388856887817382813 25.560358047485351563 26.559228897094726563 21.408962249755859375 16.9197540283203125 19.747896194458007813 21.518095016479492188 24.6255950927734375 26.331754684448242188 18.069498062133789063 20.94918060302734375 22.763517379760742188 36.985492706298828125 37.46453094482421875 34.70670318603515625 32.001220703125 
nan nan nan nan 32.414196014404296875 35.33246612548828125 35.7226104736328125 25.594095230102539063 26.389501571655273438 28.534360885620117188 24.22396087646484375 28.084747314453125 22.719432830810546875 15.009810447692871094 6.7533297538757324219 4.6946191787719726563 3.9879391193389892578 4.7981867790222167969 3.9720349311828613281 4.4693303108215332031 4.7362036705017089844 4.5144038200378417969 4.2811784744262695313 8.7872333526611328125 12.499027252197265625 15.864632606506347656 19.602228164672851563 20.606952667236328125 16.119714736938476563 16.514673233032226563 29.446763992309570313 33.298633575439453125 35.33249664306640625 29.692691802978515625 31.406423568725585938 31.8787689208984375 16.034030914306640625 22.31998443603515625 23.341180801391601563 28.90234375 26.576068878173828125 28.429033279418945313 26.39520263671875 
nan nan nan nan 37.135135650634765625 45.398532867431640625 46.166469573974609375 43.47196197509765625 25.790586471557617188 24.924917221069335938 24.1013031005859375 26.187297821044921875 24.822969436645507813 25.713756561279296875 14.717650413513183594 12.784613609313964844 5.1278262138366699219 2.0247118473052978516 2.6601521968841552734 6.065155029296875 3.7819695472717285156 4.4582500457763671875 2.4574847221374511719 1.9535251855850219727 6.0695924758911132813 13.768472671508789063 14.873952865600585938 12.99387359619140625 8.9685888290405273438 3.1708216667175292969 4.2068691253662109375 9.7267827987670898438 16.049077987670898438 12.989534378051757813 18.935924530029296875 23.452785491943359375 18.375799179077148438 20.339084625244140625 20.188001632690429688 14.773958206176757813 17.086071014404296875 16.985120773315429688 21.860687255859375 
nan nan nan nan 20.28713226318359375 33.334056854248046875 44.17081451416015625 33.3897857666015625 28.52867889404296875 21.085109710693359375 25.617551803588867188 22.749950408935546875 27.2082977294921875 25.502170562744140625 21.501909255981445313 14.822862625122070313 9.9367914199829101563 2.7937381267547607422 3.3816881179809570313 4.7855296134948730469 9.167926788330078125 10.184772491455078125 7.8489532470703125 1.6763830184936523438 3.4923295974731445313 3.3598892688751220703 4.4402308464050292969 4.5591664314270019531 4.0567073822021484375 5.2588167190551757813 5.0758938789367675781 2.10509490966796875 4.9949779510498046875 5.3785805702209472656 7.8874912261962890625 9.9824161529541015625 9.3352537155151367188 10.867310523986816406 21.231176376342773438 15.150999069213867188 13.358493804931640625 20.509418487548828125 27.28195953369140625 
nan nan nan nan nan 18.803508758544921875 24.960004806518554688 23.352052688598632813 27.720907211303710938 22.93643951416015625 17.181516647338867188 19.147237777709960938 16.462856292724609375 20.568582534790039063 25.105375289916992188 19.47920989990234375 14.169178009033203125 9.172611236572265625 3.303012847900390625 3.2867307662963867188 2.6856205463409423828 7.6346483230590820313 7.2812929153442382813 2.7429385185241699219 4.5183796882629394531 13.845191001892089844 14.5337066650390625 4.8088126182556152344 3.7669758796691894531 4.1218461990356445313 3.1692500114440917969 2.6784422397613525391 5.2525043487548828125 4.3673062324523925781 4.6568770408630371094 5.4471158981323242188 5.5735902786254882813 5.9720468521118164063 12.064046859741210938 13.733745574951171875 11.336155891418457031 23.794879913330078125 22.170886993408203125 
nan nan nan nan 13.478447914123535156 13.845876693725585938 12.8660736083984375 14.405767440795898438 14.258311271667480469 12.709241867065429688 10.329652786254882813 6.9132604598999023438 9.7776584625244140625 16.059385299682617188 16.83940887451171875 14.070006370544433594 13.073332786560058594 12.024058341979980469 7.484832763671875 9.4842920303344726563 4.976375579833984375 2.2688703536987304688 1.6562153100967407227 4.0620388984680175781 10.919594764709472656 11.860482215881347656 8.0045032501220703125 4.5925960540771484375 3.6469569206237792969 8.474620819091796875 5.1813974380493164063 3.3505280017852783203 3.6496520042419433594 4.1602888107299804688 5.6128497123718261719 5.7566466331481933594 2.7340867519378662109 5.0053396224975585938 6.3374943733215332031 8.2304840087890625 12.363725662231445313 21.657337188720703125 nan 
nan 6.0969214439392089844 8.9112453460693359375 10.848939895629882813 12.357675552368164063 11.805449485778808594 9.689563751220703125 7.1677231788635253906 7.5426168441772460938 9.0090160369873046875 5.8496727943420410156 5.4991817474365234375 7.3983068466186523438 10.204706192016601563 10.051806449890136719 9.8827009201049804688 20.080209732055664063 26.810701370239257813 12.461530685424804688 9.69210052490234375 4.8785429000854492188 3.8112494945526123047 3.0985360145568847656 2.4410049915313720703 7.3093395233154296875 8.029117584228515625 4.9596242904663085938 3.2121322154998779297 4.9583234786987304688 6.6883935928344726563 10.920645713806152344 3.7869622707366943359 2.7400505542755126953 2.9513897895812988281 4.94577789306640625 4.717716217041015625 2.9278941154479980469 5.2640705108642578125 3.3325481414794921875 2.3720266819000244141 3.8554880619049072266 5.7632660865783691406 nan 
5.1995997428894042969 6.3433394432067871094 5.3853497505187988281 4.9829392433166503906 7.2514157295227050781 9.4795932769775390625 8.5471944808959960938 6.3522019386291503906 6.9220452308654785156 6.0550365447998046875 8.360904693603515625 4.6692519187927246094 3.1935007572174072266 5.3088078498840332031 4.2207040786743164063 6.5398726463317871094 10.866605758666992188 26.915384292602539063 27.860933303833007813 15.458782196044921875 12.020544052124023438 3.8144941329956054688 5.1161875724792480469 3.7715024948120117188 1.697150111198425293 2.6123557090759277344 4.2581334114074707031 1.9825953245162963867 5.6371550559997558594 5.1406707763671875 8.8625841140747070313 11.66986846923828125 6.2328104972839355469 6.1616244316101074219 7.0868592262268066406 5.9690995216369628906 6.2922420501708984375 3.5906491279602050781 3.0008296966552734375 3.2574281692504882813 nan nan nan 
7.3624491691589355469 9.55362701416015625 6.8032898902893066406 5.0493059158325195313 6.794403076171875 7.7116193771362304688 5.9155764579772949219 4.25185394287109375 4.0062785148620605469 4.79126739501953125 6.3178715705871582031 3.7597174644470214844 3.489955902099609375 4.4610137939453125 7.0559945106506347656 9.992534637451171875 12.000338554382324219 18.032354354858398438 17.643720626831054688 13.022347450256347656 13.608012199401855469 6.6887865066528320313 4.167964935302734375 5.4614729881286621094 6.7746376991271972656 6.3357281684875488281 5.9552717208862304688 3.3415131568908691406 4.4499726295471191406 6.7814669609069824219 4.4359416961669921875 4.5650229454040527344 6.7025904655456542969 5.1482229232788085938 4.9162082672119140625 6.7550554275512695313 4.5692758560180664063 6.6309232711791992188 6.7535586357116699219 4.6430568695068359375 nan nan nan 
5.9586586952209472656 7.5164279937744140625 8.667125701904296875 8.1253442764282226563 6.6348485946655273438 6.4070525169372558594 5.5976247787475585938 6.2927012443542480469 4.6171116828918457031 4.5735936164855957031 4.4077215194702148438 6.5037140846252441406 7.1856985092163085938 7.9534249305725097656 10.858850479125976563 10.177117347717285156 15.024748802185058594 11.728665351867675781 22.583017349243164063 21.357860565185546875 16.000514984130859375 7.3277544975280761719 1.9879915714263916016 4.014095306396484375 7.274242401123046875 10.511369705200195313 9.5781183242797851563 8.1943960189819335938 6.9183173179626464844 3.3811006546020507813 3.2004907131195068359 4.6143388748168945313 4.1824030876159667969 2.8282976150512695313 3.4701147079467773438 6.6899838447570800781 4.0745463371276855469 3.4816241264343261719 9.5591630935668945313 6.18175506591796875 nan nan nan 
nan 4.0588693618774414063 8.4799280166625976563 6.9742021560668945313 11.270200729370117188 9.862213134765625 8.6395473480224609375 9.1620044708251953125 9.7690153121948242188 8.0569915771484375 4.2804322242736816406 4.5948061943054199219 8.3340015411376953125 5.7119002342224121094 7.5530099868774414063 11.433382987976074219 12.582594871520996094 9.6961259841918945313 12.012539863586425781 20.553106307983398438 21.651235580444335938 22.427423477172851563 7.6619248390197753906 2.8391001224517822266 7.022891998291015625 9.1884288787841796875 10.043271064758300781 5.5336084365844726563 5.3606982231140136719 3.6174731254577636719 3.5511145591735839844 5.873394012451171875 4.7350821495056152344 3.4237918853759765625 3.2672147750854492188 6.1762561798095703125 13.355012893676757813 13.800591468811035156 15.087005615234375 10.181737899780273438 nan nan nan 
nan nan 15.24350738525390625 11.196321487426757813 11.965423583984375 11.544733047485351563 7.8076915740966796875 7.0733470916748046875 4.5927534103393554688 5.2187800407409667969 6.09513092041015625 8.5014095306396484375 7.3793478012084960938 6.9738073348999023438 6.6780667304992675781 5.9352502822875976563 13.297983169555664063 16.252061843872070313 9.3259229660034179688 10.73737335205078125 12.474059104919433594 21.324693679809570313 17.747606277465820313 7.2442040443420410156 11.051371574401855469 7.5331578254699707031 7.4912085533142089844 6.06218719482421875 3.3861131668090820313 3.1318309307098388672 4.6865611076354980469 6.9342284202575683594 8.9168939590454101563 7.4222002029418945313 6.189971923828125 6.3964571952819824219 7.404376983642578125 10.02654266357421875 14.439222335815429688 18.828683853149414063 nan nan nan 
23.120306015014648438 33.53289794921875 22.655914306640625 20.077478408813476563 17.688587188720703125 17.135038375854492188 11.93001556396484375 12.100687026977539063 10.720591545104980469 7.9959816932678222656 7.6833319664001464844 15.516177177429199219 14.749516487121582031 8.6870403289794921875 8.2454328536987304688 7.9397559165954589844 12.056438446044921875 14.901865005493164063 14.870677947998046875 13.670229911804199219 13.637707710266113281 4.7061038017272949219 7.502330780029296875 18.227441787719726563 15.492877006530761719 7.7189249992370605469 5.4412541389465332031 6.1790232658386230469 5.4776735305786132813 2.4589400291442871094 3.7057907581329345703 5.5804657936096191406 5.3195490837097167969 6.5371356010437011719 5.9879574775695800781 6.8325371742248535156 7.7529854774475097656 9.40555572509765625 15.050803184509277344 18.81598663330078125 nan nan nan 
27.104585647583007813 28.280130386352539063 21.882596969604492188 24.000240325927734375 14.138401031494140625 14.081708908081054688 14.350111007690429688 13.134396553039550781 10.960268974304199219 10.409390449523925781 9.048168182373046875 9.9746551513671875 7.1084995269775390625 7.9991879463195800781 11.020588874816894531 16.12122344970703125 12.527672767639160156 11.39227294921875 11.394515037536621094 11.228443145751953125 15.26764678955078125 10.383676528930664063 4.5814900398254394531 11.470734596252441406 15.786956787109375 6.7964153289794921875 7.6525578498840332031 7.3542618751525878906 10.405402183532714844 12.943891525268554688 10.418165206909179688 4.6685681343078613281 3.4661946296691894531 6.7480607032775878906 10.7336578369140625 11.75519561767578125 10.578194618225097656 11.212943077087402344 9.83028411865234375 nan nan nan nan 
nan 33.05091094970703125 20.359466552734375 18.750499725341796875 14.976396560668945313 10.779431343078613281 9.8180084228515625 13.502332687377929688 12.417334556579589844 6.6325287818908691406 6.6720018386840820313 8.4549474716186523438 13.097132682800292969 9.7352275848388671875 11.559247970581054688 10.702574729919433594 6.3566503524780273438 5.4608402252197265625 8.3801012039184570313 2.6443076133728027344 6.7488079071044921875 10.423779487609863281 10.6641845703125 8.8645381927490234375 15.343275070190429688 14.013804435729980469 11.561191558837890625 9.0193548202514648438 12.917317390441894531 14.0031280517578125 12.169286727905273438 6.4130434989929199219 4.5342321395874023438 4.0489649772644042969 9.8342885971069335938 9.0939922332763671875 10.719326019287109375 10.383512496948242188 14.622006416320800781 nan nan nan nan 
19.164354324340820313 15.765690803527832031 11.048465728759765625 11.257807731628417969 10.568108558654785156 9.6788682937622070313 12.347015380859375 8.08941650390625 5.0558543205261230469 8.7892246246337890625 9.7284364700317382813 7.7253818511962890625 17.361175537109375 15.080273628234863281 11.609285354614257813 12.204187393188476563 9.98828887939453125 6.5778784751892089844 4.4260935783386230469 3.7596406936645507813 2.5883986949920654297 7.3838286399841308594 4.7324271202087402344 10.543864250183105469 10.975820541381835938 10.715427398681640625 14.383687019348144531 16.82364654541015625 16.534765243530273438 13.095554351806640625 9.53995513916015625 12.22228240966796875 12.204446792602539063 14.644262313842773438 13.268336296081542969 14.144693374633789063 14.09456634521484375 9.6911287307739257813 24.514652252197265625 nan nan nan nan 
7.4279928207397460938 5.8826556205749511719 6.1436400413513183594 6.0858712196350097656 6.5127444267272949219 8.7274179458618164063 5.0475230216979980469 10.865443229675292969 9.0975675582885742188 11.533425331115722656 11.111310005187988281 15.1153411865234375 22.76721954345703125 21.291149139404296875 21.918399810791015625 15.650823593139648438 10.723787307739257813 7.3298621177673339844 8.488620758056640625 9.1476488113403320313 5.2583603858947753906 3.1271851062774658203 4.7038822174072265625 10.415667533874511719 10.065006256103515625 13.453736305236816406 17.028955459594726563 21.220180511474609375 18.33130645751953125 16.790430068969726563 17.318719863891601563 18.528917312622070313 17.766265869140625 14.979679107666015625 17.667705535888671875 15.965185165405273438 24.98354339599609375 31.889385223388671875 34.946277618408203125 nan nan nan nan 
3.213855743408203125 6.2570052146911621094 5.5939607620239257813 4.9375514984130859375 11.5093841552734375 8.6722097396850585938 12.908358573913574219 8.9586591720581054688 15.002748489379882813 12.49889373779296875 13.976836204528808594 19.228258132934570313 8.7826509475708007813 5.1253991127014160156 12.040241241455078125 18.971057891845703125 13.891463279724121094 9.8103885650634765625 11.734761238098144531 8.7326269149780273438 11.960402488708496094 5.2851424217224121094 7.1399316787719726563 8.9263153076171875 4.360408782958984375 5.9025015830993652344 9.785175323486328125 11.615255355834960938 21.886926651000976563 29.301609039306640625 21.949495315551757813 23.904546737670898438 17.63388824462890625 18.418802261352539063 21.506532669067382813 24.933528900146484375 25.999370574951171875 32.058788299560546875 31.905719757080078125 nan nan nan nan 
nan 5.9346022605895996094 4.0908308029174804688 6.0228605270385742188 8.7578496932983398438 16.471820831298828125 11.113453865051269531 7.0062832832336425781 15.357371330261230469 18.232400894165039063 12.828159332275390625 11.926798820495605469 16.208812713623046875 13.741657257080078125 13.523977279663085938 19.335153579711914063 19.0825958251953125 15.424704551696777344 16.20172882080078125 8.9195384979248046875 7.7309656143188476563 10.399788856506347656 2.1564607620239257813 10.411965370178222656 5.0224013328552246094 6.4439425468444824219 12.63173675537109375 10.169964790344238281 16.629026412963867188 18.861570358276367188 22.7994842529296875 22.1291351318359375 20.576366424560546875 19.677021026611328125 14.454847335815429688 22.005779266357421875 31.94835662841796875 22.828975677490234375 4.1318521499633789063 3.9853980541229248047 18.187740325927734375 nan nan 
nan nan 7.7436509132385253906 4.7947134971618652344 11.858503341674804688 13.98838043212890625 10.075262069702148438 17.097703933715820313 11.890161514282226563 9.9893960952758789063 8.5892925262451171875 12.851193428039550781 18.339315414428710938 22.6248016357421875 16.338092803955078125 15.516209602355957031 21.26828765869140625 14.910400390625 15.072833061218261719 16.967245101928710938 13.394199371337890625 8.3060827255249023438 3.3658506870269775391 5.3792233467102050781 7.9614930152893066406 11.277544975280761719 11.968442916870117188 8.2505617141723632813 14.122552871704101563 14.2341461181640625 17.3067169189453125 21.430652618408203125 20.611192703247070313 19.8758697509765625 17.066873550415039063 23.45395660400390625 18.786346435546875 8.0506315231323242188 10.333603858947753906 2.9103481769561767578 0.96200501918792724609 nan nan 
nan nan nan 6.7655644416809082031 11.532382965087890625 6.2899503707885742188 15.777960777282714844 19.808719635009765625 5.3870348930358886719 10.575860023498535156 7.8006806373596191406 8.7910470962524414063 12.107600212097167969 13.252858161926269531 20.187374114990234375 22.726247787475585938 21.605434417724609375 19.337741851806640625 14.342203140258789063 18.277669906616210938 17.550844192504882813 16.818389892578125 8.6822233200073242188 5.4250149726867675781 10.605327606201171875 12.930613517761230469 15.483118057250976563 14.812949180603027344 18.529468536376953125 16.924993515014648438 13.556704521179199219 19.53903961181640625 21.634981155395507813 22.476957321166992188 21.403650283813476563 16.834703445434570313 12.063052177429199219 14.996979713439941406 14.956701278686523438 4.8723745346069335938 0.015372735448181629181 nan nan 
nan nan nan 11.245812416076660156 5.98120880126953125 7.2343950271606445313 9.2075519561767578125 15.000943183898925781 6.8598942756652832031 9.4167966842651367188 9.9259481430053710938 8.5012979507446289063 8.7236108779907226563 10.850354194641113281 16.031925201416015625 15.59537506103515625 12.825509071350097656 25.073154449462890625 19.1352081298828125 15.421078681945800781 14.217001914978027344 14.211160659790039063 12.002346992492675781 11.708105087280273438 9.5759859085083007813 11.974268913269042969 11.971120834350585938 15.064347267150878906 18.61688995361328125 23.979444503784179688 22.026979446411132813 20.652013778686523438 18.849630355834960938 30.105255126953125 18.968450546264648438 21.40843963623046875 13.594594955444335938 11.811420440673828125 17.212066650390625 1.8395361900329589844 nan nan nan 
nan nan nan nan 6.1659846305847167969 7.7239832878112792969 10.129965782165527344 9.4814891815185546875 8.9875812530517578125 11.116099357604980469 10.132334709167480469 10.103219985961914063 9.69959259033203125 12.327062606811523438 13.2017059326171875 16.435428619384765625 15.914152145385742188 21.130105972290039063 20.183801651000976563 22.451871871948242188 17.779937744140625 20.781284332275390625 16.498834609985351563 19.748384475708007813 17.53487396240234375 17.138967514038085938 7.7715406417846679688 7.2786302566528320313 14.260066032409667969 18.98805999755859375 18.362030029296875 31.197093963623046875 30.054615020751953125 17.124835968017578125 9.6491031646728515625 6.7104892730712890625 11.086822509765625 4.1285824775695800781 0.27191469073295593262 nan nan nan nan 
nan nan nan 6.4600319862365722656 4.5334253311157226563 7.6582279205322265625 10.096581459045410156 7.3882470130920410156 9.0386142730712890625 11.162786483764648438 12.686547279357910156 16.584930419921875 11.976053237915039063 7.7816286087036132813 16.438137054443359375 12.012510299682617188 8.89191436767578125 18.073390960693359375 16.569993972778320313 19.158100128173828125 21.103199005126953125 19.212202072143554688 18.219434738159179688 17.568691253662109375 22.961277008056640625 20.903806686401367188 18.029483795166015625 10.197852134704589844 10.974829673767089844 22.367441177368164063 22.9326019287109375 26.611318588256835938 24.603969573974609375 16.834180831909179688 17.58684539794921875 17.926397323608398438 15.900514602661132813 0.0675048828125 nan nan nan nan nan 
nan nan nan 5.2566599845886230469 4.4000921249389648438 4.5370917320251464844 5.5671067237854003906 5.9313268661499023438 4.0177001953125 7.1617875099182128906 10.436339378356933594 10.098048210144042969 10.992616653442382813 8.4832210540771484375 6.8418836593627929688 9.3896970748901367188 9.3282232284545898438 10.79229736328125 16.181819915771484375 16.667144775390625 12.355277061462402344 15.012715339660644531 15.124917984008789063 23.084255218505859375 25.949176788330078125 21.067232131958007813 21.218286514282226563 14.293446540832519531 8.4466152191162109375 22.753688812255859375 24.502132415771484375 29.897907257080078125 18.236860275268554688 7.6367626190185546875 7.8013682365417480469 3.9949021339416503906 0.054229166358709335327 nan nan nan nan nan nan 
nan nan nan nan 2.2734045982360839844 2.999248504638671875 3.4696760177612304688 6.5554380416870117188 3.7612118721008300781 6.2058405876159667969 7.0535831451416015625 7.423793792724609375 8.9437437057495117188 10.690274238586425781 8.8153562545776367188 7.1555457115173339844 7.7453007698059082031 7.2621059417724609375 15.092489242553710938 19.3242950439453125 10.382657051086425781 8.448246002197265625 9.6770954132080078125 23.675806045532226563 nan 13.402602195739746094 17.37245941162109375 24.746759414672851563 20.903472900390625 13.015364646911621094 14.794442176818847656 32.259593963623046875 31.516702651977539063 11.665255546569824219 0.93035328388214111328 0.19758135080337524414 nan nan nan nan nan nan nan 
nan nan nan nan 1.5804494619369506836 2.1077871322631835938 4.3810553550720214844 5.4415259361267089844 5.0724706649780273438 4.0455632209777832031 5.2909607887268066406 5.6644024848937988281 7.576385498046875 6.8395843505859375 8.9044332504272460938 6.8546352386474609375 8.8658266067504882813 12.156170845031738281 11.820271492004394531 19.065385818481445313 17.345617294311523438 12.623799324035644531 15.383787155151367188 18.26190185546875 nan nan nan nan 15.054010391235351563 19.387304306030273438 17.22232818603515625 14.425827980041503906 19.283624649047851563 6.4717860221862792969 0.12785190343856811523 nan nan nan nan nan nan nan nan 
nan nan nan nan nan 2.0524697303771972656 3.2411108016967773438 4.102573394775390625 6.3058800697326660156 6.3456330299377441406 4.7892627716064453125 4.8140635490417480469 4.2881221771240234375 5.4392552375793457031 7.6331810951232910156 5.2856602668762207031 5.0585637092590332031 7.3369512557983398438 11.331851005554199219 16.660945892333984375 13.5531005859375 12.363835334777832031 8.08220672607421875 nan nan nan nan nan nan nan nan nan 10.546425819396972656 0.56688618659973144531 nan nan nan nan nan nan nan nan nan 
nan nan nan nan nan nan 3.4996373653411865234 3.8456304073333740234 4.4227771759033203125 5.5972971916198730469 5.3257436752319335938 4.4861626625061035156 3.6527869701385498047 4.2342505455017089844 5.2528271675109863281 4.3425655364990234375 3.5418903827667236328 5.1179432868957519531 3.9464969635009765625 12.684647560119628906 12.316555976867675781 5.1559343338012695313 nan nan nan nan nan nan nan nan nan nan nan nan nan nan nan nan nan nan nan nan nan 
nan nan nan nan nan nan 2.8251070976257324219 2.4227387905120849609 3.1558420658111572266 4.2613821029663085938 3.3265054225921630859 2.9353356361389160156 3.6522493362426757813 2.9357969760894775391 6.63393402099609375 3.2340259552001953125 2.8896248340606689453 3.6410436630249023438 3.3229961395263671875 6.6331796646118164063 14.958574295043945313 nan nan nan nan nan nan nan nan nan nan nan nan nan nan nan nan nan nan nan nan nan nan 
nan nan nan nan nan nan 1.2586921453475952148 1.1474809646606445313 0.90845328569412231445 1.1958752870559692383 1.0896930694580078125 1.4743013381958007813 3.3487432003021240234 3.7732470035552978516 3.6166257858276367188 2.0137274265289306641 2.2323412895202636719 2.5250196456909179688 2.3807809352874755859 4.9408941268920898438 11.958662033081054688 nan nan nan nan nan nan nan nan nan nan nan nan nan nan nan nan nan nan nan nan nan nan 
nan nan nan nan nan nan nan 0.72440516948699951172 1.103474736213684082 1.488081812858581543 0.72165215015411376953 0.70987951755523681641 0.97765511274337768555 1.2714631557464599609 2.8194935321807861328 1.9037176370620727539 2.1583752632141113281 1.8290749788284301758 2.3838405609130859375 nan nan nan nan nan nan nan nan nan nan nan nan nan nan nan nan nan nan nan nan nan nan nan nan 
