ncols        49
nrows        24
xllcorner    8.150000000000
yllcorner    43.950000000000
cellsize     0.100000000000
NODATA_value -9999
-9999 -9999 -9999 -9999 -9999 -9999 -9999 -9999 -9999 -9999 -9999 -9999 -9999 -9999 -9999 -9999 -9999 -9999 -9999 -9999 -9999 -9999 -9999 781 -9999 -9999 -9999 -9999 -9999 -9999 -9999 -9999 -9999 -9999 -9999 -9999 -9999 -9999 -9999 -9999 -9999 -9999 -9999 -9999 -9999 -9999 -9999 -9999 -9999 
-9999 -9999 -9999 -9999 -9999 -9999 -9999 -9999 -9999 -9999 -9999 -9999 -9999 -9999 -9999 -9999 -9999 -9999 -9999 -9999 -9999 781 781 781 -9999 -9999 -9999 -9999 -9999 -9999 -9999 -9999 -9999 -9999 -9999 -9999 -9999 -9999 -9999 -9999 -9999 -9999 -9999 -9999 -9999 -9999 -9999 -9999 -9999 
-9999 -9999 -9999 -9999 -9999 -9999 -9999 -9999 -9999 -9999 -9999 -9999 -9999 -9999 -9999 -9999 -9999 -9999 -9999 -9999 781 781 781 781 -9999 -9999 -9999 -9999 -9999 -9999 -9999 -9999 -9999 -9999 -9999 -9999 -9999 -9999 -9999 -9999 -9999 -9999 -9999 -9999 -9999 -9999 -9999 -9999 -9999 
-9999 -9999 -9999 -9999 -9999 -9999 -9999 -9999 -9999 -9999 -9999 -9999 -9999 -9999 780 780 780 780 780 780 781 781 781 -9999 -9999 -9999 -9999 -9999 -9999 -9999 -9999 -9999 -9999 -9999 -9999 -9999 -9999 -9999 -9999 -9999 -9999 -9999 -9999 -9999 -9999 -9999 -9999 -9999 -9999 
-9999 -9999 -9999 -9999 -9999 -9999 -9999 -9999 -9999 -9999 -9999 -9999 -9999 -9999 780 780 780 780 780 780 781 781 781 781 -9999 -9999 -9999 -9999 -9999 -9999 -9999 957 957 957 957 957 -9999 -9999 -9999 -9999 -9999 -9999 -9999 -9999 -9999 -9999 -9999 -9999 -9999 
-9999 -9999 -9999 -9999 -9999 -9999 -9999 -9999 -9999 -9999 -9999 -9999 -9999 780 780 780 780 780 780 781 781 781 781 781 781 781 781 -9999 -9999 -9999 957 957 957 957 957 957 -9999 -9999 -9999 -9999 -9999 -9999 -9999 -9999 -9999 -9999 960 960 960 
-9999 -9999 -9999 -9999 -9999 -9999 -9999 -9999 -9999 -9999 787 -9999 -9999 780 780 780 780 780 780 781 781 781 781 781 781 781 956 956 956 -9999 957 957 957 957 957 957 957 -9999 -9999 -9999 -9999 -9999 -9999 -9999 -9999 960 960 960 960 
-9999 -9999 -9999 -9999 -9999 -9999 -9999 -9999 786 786 787 787 787 786 780 780 780 780 781 781 781 781 781 781 781 956 956 956 956 956 957 957 957 957 957 961 961 961 961 -9999 -9999 -9999 960 960 960 960 960 960 -9999 
-9999 -9999 -9999 -9999 -9999 -9999 786 786 786 786 786 786 786 786 780 780 780 781 781 781 781 781 781 781 781 956 956 956 956 956 956 957 957 957 957 957 961 961 961 960 960 960 -9999 960 -9999 -9999 -9999 -9999 -9999 
-9999 -9999 -9999 -9999 -9999 -9999 -9999 786 786 786 786 786 786 784 784 784 784 784 781 781 781 781 781 781 785 956 956 956 956 956 956 956 957 957 957 961 961 961 961 960 960 960 -9999 -9999 -9999 -9999 -9999 -9999 -9999 
-9999 -9999 -9999 -9999 782 782 782 782 786 786 782 782 783 783 783 784 784 784 784 781 781 781 781 785 785 785 785 956 956 956 956 956 956 957 961 961 961 961 961 961 -9999 -9999 -9999 -9999 -9999 -9999 -9999 -9999 -9999 
-9999 -9999 -9999 -9999 782 782 782 782 782 782 782 782 782 783 783 783 784 784 784 784 784 784 785 785 785 785 785 785 956 956 956 956 956 961 961 961 961 961 961 960 960 -9999 -9999 -9999 -9999 -9999 -9999 -9999 -9999 
770 770 770 770 770 782 782 782 782 782 782 782 782 967 967 783 783 967 784 784 784 784 784 785 785 785 785 785 785 785 785 956 956 962 962 962 962 962 962 960 962 962 -9999 -9999 -9999 -9999 -9999 -9999 -9999 
-9999 -9999 770 770 770 770 770 770 782 782 782 782 967 967 967 967 967 967 967 968 968 784 784 785 785 785 785 785 785 785 785 785 962 962 962 962 962 962 962 962 962 962 962 -9999 -9999 -9999 -9999 -9999 -9999 
-9999 -9999 -9999 770 770 770 770 770 770 782 782 782 967 967 967 967 967 967 968 968 968 968 968 969 969 969 969 970 970 970 970 972 972 972 972 972 972 972 972 972 972 962 962 -9999 -9999 -9999 -9999 -9999 -9999 
-9999 -9999 -9999 770 770 770 770 770 770 770 782 782 967 967 967 967 967 968 968 968 968 968 968 969 969 969 969 970 970 970 970 972 972 972 972 972 972 972 972 972 972 -9999 962 -9999 -9999 -9999 -9999 -9999 -9999 
-9999 -9999 -9999 770 770 770 770 770 770 770 782 967 967 967 967 967 968 968 968 968 968 968 968 969 969 969 969 970 970 970 971 971 971 971 971 972 972 972 972 972 972 -9999 -9999 -9999 -9999 -9999 -9999 -9999 -9999 
-9999 -9999 770 770 770 770 770 770 774 770 774 967 967 967 968 968 968 968 968 968 968 968 968 969 969 969 970 970 970 971 971 971 971 971 971 971 972 972 972 972 972 -9999 -9999 -9999 -9999 -9999 -9999 -9999 -9999 
-9999 -9999 -9999 -9999 -9999 774 774 774 774 774 774 774 774 968 968 968 968 968 968 968 968 968 969 969 969 970 970 970 970 971 971 971 971 971 971 971 973 973 973 973 973 973 -9999 -9999 -9999 -9999 -9999 -9999 -9999 
-9999 -9999 -9999 -9999 -9999 774 -9999 774 774 774 774 774 774 -9999 -9999 968 976 976 976 968 969 969 969 969 969 970 970 970 970 971 971 971 971 971 971 971 971 973 973 973 973 973 -9999 -9999 -9999 -9999 -9999 -9999 -9999 
-9999 -9999 -9999 -9999 -9999 -9999 -9999 -9999 -9999 -9999 -9999 774 774 774 -9999 -9999 976 976 976 976 976 969 969 969 970 970 970 970 971 971 971 971 971 971 971 973 973 973 973 973 973 973 -9999 -9999 -9999 -9999 -9999 -9999 -9999 
-9999 -9999 -9999 -9999 -9999 -9999 -9999 -9999 -9999 -9999 -9999 -9999 -9999 -9999 -9999 -9999 -9999 -9999 976 976 976 -9999 -9999 -9999 970 970 970 971 971 971 971 971 -9999 971 973 973 973 -9999 -9999 -9999 -9999 -9999 -9999 -9999 -9999 -9999 -9999 -9999 -9999 
-9999 -9999 -9999 -9999 -9999 -9999 -9999 -9999 -9999 -9999 -9999 -9999 -9999 -9999 -9999 -9999 -9999 -9999 -9999 976 976 -9999 -9999 -9999 -9999 -9999 -9999 -9999 971 971 -9999 -9999 -9999 -9999 -9999 -9999 -9999 -9999 -9999 -9999 -9999 -9999 -9999 -9999 -9999 -9999 -9999 -9999 -9999 
-9999 -9999 -9999 -9999 -9999 -9999 -9999 -9999 -9999 -9999 -9999 -9999 -9999 -9999 -9999 -9999 -9999 -9999 -9999 976 -9999 -9999 -9999 -9999 -9999 -9999 -9999 -9999 -9999 -9999 -9999 -9999 -9999 -9999 -9999 -9999 -9999 -9999 -9999 -9999 -9999 -9999 -9999 -9999 -9999 -9999 -9999 -9999 -9999 
