ncols        49
nrows        24
xllcorner    8.150000000000
yllcorner    43.950000000000
cellsize     0.100000000000
NODATA_value -9999
-9999.0 -9999 -9999 -9999 -9999 -9999 -9999 -9999 -9999 -9999 -9999 -9999 -9999 -9999 -9999 -9999 -9999 -9999 -9999 -9999 -9999 52.626499176025390625 58.627994537353515625 50.56755828857421875 48.88372802734375 -9999 -9999 -9999 -9999 -9999 -9999 -9999 -9999 -9999 -9999 -9999 -9999 -9999 -9999 -9999 -9999 -9999 -9999 -9999 -9999 -9999 -9999 -9999 -9999 
-9999 -9999 -9999 -9999 -9999 -9999 -9999 -9999 -9999 -9999 -9999 -9999 -9999 -9999 -9999 -9999 -9999 -9999 -9999 -9999 43.258876800537109375 45.610469818115234375 58.68070220947265625 50.920558929443359375 56.59423065185546875 -9999 -9999 -9999 -9999 -9999 -9999 -9999 -9999 -9999 -9999 -9999 -9999 -9999 -9999 -9999 -9999 -9999 -9999 -9999 -9999 -9999 -9999 -9999 -9999 
-9999 -9999 -9999 -9999 -9999 -9999 -9999 -9999 -9999 -9999 -9999 -9999 -9999 -9999 53.224945068359375 60.8141021728515625 60.33502960205078125 60.23500823974609375 62.2463531494140625 57.81317138671875 54.7708282470703125 51.544551849365234375 55.98966217041015625 54.402935028076171875 -9999 -9999 -9999 -9999 -9999 -9999 -9999 -9999 -9999 -9999 -9999 -9999 -9999 -9999 -9999 -9999 -9999 -9999 -9999 -9999 -9999 -9999 -9999 -9999 -9999 
-9999 -9999 -9999 -9999 -9999 -9999 -9999 -9999 -9999 -9999 -9999 -9999 -9999 54.966949462890625 53.53633880615234375 56.08301544189453125 54.5047149658203125 54.34418487548828125 55.15502166748046875 55.841121673583984375 53.0047760009765625 47.90940093994140625 55.6595458984375 56.852481842041015625 -9999 -9999 -9999 -9999 -9999 -9999 -9999 33.813549041748046875 40.5011749267578125 35.216388702392578125 40.144927978515625 45.7191925048828125 -9999 -9999 -9999 -9999 -9999 -9999 -9999 -9999 -9999 -9999 -9999 -9999 -9999 
-9999 -9999 -9999 -9999 -9999 -9999 -9999 -9999 -9999 -9999 -9999 -9999 -9999 42.839443206787109375 48.1772003173828125 49.153011322021484375 50.161163330078125 49.682971954345703125 39.90413665771484375 48.91725921630859375 42.299427032470703125 43.26274871826171875 44.5264434814453125 47.685886383056640625 52.426471710205078125 -9999 -9999 -9999 -9999 -9999 37.9976806640625 42.161609649658203125 37.876735687255859375 25.094396591186523438 32.834506988525390625 49.448024749755859375 43.785343170166015625 -9999 -9999 -9999 -9999 -9999 -9999 -9999 -9999 -9999 -9999 -9999 -9999 
-9999 -9999 -9999 -9999 -9999 -9999 -9999 -9999 -9999 -9999 -9999 -9999 -9999 39.90573883056640625 40.38640594482421875 41.99260711669921875 41.70476531982421875 37.273067474365234375 36.920658111572265625 33.704620361328125 43.35363006591796875 45.363697052001953125 51.45355224609375 47.05585479736328125 53.693325042724609375 51.759136199951171875 31.7694244384765625 45.904026031494140625 -9999 -9999 54.095142364501953125 47.571384429931640625 34.71869659423828125 26.751829147338867188 27.826154708862304688 31.957212448120117188 14.45133209228515625 -9999 -9999 -9999 -9999 -9999 -9999 -9999 0.86726248264312744141 0.72049492597579956055 0.75085294246673583984 0.56679534912109375 1.0003647804260253906 
-9999 -9999 -9999 -9999 -9999 -9999 -9999 -9999 -9999 4.8518519401550292969 4.6178498268127441406 6.8203501701354980469 9.2363901138305664063 11.942043304443359375 5.2504315376281738281 8.9569520950317382813 18.3284454345703125 31.40314483642578125 35.570068359375 28.329395294189453125 47.251338958740234375 42.840305328369140625 37.153533935546875 45.008930206298828125 48.263641357421875 20.83759307861328125 37.758136749267578125 47.639263153076171875 37.1010894775390625 50.363109588623046875 42.772922515869140625 32.1833648681640625 7.4263606071472167969 4.1408352851867675781 5.7207050323486328125 1.1951659917831420898 0.91967999935150146484 0.79088944196701049805 -9999 -9999 -9999 -9999 -9999 0.68150669336318969727 0.54082953929901123047 0.57195442914962768555 0.44526451826095581055 0.40453109145164489746 0.52184337377548217773 
-9999 -9999 -9999 -9999 -9999 3.9537286758422851563 1.9869110584259033203 1.965305328369140625 1.8328523635864257813 1.9273802042007446289 1.3662464618682861328 2.0732083320617675781 1.6327623128890991211 2.7566051483154296875 1.6671783924102783203 1.1028382778167724609 1.1757950782775878906 3.4935953617095947266 8.0848760604858398438 12.589566230773925781 23.885967254638671875 37.965972900390625 25.959112167358398438 20.679365158081054688 5.9708256721496582031 11.652020454406738281 22.67748260498046875 34.423248291015625 27.542743682861328125 28.730131149291992188 31.728481292724609375 22.48937225341796875 20.3364105224609375 4.1211404800415039063 0.80195850133895874023 0.80470979213714599609 0.98264080286026000977 0.68845468759536743164 0.6641514897346496582 0.6563695073127746582 0.7049541473388671875 0.88857471942901611328 0.56708121299743652344 0.44880914688110351563 0.56642913818359375 0.43447929620742797852 0.48243784904479980469 0.29803484678268432617 0.21097607910633087158 
-9999 -9999 -9999 -9999 -9999 2.1755733489990234375 2.0935976505279541016 1.1034055948257446289 1.1968410015106201172 1.5222461223602294922 2.0873920917510986328 1.5105504989624023438 0.95729166269302368164 1.3129328489303588867 0.82045114040374755859 0.7707455754280090332 0.71408027410507202148 1.0662587881088256836 0.83639371395111083984 1.0371906757354736328 2.1946930885314941406 9.3058538436889648438 3.9066283702850341797 5.809398651123046875 0.6131642460823059082 1.5578352212905883789 7.2793226242065429688 7.4527044296264648438 19.008174896240234375 21.75917816162109375 21.247198104858398438 18.050462722778320313 7.2875041961669921875 15.155139923095703125 6.4426789283752441406 0.75802505016326904297 0.76843392848968505859 0.70861822366714477539 0.55135911703109741211 0.70081287622451782227 0.90462857484817504883 0.63951969146728515625 0.2686996757984161377 0.19864670932292938232 0.32622078061103820801 0.22594444453716278076 -9999 -9999 -9999 
-9999 -9999 -9999 -9999 -9999 -9999 1.7049483060836791992 1.5114843845367431641 0.84139835834503173828 0.95484060049057006836 1.2580629587173461914 1.1551855802536010742 0.91656821966171264648 1.0354516506195068359 0.76893305778503417969 0.87722009420394897461 0.67849171161651611328 0.97683429718017578125 0.56359428167343139648 0.72997826337814331055 0.7305545806884765625 0.84213483333587646484 1.374234318733215332 3.7148754596710205078 3.9155013561248779297 4.6534533500671386719 4.2935314178466796875 1.2170618772506713867 1.6805036067962646484 2.7587008476257324219 3.1469061374664306641 3.1232137680053710938 4.9608716964721679688 16.837926864624023438 4.8204779624938964844 5.9528608322143554688 1.2035889625549316406 1.0741984844207763672 0.71289616823196411133 0.62654709815979003906 0.46584028005599975586 0.38861745595932006836 0.2578086555004119873 -9999 -9999 -9999 -9999 -9999 -9999 
-9999 -9999 -9999 1.0421901941299438477 0.60599154233932495117 0.80919224023818969727 1.3363577127456665039 2.4790048599243164063 1.8078254461288452148 0.76959985494613647461 0.7906277775764465332 0.77426820993423461914 1.0307159423828125 1.0495553016662597656 1.0373177528381347656 1.4274860620498657227 0.74383914470672607422 0.87394976615905761719 1.081714630126953125 0.9912624359130859375 0.81555569171905517578 0.61703222990036010742 0.60331416130065917969 0.60531753301620483398 1.473185420036315918 2.2420961856842041016 0.61483049392700195313 0.54833209514617919922 0.83312338590621948242 0.71300387382507324219 0.7562274932861328125 0.83458244800567626953 0.61722511053085327148 0.59652364253997802734 2.7377541065216064453 21.014963150024414063 3.4736678600311279297 0.55140227079391479492 0.53306567668914794922 0.53386139869689941406 0.080654151737689971924 -9999 -9999 -9999 -9999 -9999 -9999 -9999 -9999 
3.7138829231262207031 3.3119893074035644531 0.89028966426849365234 0.79743236303329467773 0.85446476936340332031 0.9684149622917175293 1.4708501100540161133 1.3476811647415161133 1.982567906379699707 1.6790058612823486328 1.3247778415679931641 0.75066840648651123047 1.5995616912841796875 1.9319962263107299805 0.73200142383575439453 0.85344266891479492188 1.3164469003677368164 0.75362515449523925781 0.5170930027961730957 0.5908921360969543457 0.71327650547027587891 0.83925098180770874023 0.72474461793899536133 0.3762804865837097168 0.39322507381439208984 1.0216356515884399414 0.82704526185989379883 0.46825006604194641113 0.73894965648651123047 0.63682383298873901367 0.83083194494247436523 0.88777786493301391602 0.62140369415283203125 0.56193429231643676758 0.68061608076095581055 2.3511769771575927734 0.70256030559539794922 0.64213341474533081055 0.58968114852905273438 0.46732047200202941895 0.39172536134719848633 0.33573299646377563477 -9999 -9999 -9999 -9999 -9999 -9999 -9999 
16.768201828002929688 12.931488990783691406 11.436141014099121094 1.5450025796890258789 1.9323124885559082031 0.91278558969497680664 1.0048429965972900391 1.2967690229415893555 1.3159633874893188477 1.332375645637512207 0.959346771240234375 4.1195807456970214844 1.9603097438812255859 1.5386010408401489258 1.0772901773452758789 1.2622478008270263672 1.3203384876251220703 1.1606355905532836914 0.97972053289413452148 0.54522722959518432617 0.39421314001083374023 0.39806154370307922363 0.65001618862152099609 0.68482255935668945313 0.62329375743865966797 0.55872595310211181641 0.88640010356903076172 1.0890526771545410156 0.81810057163238525391 1.1277873516082763672 0.52790647745132446289 0.55280691385269165039 0.67954695224761962891 0.77789634466171264648 0.61343860626220703125 0.60279220342636108398 0.7267971038818359375 0.59892308712005615234 0.6230399012565612793 0.49230405688285827637 0.504261016845703125 0.58935409784317016602 0.017705369740724563599 -9999 -9999 -9999 -9999 -9999 -9999 
11.200778007507324219 12.303098678588867188 11.069549560546875 7.1628441810607910156 6.64629364013671875 4.6916904449462890625 0.94046056270599365234 0.95745581388473510742 0.98563432693481445313 7.6421766281127929688 15.086599349975585938 14.210323333740234375 8.8504400253295898438 2.9008953571319580078 1.1470410823822021484 0.96909165382385253906 0.81209641695022583008 0.53340858221054077148 0.45546886324882507324 0.62861859798431396484 0.7617282867431640625 0.72953104972839355469 0.92775464057922363281 0.46766793727874755859 0.751811981201171875 1.6800867319107055664 0.75133752822875976563 0.67772030830383300781 0.68812268972396850586 0.78241044282913208008 0.75235778093338012695 0.88257199525833129883 0.77429485321044921875 0.66120481491088867188 0.52582556009292602539 0.52479118108749389648 0.68879413604736328125 0.56674355268478393555 0.58149540424346923828 0.64947867393493652344 0.72002047300338745117 0.40931838750839233398 0.37889373302459716797 0.16380700469017028809 -9999 -9999 -9999 -9999 -9999 
-9999 -9999 4.2142252922058105469 1.2374488115310668945 1.1611948013305664063 1.2517637014389038086 0.8659432530403137207 5.7560677528381347656 10.449238777160644531 22.695680618286132813 20.311809539794921875 18.865884780883789063 20.773326873779296875 18.240285873413085938 12.037206649780273438 5.9210195541381835938 4.8406577110290527344 3.2262213230133056641 1.5308512449264526367 0.62796998023986816406 0.64249145984649658203 0.60567569732666015625 0.58443129062652587891 1.1425107717514038086 1.0433862209320068359 0.65268617868423461914 0.5766849517822265625 0.58102327585220336914 0.73208910226821899414 0.57798379659652709961 0.41457447409629821777 0.39466691017150878906 0.82061851024627685547 0.7332007288932800293 0.92584711313247680664 0.57210701704025268555 0.33824807405471801758 0.32767429947853088379 0.25959163904190063477 0.3729203641414642334 0.66499161720275878906 0.70096892118453979492 0.30923256278038024902 0.19625583291053771973 -9999 -9999 -9999 -9999 -9999 
-9999 -9999 10.145843505859375 5.8540258407592773438 1.6558943986892700195 1.4556518793106079102 1.5609635114669799805 12.923762321472167969 22.02277374267578125 22.578470230102539063 23.96921539306640625 28.136678695678710938 24.939960479736328125 24.46215057373046875 21.819456100463867188 18.90525054931640625 21.089006423950195313 18.908618927001953125 15.972337722778320313 7.3806085586547851563 1.2751932144165039063 1.1037994623184204102 0.83743196725845336914 0.62829059362411499023 0.64173662662506103516 0.56121236085891723633 0.65448462963104248047 0.66037654876708984375 0.90334451198577880859 0.64980429410934448242 0.52650946378707885742 0.62073594331741333008 0.70042115449905395508 0.46913450956344604492 0.70715248584747314453 0.57981985807418823242 0.43603268265724182129 0.4831523895263671875 0.42773967981338500977 0.42999938130378723145 0.47496515512466430664 0.33717638254165649414 0.13018700480461120605 -9999 -9999 -9999 -9999 -9999 -9999 
-9999 -9999 17.398708343505859375 12.250351905822753906 10.32234954833984375 9.2598257064819335938 13.33843231201171875 20.385402679443359375 30.650526046752929688 30.391111373901367188 40.681308746337890625 35.727840423583984375 33.258209228515625 20.88529205322265625 25.863491058349609375 20.71179962158203125 23.44800567626953125 22.59918975830078125 20.68973541259765625 13.943112373352050781 10.904995918273925781 3.2226314544677734375 1.7286145687103271484 1.6246999502182006836 1.3836997747421264648 0.70982211828231811523 0.78992801904678344727 0.81148582696914672852 0.77536064386367797852 0.56853067874908447266 0.56966322660446166992 0.8009617924690246582 0.50691455602645874023 0.6336078643798828125 0.62162452936172485352 0.47751748561859130859 0.41091668605804443359 0.36378887295722961426 0.28584384918212890625 0.37839156389236450195 0.50794684886932373047 0.0072065326385200023651 -9999 -9999 -9999 -9999 -9999 -9999 -9999 
-9999 24.331766128540039063 22.053453445434570313 22.471012115478515625 20.665348052978515625 25.019582748413085938 31.797567367553710938 28.980623245239257813 36.25330352783203125 43.469310760498046875 42.7754058837890625 35.187732696533203125 39.306247711181640625 27.1285858154296875 28.988634109497070313 23.204603195190429688 26.014066696166992188 23.81420135498046875 23.077028274536132813 27.03038787841796875 22.580080032348632813 16.446096420288085938 15.700587272644042969 17.418348312377929688 12.615489959716796875 7.0588049888610839844 1.6262744665145874023 1.1298089027404785156 1.1181794404983520508 0.57369917631149291992 0.71028840541839599609 0.72454571723937988281 0.76972329616546630859 0.62969487905502319336 0.59342747926712036133 0.70051097869873046875 0.60794693231582641602 0.53581196069717407227 0.42629870772361755371 0.21055702865123748779 0.25775039196014404297 0.29550388455390930176 -9999 -9999 -9999 -9999 -9999 -9999 -9999 
-9999 20.577009201049804688 17.775358200073242188 23.28449249267578125 26.941236495971679688 35.290924072265625 33.000301361083984375 30.20021820068359375 34.792888641357421875 41.84366607666015625 36.173404693603515625 33.94280242919921875 30.605562210083007813 32.121173858642578125 27.678859710693359375 18.486341476440429688 26.088407516479492188 29.658794403076171875 25.224170684814453125 27.714122772216796875 21.830739974975585938 24.246799468994140625 23.27445220947265625 20.594091415405273438 21.20508575439453125 17.702983856201171875 16.818065643310546875 12.093854904174804688 5.9840788841247558594 8.5077085494995117188 8.6616907119750976563 7.234554290771484375 2.530025482177734375 0.79078894853591918945 0.4909743964672088623 0.3823661506175994873 0.48918733000755310059 0.43792283535003662109 0.42222547531127929688 0.47958219051361083984 0.73027509450912475586 0.38455936312675476074 -9999 -9999 -9999 -9999 -9999 -9999 -9999 
-9999 -9999 -9999 -9999 26.450021743774414063 15.928453445434570313 6.5705690383911132813 9.93011474609375 20.85602569580078125 33.701999664306640625 39.88362884521484375 40.25742340087890625 41.636631011962890625 32.1569061279296875 30.196794509887695313 31.223865509033203125 35.892242431640625 27.4901123046875 42.2111053466796875 31.340665817260742188 28.208566665649414063 26.401968002319335938 23.712116241455078125 22.148860931396484375 22.511598587036132813 21.924852371215820313 17.656896591186523438 21.489025115966796875 18.501253128051757813 18.307987213134765625 24.6619720458984375 18.694799423217773438 19.882131576538085938 13.406408309936523438 5.3771977424621582031 1.256605982780456543 0.62001514434814453125 0.60605472326278686523 0.50604045391082763672 0.4675426781177520752 0.68837374448776245117 0.50587165355682373047 -9999 -9999 -9999 -9999 -9999 -9999 -9999 
-9999 -9999 -9999 -9999 -9999 -9999 -9999 -9999 -9999 0.076806806027889251709 9.9213571548461914063 8.1546392440795898438 23.992931365966796875 34.30741119384765625 29.693952560424804688 31.8569793701171875 36.34973907470703125 27.788257598876953125 25.525735855102539063 42.1068267822265625 41.19744873046875 35.202289581298828125 34.727802276611328125 25.994832992553710938 24.47278594970703125 23.882785797119140625 21.851533889770507813 22.090913772583007813 23.901214599609375 25.76822662353515625 26.296670913696289063 23.88448333740234375 23.482540130615234375 21.615814208984375 19.07988739013671875 13.656060218811035156 6.6887269020080566406 0.93864190578460693359 0.44503521919250488281 0.46659412980079650879 0.38519588112831115723 0.77891528606414794922 0.042409569025039672852 -9999 -9999 -9999 -9999 -9999 -9999 
-9999 -9999 -9999 -9999 -9999 -9999 -9999 -9999 -9999 -9999 -9999 -9999 0.63214451074600219727 9.3630323410034179688 -9999 -9999 31.065149307250976563 24.093282699584960938 20.341016769409179688 27.920862197875976563 34.0966033935546875 30.609579086303710938 37.126613616943359375 34.169254302978515625 31.539760589599609375 35.4976043701171875 33.78809356689453125 21.530284881591796875 20.577800750732421875 21.831640243530273438 22.086462020874023438 24.019483566284179688 22.66277313232421875 30.310123443603515625 29.662118911743164063 27.52978515625 20.76241302490234375 15.340142250061035156 4.6084346771240234375 -9999 1.1012597084045410156 0.46473842859268188477 0.46610799431800842285 -9999 -9999 -9999 -9999 -9999 -9999 
-9999 -9999 -9999 -9999 -9999 -9999 -9999 -9999 -9999 -9999 -9999 -9999 -9999 -9999 -9999 -9999 -9999 -9999 15.882274627685546875 41.576602935791015625 60.24112701416015625 -9999 -9999 -9999 45.59728240966796875 43.254802703857421875 37.9563446044921875 45.5843048095703125 37.36272430419921875 32.627895355224609375 28.062932968139648438 24.427762985229492188 -9999 -9999 32.9041900634765625 29.125761032104492188 28.093969345092773438 -9999 -9999 -9999 -9999 -9999 -9999 -9999 -9999 -9999 -9999 -9999 -9999 
-9999 -9999 -9999 -9999 -9999 -9999 -9999 -9999 -9999 -9999 -9999 -9999 -9999 -9999 -9999 -9999 -9999 -9999 1.3619301319122314453 2.2568917274475097656 29.795146942138671875 -9999 -9999 -9999 -9999 -9999 -9999 -9999 -9999 -9999 -9999 -9999 -9999 -9999 -9999 -9999 -9999 -9999 -9999 -9999 -9999 -9999 -9999 -9999 -9999 -9999 -9999 -9999 -9999 
