ncols        49
nrows        24
xllcorner    8.150000000000
yllcorner    43.950000000000
cellsize     0.100000000000
NODATA_value -9999
-9999.0 -9999 -9999 -9999 -9999 -9999 -9999 -9999 -9999 -9999 -9999 -9999 -9999 -9999 -9999 -9999 -9999 -9999 -9999 -9999 -9999 1524.42724609375 2125.563720703125 2184.61767578125 2233.8388671875 -9999 -9999 -9999 -9999 -9999 -9999 -9999 -9999 -9999 -9999 -9999 -9999 -9999 -9999 -9999 -9999 -9999 -9999 -9999 -9999 -9999 -9999 -9999 -9999 
-9999 -9999 -9999 -9999 -9999 -9999 -9999 -9999 -9999 -9999 -9999 -9999 -9999 -9999 -9999 -9999 -9999 -9999 -9999 -9999 1204.6732177734375 1452.4996337890625 1777.574462890625 2352.664794921875 2422.45947265625 -9999 -9999 -9999 -9999 -9999 -9999 -9999 -9999 -9999 -9999 -9999 -9999 -9999 -9999 -9999 -9999 -9999 -9999 -9999 -9999 -9999 -9999 -9999 -9999 
-9999 -9999 -9999 -9999 -9999 -9999 -9999 -9999 -9999 -9999 -9999 -9999 -9999 -9999 1111.810791015625 1678.9073486328125 1634.2744140625 1725.048583984375 1841.0528564453125 1900.306640625 2027.97998046875 1274.5537109375 1585.2457275390625 2365.657470703125 -9999 -9999 -9999 -9999 -9999 -9999 -9999 -9999 -9999 -9999 -9999 -9999 -9999 -9999 -9999 -9999 -9999 -9999 -9999 -9999 -9999 -9999 -9999 -9999 -9999 
-9999 -9999 -9999 -9999 -9999 -9999 -9999 -9999 -9999 -9999 -9999 -9999 -9999 1604.4609375 1380.8875732421875 1341.8648681640625 1798.0621337890625 1653.9678955078125 1611.556884765625 1562.6614990234375 1612.2734375 1034.0546875 1686.512451171875 2040.3916015625 -9999 -9999 -9999 -9999 -9999 -9999 -9999 927.7373046875 1186.8184814453125 1480.6337890625 1107.95703125 822.52813720703125 -9999 -9999 -9999 -9999 -9999 -9999 -9999 -9999 -9999 -9999 -9999 -9999 -9999 
-9999 -9999 -9999 -9999 -9999 -9999 -9999 -9999 -9999 -9999 -9999 -9999 -9999 1191.7099609375 1128.695068359375 950.87896728515625 1434.8548583984375 1003.16986083984375 1026.948486328125 1124.8001708984375 774.00177001953125 1264.0802001953125 1865.665771484375 1803.3427734375 1090.272216796875 -9999 -9999 -9999 -9999 -9999 1330.950927734375 1194.2840576171875 1243.08740234375 1269.4095458984375 1248.744140625 866.56494140625 1166.995849609375 -9999 -9999 -9999 -9999 -9999 -9999 -9999 -9999 -9999 -9999 -9999 -9999 
-9999 -9999 -9999 -9999 -9999 -9999 -9999 -9999 -9999 -9999 -9999 -9999 -9999 760.5579833984375 647.89495849609375 691.28179931640625 791.98486328125 739.63531494140625 751.99066162109375 552.2879638671875 1207.2100830078125 1201.5068359375 1310.63818359375 846.940185546875 1086.4578857421875 1073.2353515625 434.42327880859375 1131.239013671875 -9999 -9999 1359.5823974609375 882.32012939453125 704.10650634765625 924.508544921875 814.3399658203125 448.832916259765625 307.54168701171875 -9999 -9999 -9999 -9999 -9999 -9999 -9999 7.5471124649047851563 6.6679482460021972656 6.139080047607421875 6.3351092338562011719 6.2548022270202636719 
-9999 -9999 -9999 -9999 -9999 -9999 -9999 -9999 -9999 285.53009033203125 276.7108154296875 305.70806884765625 292.699005126953125 293.151611328125 254.23345947265625 298.752197265625 359.617279052734375 483.376495361328125 564.7412109375 463.719757080078125 763.6824951171875 822.63507080078125 562.116455078125 771.4921875 763.43182373046875 333.512420654296875 977.15338134765625 784.4755859375 1171.0506591796875 1388.8133544921875 988.5374755859375 495.1890869140625 198.50189208984375 134.794464111328125 111.3264617919921875 76.80603790283203125 72.52739715576171875 55.56722259521484375 -9999 -9999 -9999 -9999 -9999 6.3012690544128417969 2.0496592521667480469 0.31611928343772888184 -1.4276539087295532227 -0.94951128959655761719 0.41359940171241760254 
-9999 -9999 -9999 -9999 -9999 189.68048095703125 212.590087890625 214.856964111328125 201.5316009521484375 196.130157470703125 185.070343017578125 179.6527557373046875 187.6703338623046875 181.3925933837890625 168.120758056640625 173.000701904296875 171.7479705810546875 187.8017425537109375 225.6393585205078125 250.5204620361328125 354.30474853515625 598.41802978515625 469.91912841796875 292.825531005859375 108.37607574462890625 197.852752685546875 464.20074462890625 589.23272705078125 755.77099609375 898.01641845703125 686.458251953125 448.700439453125 202.1544647216796875 62.535064697265625 42.918781280517578125 38.982379913330078125 33.399578094482421875 29.066850662231445313 24.089395523071289063 18.446321487426757813 12.450862884521484375 6.1331110000610351563 2.6836266517639160156 0.39532718062400817871 0.40186482667922973633 -1.2418390512466430664 -1.1651892662048339844 -0.17872250080108642578 0.2372700423002243042 
-9999 -9999 -9999 -9999 -9999 154.5633087158203125 148.2266693115234375 155.3289794921875 148.3900299072265625 138.4087677001953125 133.51959228515625 123.764434814453125 120.713104248046875 114.2022857666015625 115.11792755126953125 111.54904937744140625 116.6301422119140625 121.501861572265625 122.05080413818359375 114.2209625244140625 120.94464111328125 181.91217041015625 164.085784912109375 157.2585906982421875 67.32269287109375 75.93508148193359375 155.0135650634765625 149.1158905029296875 266.122467041015625 332.663330078125 319.577850341796875 226.553802490234375 85.95772552490234375 102.6011810302734375 57.048168182373046875 24.551036834716796875 20.955289840698242188 17.176897048950195313 13.148891448974609375 8.6916093826293945313 5.4113821983337402344 1.5396200418472290039 -0.1705026477575302124 0.19253839552402496338 0.26256161928176879883 0.036956638097763061523 -9999 -9999 -9999 
-9999 -9999 -9999 -9999 -9999 -9999 118.08875274658203125 112.1417083740234375 115.9088592529296875 109.535552978515625 104.137725830078125 96.4955291748046875 92.7059326171875 82.4530181884765625 84.98104095458984375 83.6268157958984375 84.9853973388671875 79.91147613525390625 81.52474212646484375 77.31952667236328125 76.78814697265625 85.920745849609375 93.95965576171875 114.71039581298828125 107.33963775634765625 97.82305145263671875 105.6913604736328125 69.92350006103515625 52.947216033935546875 45.731655120849609375 43.319377899169921875 38.917659759521484375 63.30442047119140625 147.3422698974609375 36.697177886962890625 38.133106231689453125 15.072156906127929688 12.201563835144042969 8.0777730941772460938 3.0688898563385009766 0.60836297273635864258 0.73091757297515869141 0.4182917177677154541 -9999 -9999 -9999 -9999 -9999 -9999 
-9999 -9999 -9999 117.89867401123046875 118.1847076416015625 114.6591949462890625 110.09593963623046875 93.0215606689453125 95.86032867431640625 95.1673431396484375 88.94388580322265625 84.099578857421875 78.60594940185546875 73.13623046875 65.91828155517578125 64.196075439453125 65.81917572021484375 62.691516876220703125 58.895397186279296875 56.449962615966796875 53.272640228271484375 53.342365264892578125 53.30393218994140625 54.115509033203125 59.906803131103515625 58.783145904541015625 48.912593841552734375 36.489013671875 31.577037811279296875 26.21508026123046875 21.146226882934570313 20.343050003051757813 18.642129898071289063 14.819067001342773438 18.109584808349609375 125.96593475341796875 14.201633453369140625 5.0081763267517089844 3.9899706840515136719 0.61399763822555541992 -0.14796540141105651855 -9999 -9999 -9999 -9999 -9999 -9999 -9999 -9999 
157.930694580078125 146.714447021484375 120.82285308837890625 108.2481231689453125 104.81600189208984375 102.70633697509765625 100.21131134033203125 93.47674560546875 76.85808563232421875 74.51346588134765625 75.931915283203125 74.8694610595703125 73.76342010498046875 70.56079864501953125 64.40338897705078125 57.378955841064453125 49.429454803466796875 51.842021942138671875 51.058887481689453125 46.622478485107421875 41.429454803466796875 37.6176300048828125 36.56386566162109375 35.9474639892578125 33.441944122314453125 25.478334426879882813 27.753461837768554688 25.527933120727539063 21.525957107543945313 18.2174072265625 15.738087654113769531 14.349337577819824219 12.2998046875 9.7781696319580078125 8.5946664810180664063 13.86461639404296875 3.9798038005828857422 1.747287750244140625 0.24239261448383331299 -1.10704803466796875 -1.2783666849136352539 0.3072382807731628418 -9999 -9999 -9999 -9999 -9999 -9999 -9999 
253.93798828125 205.358154296875 187.1902923583984375 110.33251190185546875 96.77884674072265625 93.0876922607421875 86.82048797607421875 79.63364410400390625 71.60662078857421875 65.43785858154296875 62.6822052001953125 79.93308258056640625 66.34590911865234375 55.760326385498046875 52.63036346435546875 48.929035186767578125 44.47820281982421875 39.4349212646484375 37.534275054931640625 37.001575469970703125 34.0040283203125 31.604299545288085938 27.706422805786132813 24.562999725341796875 23.15464019775390625 21.085332870483398438 19.347513198852539063 16.941301345825195313 14.986491203308105469 12.888521194458007813 10.191844940185546875 8.125579833984375 9.1660823822021484375 8.0052947998046875 5.906993865966796875 4.158294677734375 2.8210003376007080078 0.6802209019660949707 -0.31209474802017211914 -1.3758995532989501953 -2.4545156955718994141 0.29277095198631286621 0.020937534049153327942 -9999 -9999 -9999 -9999 -9999 -9999 
188.1241455078125 215.81658935546875 184.5661773681640625 152.923492431640625 134.5702056884765625 109.8552703857421875 79.78924560546875 80.7954559326171875 91.12615203857421875 128.5394287109375 217.7373199462890625 258.133758544921875 189.7840118408203125 115.09018707275390625 88.54736328125 79.1494903564453125 61.90253448486328125 51.766262054443359375 41.321666717529296875 33.751491546630859375 31.196807861328125 28.24120330810546875 25.179063796997070313 21.11287689208984375 19.602579116821289063 20.694173812866210938 17.337429046630859375 15.814202308654785156 14.526192665100097656 12.219165802001953125 9.7792711257934570313 8.8617458343505859375 7.5958347320556640625 6.0044484138488769531 4.8868865966796875 3.3352594375610351563 2.2299258708953857422 0.83975148200988769531 -0.1763680577278137207 -0.57995504140853881836 -1.7672183513641357422 -2.9567427635192871094 -1.7800118923187255859 -0.34909158945083618164 -9999 -9999 -9999 -9999 -9999 
-9999 -9999 130.6435699462890625 105.0509796142578125 95.05966949462890625 98.93029022216796875 111.41290283203125 147.904571533203125 234.2815093994140625 367.196441650390625 476.015350341796875 504.982025146484375 465.3077392578125 382.98236083984375 254.2417755126953125 189.979248046875 141.2939910888671875 113.8214111328125 74.64937591552734375 53.59975433349609375 40.72182464599609375 33.8242645263671875 27.164625167846679688 24.899089813232421875 21.360715866088867188 19.211870193481445313 18.637376785278320313 17.984388351440429688 17.572460174560546875 14.12992095947265625 9.6624917984008789063 7.9713206291198730469 8.2495555877685546875 6.6593823432922363281 5.6064510345458984375 3.5503535270690917969 1.7770754098892211914 -1.0367128849029541016 -3.5194416046142578125 -3.4253859519958496094 -1.8836559057235717773 -2.3560769557952880859 -2.5852591991424560547 -0.75588095188140869141 -9999 -9999 -9999 -9999 -9999 
-9999 -9999 170.307586669921875 153.5487823486328125 119.80477142333984375 134.35931396484375 167.2180633544921875 260.56109619140625 380.51568603515625 497.437835693359375 655.048095703125 898.76513671875 591.89422607421875 567.16766357421875 540.0816650390625 533.754150390625 403.51580810546875 343.001708984375 231.6317901611328125 139.8684539794921875 76.55857086181640625 62.839542388916015625 45.3508148193359375 35.087558746337890625 26.225603103637695313 26.484844207763671875 26.366041183471679688 22.704158782958984375 22.931552886962890625 17.836679458618164063 14.652512550354003906 12.956396102905273438 11.929236412048339844 9.5583896636962890625 7.7893958091735839844 3.4917531013488769531 1.6858422756195068359 0.50682812929153442383 -1.6712560653686523438 -2.6427948474884033203 -1.7759630680084228516 0.052404168993234634399 -0.56583821773529052734 -9999 -9999 -9999 -9999 -9999 -9999 
-9999 -9999 279.12811279296875 203.7805023193359375 234.38177490234375 199.3578643798828125 273.48529052734375 328.924957275390625 537.01446533203125 800.614501953125 1176.802001953125 866.06890869140625 742.26580810546875 966.48016357421875 752.4708251953125 901.29345703125 683.6640625 504.269744873046875 344.697723388671875 221.5730133056640625 220.72991943359375 156.416107177734375 111.3111114501953125 84.37560272216796875 59.35326385498046875 44.525421142578125 39.405460357666015625 31.88420867919921875 26.161571502685546875 20.742832183837890625 15.703302383422851563 17.025634765625 13.110136032104492188 8.9170284271240234375 7.2427201271057128906 3.2295665740966796875 1.1990923881530761719 -1.2857228517532348633 -3.1754333972930908203 -2.5472919940948486328 -1.0537698268890380859 0.008403778076171875 -9999 -9999 -9999 -9999 -9999 -9999 -9999 
-9999 420.728363037109375 320.8568115234375 429.5487060546875 363.32354736328125 416.658599853515625 594.1878662109375 571.26324462890625 608.7091064453125 901.04400634765625 1124.5196533203125 870.240234375 1000.90802001953125 1171.806640625 960.49761962890625 722.55078125 760.63726806640625 615.9117431640625 503.055908203125 643.37933349609375 555.029052734375 373.8035888671875 289.576171875 294.33709716796875 233.640960693359375 134.685821533203125 74.80146026611328125 55.11800384521484375 40.84576416015625 34.96419525146484375 26.926685333251953125 23.476348876953125 20.97918701171875 14.179020881652832031 9.7402029037475585938 6.9916806221008300781 4.4952979087829589844 0.123159065842628479 -0.90897983312606811523 -2.4032201766967773438 -1.860408782958984375 0.16470293700695037842 -9999 -9999 -9999 -9999 -9999 -9999 -9999 
-9999 379.1517333984375 432.40069580078125 547.99908447265625 660.8331298828125 607.124267578125 639.44903564453125 306.129913330078125 469.56622314453125 718.99456787109375 857.22222900390625 939.06048583984375 1010.33160400390625 1187.117919921875 819.58740234375 645.92767333984375 710.243896484375 801.0775146484375 936.41094970703125 898.52862548828125 790.485595703125 561.24407958984375 528.75140380859375 588.08758544921875 432.739837646484375 273.32366943359375 277.28167724609375 203.6175689697265625 117.927764892578125 118.21253204345703125 105.8845062255859375 83.99033355712890625 56.62615966796875 35.420238494873046875 21.250143051147460938 11.838815689086914063 6.9565901756286621094 5.2723093032836914063 3.4164180755615234375 2.1794106960296630859 1.1185946464538574219 0.65461170673370361328 -9999 -9999 -9999 -9999 -9999 -9999 -9999 
-9999 -9999 -9999 -9999 465.60882568359375 148.5742950439453125 36.12662506103515625 52.580249786376953125 148.96728515625 330.579437255859375 331.966705322265625 461.376739501953125 494.73272705078125 815.896484375 736.7100830078125 1036.6383056640625 907.45489501953125 538.226318359375 1085.0045166015625 1187.1690673828125 890.7061767578125 889.52813720703125 677.0860595703125 589.84808349609375 522.69189453125 591.50604248046875 651.962890625 408.67083740234375 454.5098876953125 359.13885498046875 322.535369873046875 213.4569854736328125 205.5292205810546875 181.608734130859375 86.27155303955078125 40.125118255615234375 19.192117691040039063 15.329852104187011719 9.5800867080688476563 3.7977395057678222656 1.7422069311141967773 0.55371326208114624023 -9999 -9999 -9999 -9999 -9999 -9999 -9999 
-9999 -9999 -9999 -9999 -9999 -9999 -9999 -9999 -9999 0.053839862346649169922 50.875614166259765625 38.7125091552734375 169.6649627685546875 502.6953125 489.94244384765625 551.037841796875 759.55462646484375 405.61895751953125 377.008819580078125 784.37310791015625 1196.5111083984375 1211.1644287109375 1372.0816650390625 918.334228515625 968.95147705078125 872.97357177734375 670.94012451171875 529.010498046875 714.6224365234375 474.957855224609375 372.251739501953125 462.1055908203125 406.5491943359375 307.8704833984375 195.7230987548828125 124.5507354736328125 72.9215240478515625 30.9015655517578125 17.147985458374023438 11.63106536865234375 4.4314670562744140625 1.6087639331817626953 0.10111300647258758545 -9999 -9999 -9999 -9999 -9999 -9999 
-9999 -9999 -9999 -9999 -9999 -9999 -9999 -9999 -9999 -9999 -9999 -9999 2.0377137660980224609 53.12708282470703125 -9999 -9999 289.931060791015625 249.159027099609375 218.6820526123046875 336.512451171875 711.3779296875 827.18603515625 1124.2821044921875 1258.3956298828125 1174.5802001953125 1337.12158203125 928.930419921875 729.63970947265625 556.5545654296875 565.4951171875 579.665771484375 821.14739990234375 650.61370849609375 475.0474853515625 444.026092529296875 325.38763427734375 213.4401397705078125 160.4824066162109375 63.81792449951171875 -9999 23.325418472290039063 10.272608757019042969 1.8005571365356445313 -9999 -9999 -9999 -9999 -9999 -9999 
-9999 -9999 -9999 -9999 -9999 -9999 -9999 -9999 -9999 -9999 -9999 -9999 -9999 -9999 -9999 -9999 -9999 -9999 140.940704345703125 501.546630859375 956.6610107421875 -9999 -9999 -9999 1202.57470703125 1092.636474609375 1179.5592041015625 1028.58349609375 745.88848876953125 826.35333251953125 723.85540771484375 774.42938232421875 -9999 -9999 576.44647216796875 480.182464599609375 443.01776123046875 -9999 -9999 -9999 -9999 -9999 -9999 -9999 -9999 -9999 -9999 -9999 -9999 
-9999 -9999 -9999 -9999 -9999 -9999 -9999 -9999 -9999 -9999 -9999 -9999 -9999 -9999 -9999 -9999 -9999 -9999 6.2107052803039550781 10.643849372863769531 287.741302490234375 -9999 -9999 -9999 -9999 -9999 -9999 -9999 -9999 -9999 -9999 -9999 -9999 -9999 -9999 -9999 -9999 -9999 -9999 -9999 -9999 -9999 -9999 -9999 -9999 -9999 -9999 -9999 -9999 
