ncols        51
nrows        24
xllcorner    8.050000000000
yllcorner    43.950000000000
cellsize     0.100000000000
NODATA_value nan
nan nan nan nan nan nan nan nan nan nan nan nan nan nan nan nan nan nan nan nan nan nan nan nan nan nan nan nan nan nan nan nan nan nan nan nan nan nan nan nan nan nan nan nan nan nan nan nan nan nan nan 
nan nan nan nan nan nan nan nan nan nan nan nan nan nan nan nan nan nan nan nan nan nan nan nan nan nan nan nan nan nan nan nan nan nan nan nan nan nan nan nan nan nan nan nan nan nan nan nan nan nan nan 
nan nan nan nan nan nan nan nan nan nan nan nan nan nan nan nan nan nan nan nan nan nan nan nan nan nan nan nan nan nan nan nan nan nan nan nan nan nan nan nan nan nan nan nan nan nan nan nan nan nan nan 
nan nan nan nan nan nan nan nan nan nan nan nan nan nan nan nan nan nan nan nan nan nan nan nan nan nan nan nan nan nan nan nan nan nan nan nan nan nan nan nan nan nan nan nan nan nan nan nan nan nan nan 
nan nan nan nan nan nan nan nan nan nan nan nan nan nan nan nan nan nan nan nan nan nan nan nan nan nan nan nan nan nan nan nan nan nan nan nan nan nan nan nan nan nan nan nan nan nan nan nan nan nan nan 
nan nan nan nan nan nan nan nan nan nan nan nan nan nan nan nan nan nan nan nan nan nan nan nan nan nan nan nan nan nan nan nan nan nan nan nan nan nan nan nan nan nan nan nan nan 1.0 1 nan nan nan nan 
nan nan nan nan nan nan nan nan nan nan nan 1 1 nan 1 1 nan nan nan nan nan nan nan nan nan nan nan nan nan nan nan nan nan nan nan nan nan nan 1 nan nan nan nan nan 1 1 1 nan nan 1 nan 
nan nan nan nan nan nan nan 1 1 1 1 1 nan 1 1 1 1 1 1 nan 1 nan nan nan nan nan nan nan nan nan nan nan nan nan nan nan nan nan 1 1 1 1 1 1 1 nan 1 1 1 nan nan 
nan nan nan nan nan nan nan nan 1 1 1 nan 1 1 1 1 1 1 nan 1 1 1 1 1 1 1 1 1 1 1 1 nan nan 1 1 1 nan 1 1 1 1 1 1 1 nan nan nan nan nan nan nan 
nan nan nan nan nan nan nan 1 1 1 1 1 1 1 1 1 1 1 1 1 1 1 1 1 1 1 1 1 1 1 1 1 1 1 1 1 1 1 1 1 1 1 1 nan nan nan nan nan nan nan nan 
nan nan nan nan nan 1 1 1 1 1 1 1 1 1 1 1 1 1 1 1 1 nan 1 1 1 1 1 1 1 1 1 1 1 1 1 1 nan nan 1 1 nan nan nan nan nan nan nan nan nan nan nan 
nan nan 1 nan 1 1 1 1 1 nan 1 1 1 1 nan 1 1 1 1 1 1 1 1 1 nan 1 1 1 1 1 1 1 1 1 1 1 1 1 1 nan nan 1 nan nan nan nan nan nan nan nan nan 
1 1 1 1 1 1 nan 1 1 1 1 1 1 1 1 1 1 1 1 1 1 1 1 1 1 1 1 1 1 1 1 1 1 1 1 1 1 1 nan 1 1 1 1 nan nan nan nan nan nan nan nan 
nan 1 1 1 1 1 1 1 1 1 1 1 1 1 1 1 1 1 1 1 nan 1 1 1 1 1 1 1 1 1 1 1 1 1 1 1 1 1 1 1 1 1 1 1 1 nan nan nan nan nan nan 
nan nan nan 1 1 1 1 1 1 1 1 1 1 1 1 1 1 nan 1 1 1 1 1 1 nan 1 1 1 1 1 1 1 1 1 1 1 1 1 1 1 1 1 1 1 1 nan nan nan nan nan nan 
nan nan nan 1 1 1 1 1 1 1 1 nan nan nan 1 1 1 1 nan 1 1 1 1 1 1 1 1 1 1 1 1 1 1 1 1 1 1 1 1 1 1 1 1 1 nan nan nan nan nan nan nan 
nan nan nan nan 1 1 1 1 1 nan nan nan nan nan nan nan nan nan nan 1 1 1 1 1 1 1 1 1 1 1 1 1 1 1 1 1 1 1 1 1 1 1 nan nan nan nan nan nan nan nan nan 
nan nan 1 nan nan nan nan nan nan nan nan nan nan nan nan nan nan nan nan nan 1 1 1 1 1 1 1 1 1 1 1 1 1 1 1 1 1 1 1 1 1 nan nan nan nan nan nan nan nan nan nan 
nan nan nan nan nan nan nan nan nan nan nan nan nan nan nan nan nan nan nan nan nan nan 1 nan nan 1 1 1 1 1 1 1 1 1 1 1 1 1 1 1 1 1 nan nan nan nan nan nan nan nan nan 
nan nan nan nan nan nan nan nan nan nan nan nan nan nan nan nan nan nan nan nan nan nan nan nan nan nan nan nan 1 1 1 nan 1 1 1 1 1 1 1 1 1 1 1 nan nan nan nan nan nan nan nan 
nan nan nan nan nan nan nan nan nan nan nan nan nan 1 nan nan nan nan nan nan nan nan nan nan nan nan nan nan nan nan 1 1 nan nan 1 1 1 1 1 1 1 1 1 nan nan nan nan nan nan nan nan 
nan nan nan nan nan nan nan nan nan nan nan nan nan nan nan nan nan nan nan nan nan nan nan nan nan nan nan nan nan 1 1 1 nan nan 1 1 1 1 1 1 nan 1 1 1 nan nan nan nan nan nan nan 
nan nan nan nan nan nan nan nan nan nan nan nan nan nan nan nan nan nan nan 1 nan nan nan nan nan nan nan nan nan nan nan nan nan nan nan nan 1 1 nan nan nan nan nan nan nan nan nan nan nan nan nan 
nan nan nan nan nan nan nan nan nan nan nan nan nan nan nan nan nan nan nan nan 1 1 nan nan nan nan nan nan nan nan nan nan nan nan nan nan nan nan nan nan nan nan nan nan nan nan nan nan nan nan nan 
